; generated by SuperSlicer 2.5.59 on 2022-12-20 at 09:57:32 UTC


;
;
; 

; external perimeters extrusion width = 1.00mm
; perimeters extrusion width = 1.00mm
; infill extrusion width = 0.90mm
; solid infill extrusion width = 0.90mm
; top infill extrusion width = 0.80mm
; first layer extrusion width = 0.90mm

; object:{"name":"Merged","id":"Merged id:0 copy 0","object_center":[125.000000,105.000000,0.000000],"boundingbox_center":[125.000000,105.000000,13.750000],"boundingbox_size":[50.000000,30.000000,27.500000]}
; Total objects to print: 1
M486 T1
; plater:{"center":[125.000000,105.000000,0.000000],"boundingbox_center":[125.000000,105.000000,13.750000],"boundingbox_size":[50.000000,30.000000,27.500000]}

M73 P0 R12
M73 Q0 S12
M201 X1000 Y1000 Z200 E5000 ; sets maximum accelerations, mm/sec^2
M203 X200 Y200 Z12 E120 ; sets maximum feedrates, mm / sec
M204 P1250 R1250 T1250 ; sets acceleration (P, T) and retract acceleration (R), mm/sec^2
M205 X8.00 Y8.00 Z0.40 E4.50 ; sets the jerk limits, mm/sec
M205 S0 T0 ; sets the minimum extruding and travel feed rate, mm/sec
;TYPE:Custom
M862.3 P "MK3S" ; printer model check
M862.1 P0.8 ; nozzle diameter check
M115 U3.11.0 ; tell printer latest fw version

; Init
G90 ; use absolute coordinates
M83 ; extruder relative mode
M104 S220 ; set extruder temp
M140 S60 ; set bed temp
M190 S60 ; wait for bed temp

M117 Homing
G28 W ; home all without mesh bed level
M300 S40 P10 ; chirp
G80 ; mesh bed leveling
M117 Saving results
G81 ; save mesh leveling results
M109 S220 ; wait for extruder temp


; Purge line
M300 S40 P10 ; chirp
M117 Printing prime line
; Small version
G0 Z0.15 ; Restore nozzle position - (thanks tim.m30)
M900 K0; Disable Linear Advance for prime line
G92 E0.0 ; reset extrusion distance
G1 Y-3.0 F1000.0 ; go outside print area
G1 E2 F1000 ; de-retract and push ooze
M73 P2 R12
M73 Q2 S12
G1 X20.0 E6  F1000.0 ; fat 20mm intro line @ 0.30
G1 X60.0 E3.2  F1000.0 ; thin +40mm intro line @ 0.08
G1 X100.0 E6  F1000.0 ; fat +40mm intro line @ 0.15
G1 E-0.8 F3000; retract to avoid stringing
M73 P3 R12
M73 Q3 S12
G1 X99.5 E0 F1000.0 ; -0.5mm wipe action to avoid string
G1 X110.0 E0 F1000.0 ; +10mm intro line @ 0.00
G1 E0.6 F1500; de-retract
G92 E0.0 ; reset extrusion distance

; Long version
;G1 X55.0 F2000.0
;G1 Z0.3 F1000.0
;G92 E0.0
;G1 X240.0 E25.0 F2200.0
;G1 Y-2.0 F1000.0
;G1 X65.0 E25 F1400.0 ; off set this section to the right by 10mm
;G1 Z0.20 F1000.0
;G1 X15.0 E4.0 F1000.0 ; offset to the right 10mm to avoid blob;

;M900 K0; Disable Linear Advance for prime line
;G92 E0.0 ; reset extrusion distance
;G1 E-0.8 F3000; retract to avoid stringing
;G1 X99.5 E0 F1000.0 ; -0.5mm wipe action to avoid string
;G1 X110.0 E0 F1000.0 ; +10mm intro line @ 0.00
;G1 E0.6 F1500; de-retract
;G92 E0.0 ; reset extrusion distance

; Final print adjustments
; Prusa's default flow to 95% to prevent overextrusion
M221 S95
; Set default linear advances for nozzles 0.4, 0.6 and 0.8
M900 K0.02
; Set extruder motor currents according to print profile name
M907 E538


M300 S40 P10 ; chirp
M117 Print in progress
M107
G21 ; set units to millimeters
G90 ; use absolute coordinates
M83 ; use relative distances for extrusion
M900 K0.01;
;_TOOLCHANGE 0
M107
;LAYER_CHANGE
;Z:0.3
;HEIGHT:0.3
;BEFORE_LAYER_CHANGE
G92 E0.0
;0.3


G1 E-1.6 F2100
G1 Z0.4 F720
;AFTER_LAYER_CHANGE
;0.3
G1 Z0.7
M204 S800
G1 X118.751 Y93.469 F10800
G1 Z0.3 F720
G1 E1.6 F2100
;TYPE:Skirt
;WIDTH:1.04
G1 F1200
G1 X118.357 Y95.08 E0.2018
G1 X118.357 Y106.621 E1.40439
G1 X118.987 Y108.621 E0.25516
G1 X120.234 Y109.714 E0.2018
G1 X121.844 Y110.109 E0.2018
G1 X129.268 Y110.109 E0.90339
G1 X131.268 Y109.478 E0.25516
G1 X132.362 Y108.232 E0.2018
G1 X132.756 Y106.621 E0.2018
G1 X132.756 Y95.08 E1.40439
G1 X132.126 Y93.08 E0.25516
G1 X130.879 Y91.986 E0.2018
G1 X129.268 Y91.592 E0.2018
G1 X121.844 Y91.592 E0.90339
G1 X119.845 Y92.222 E0.25516
G1 X118.83 Y93.379 E0.1872
;WIPE_START
M73 Q4 S12
G1 F8640
M204 S1000
G1 X118.357 Y95.08 E-0.4077
M73 P4 R12
G1 X118.357 Y99.897 E-1.1123
;WIPE_END
G1 E-0.08 F2100
G1 Z0.7 F720
; printing object Merged id:0 copy 0
M486 S0
; acceleration to travel
M204 S1500
G1 X122.521 Y97.107 F10800
; decel to extrusion
M204 S800
G1 X123.33 Y96.565
; end travel
G1 Z0.3 F720
G1 E1.6 F2100
;TYPE:Internal perimeter
;WIDTH:0.835619
G1 F1200
G1 X127.783 Y96.565 E0.42833
G1 X127.783 Y105.135 E0.82438
G1 X123.33 Y105.135 E0.42833
G1 X123.33 Y96.685 E0.81283
;WIPE_START
G1 F8640
M204 S1000
G1 X127.783 Y96.565 E-1.02854
G1 X127.783 Y98.694 E-0.49146
;WIPE_END
G1 E-0.08 F2100
G1 Z0.7 F720
; acceleration to travel
M204 S1500
G1 X123.355 Y96.212 F10800
; decel to extrusion
M204 S800
G1 X122.494 Y95.73
; end travel
G1 Z0.3 F720
G1 E1.6 F2100
;TYPE:External perimeter
G1 F1200
G1 X128.618 Y95.73 E0.58909
G1 X128.618 Y105.971 E0.98514
G1 X122.494 Y105.971 E0.58909
G1 X122.494 Y95.85 E0.97359
;WIPE_START
M204 S1000
G1 X123.187 Y96.13 F10800
;WIPE_END
;WIPE_START
G1 F8640
G1 X128.218 Y96.13 E-1.16172
G1 X128.218 Y97.681 E-0.35828
;WIPE_END
G1 E-0.08 F2100
G1 Z0.7 F720
M204 S800
G1 X127.574 Y98.463 F10800
G1 Z0.3 F720
G1 E1.6 F2100
;TYPE:Solid infill
;WIDTH:0.912378
G1 F1200
G1 X126.244 Y97.133 E0.1987
G1 X125.062 Y97.133 E0.12486
G1 X127.215 Y99.286 E0.32159
G1 X127.215 Y100.467 E0.12486
G1 X123.898 Y97.151 E0.49554
G1 X123.898 Y98.333 E0.12486
G1 X127.215 Y101.649 E0.49554
G1 X127.215 Y102.831 E0.12486
G1 X123.898 Y99.515 E0.49554
G1 X123.898 Y100.696 E0.12486
G1 X127.215 Y104.013 E0.49554
G1 X127.215 Y104.567 E0.05858
G1 X126.587 Y104.567 E0.06628
G1 X123.898 Y101.878 E0.4018
G1 X123.898 Y103.06 E0.12486
G1 X125.406 Y104.567 E0.22522
G1 X124.224 Y104.567 E0.12486
G1 X123.539 Y103.882 E0.10234
M106 S127.5
;LAYER_CHANGE
;Z:0.9
;HEIGHT:0.6
;BEFORE_LAYER_CHANGE
G92 E0.0
;0.9


;WIPE_START
G1 F8640
M204 S1000
G1 X124.224 Y104.567 E-0.22365
G1 X125.406 Y104.567 E-0.27287
G1 X123.898 Y103.06 E-0.49221
G1 X123.898 Y101.878 E-0.27287
G1 X124.69 Y102.669 E-0.25841
;WIPE_END
G1 E-0.08 F2100
G1 Z0.7 F720
; stop printing object Merged id:0 copy 0
M486 S-1
G1 Z0.9
;AFTER_LAYER_CHANGE
;0.9
M104 S215 ; set temperature
G1 Z1.3
; acceleration to travel
M204 S1500
G1 X119.592 Y102.669 F10800
; decel to extrusion
M204 S1000
G1 X118.357 Y102.669
; end travel
G1 Z0.9 F720
G1 E1.6 F2100
;TYPE:Skirt
;WIDTH:1.04
G1 F1050
G1 X118.357 Y106.621 E0.89822
M73 Q5 S12
G1 X118.987 Y108.621 E0.47664
G1 X120.234 Y109.714 E0.37697
G1 X121.844 Y110.109 E0.37697
M73 P5 R12
G1 X129.268 Y110.109 E1.68755
G1 X131.268 Y109.478 E0.47664
G1 X132.362 Y108.232 E0.37697
G1 X132.756 Y106.621 E0.37697
G1 X132.756 Y95.08 E2.62343
G1 X132.126 Y93.08 E0.47664
G1 X130.879 Y91.986 E0.37697
G1 X129.268 Y91.592 E0.37697
G1 X121.844 Y91.592 E1.68755
G1 X119.845 Y92.222 E0.47664
G1 X118.751 Y93.469 E0.37697
G1 X118.357 Y95.08 E0.37697
G1 X118.357 Y102.549 E1.69794
M106 S127.5
;WIPE_START
G1 F8640
G1 X118.357 Y106.621 E-0.94013
G1 X118.987 Y108.621 E-0.48417
G1 X119.299 Y108.894 E-0.0957
;WIPE_END
G1 E-0.08 F2100
G1 Z1.3 F720
; printing object Merged id:0 copy 0
M486 S0
; acceleration to travel
M204 S1500
G1 X122.542 Y103.64 F10800
; decel to extrusion
M204 S800
G1 X123.216 Y102.549
; end travel
G1 Z0.9 F720
G1 E1.6 F2100
;TYPE:Internal perimeter
;WIDTH:0.871238
G1 F1200
G1 X123.216 Y96.451 E1.12951
G1 X127.897 Y96.451 E0.86708
G1 X127.897 Y105.25 E1.62963
G1 X123.216 Y105.25 E0.86708
G1 X123.216 Y102.669 E0.4779
M106 S127.5
G1 X122.344 Y102.549 F10800
;TYPE:External perimeter
G1 F1200
M106 S255
G1 X122.344 Y95.58 E1.29087
G1 X128.768 Y95.58 E1.18981
G1 X128.768 Y106.121 E1.95236
G1 X122.344 Y106.121 E1.18981
G1 X122.344 Y102.669 E0.63926
M106 S127.5
;WIPE_START
M204 S1000
G1 X123.037 Y102.149 F10800
;WIPE_END
;WIPE_START
G1 F8640
G1 X122.744 Y95.98 E-1.42621
G1 X123.151 Y95.98 E-0.09379
;WIPE_END
G1 E-0.08 F2100
G1 Z1.3 F720
; acceleration to travel
M204 S1500
G1 X125.517 Y103.183 F10800
; decel to extrusion
M204 S1000
G1 X126.125 Y105.037
; end travel
G1 Z0.9 F720
G1 E1.6 F2100
;TYPE:Solid infill
;WIDTH:0.916174
G1 F1200
M73 Q6 S12
G1 X127.353 Y103.809 E0.33994
G1 X127.353 Y102.719 E0.21361
G1 X125.366 Y104.705 E0.55017
G1 X124.276 Y104.705 E0.21361
G1 X127.353 Y101.628 E0.85225
M73 P6 R12
G1 X127.353 Y100.537 E0.21361
G1 X123.76 Y104.13 E0.99505
G1 X123.76 Y103.039 E0.21361
G1 X127.353 Y99.447 E0.99505
G1 X127.353 Y98.356 E0.21361
G1 X123.76 Y101.949 E0.99505
G1 X123.76 Y100.858 E0.21361
G1 X127.353 Y97.265 E0.99505
G1 X127.353 Y96.995 E0.05288
G1 X126.532 Y96.995 E0.16073
G1 X123.76 Y99.767 E0.76775
G1 X123.76 Y98.677 E0.21361
G1 X125.441 Y96.995 E0.46567
G1 X124.351 Y96.995 E0.21361
G1 X123.428 Y97.918 E0.25543
M106 S127.5
M106 S255
;LAYER_CHANGE
;Z:1.5
;HEIGHT:0.6
;BEFORE_LAYER_CHANGE
G92 E0.0
;1.5


;WIPE_START
G1 F8640
G1 X124.351 Y96.995 E-0.30116
G1 X125.441 Y96.995 E-0.25184
G1 X123.76 Y98.677 E-0.54903
G1 X123.76 Y99.767 E-0.25184
G1 X124.269 Y99.259 E-0.16613
;WIPE_END
G1 E-0.08 F2100
G1 Z1.3 F720
; stop printing object Merged id:0 copy 0
M486 S-1
G1 Z1.5
;AFTER_LAYER_CHANGE
;1.5
G1 Z1.9
; printing object Merged id:0 copy 0
M486 S0
M204 S800
G1 X123.216 Y99.259 F10800
G1 Z1.5 F720
G1 E1.6 F2100
;TYPE:Internal perimeter
;WIDTH:0.871238
G1 F1200
G1 X123.216 Y96.451 E0.52002
G1 X127.897 Y96.451 E0.86708
G1 X127.897 Y105.25 E1.62963
G1 X123.216 Y105.25 E0.86708
G1 X123.216 Y99.379 E1.08739
G1 X122.344 Y99.259 F10800
;TYPE:External perimeter
G1 F1200
G1 X122.344 Y95.58 E0.68138
G1 X128.768 Y95.58 E1.18981
G1 X128.768 Y106.121 E1.95236
G1 X122.344 Y106.121 E1.18981
G1 X122.344 Y99.379 E1.24875
;WIPE_START
M204 S1000
G1 X123.037 Y98.859 F10800
;WIPE_END
;WIPE_START
G1 F8640
G1 X122.744 Y95.98 E-0.66819
G1 X126.433 Y95.98 E-0.85181
;WIPE_END
G1 E-0.08 F2100
G1 Z1.9 F720
; acceleration to travel
M204 S1500
G1 X127.428 Y97.764 F10800
; decel to extrusion
M204 S1000
G1 X127.684 Y98.223
; end travel
G1 Z1.5 F720
G1 E1.6 F2100
;TYPE:Solid infill
;WIDTH:0.916174
G1 F1200
G1 X126.457 Y96.995 E0.33994
G1 X125.366 Y96.995 E0.21361
G1 X127.353 Y98.982 E0.55017
G1 X127.353 Y100.072 E0.21361
G1 X124.276 Y96.995 E0.85225
G1 X123.76 Y96.995 E0.10097
G1 X123.76 Y97.57 E0.11263
G1 X127.353 Y101.163 E0.99505
G1 X127.353 Y102.254 E0.21361
G1 X123.76 Y98.661 E0.99505
G1 X123.76 Y99.752 E0.21361
M73 Q7 S12
G1 X127.353 Y103.345 E0.99505
G1 X127.353 Y104.435 E0.21361
M73 P7 R12
G1 X123.76 Y100.842 E0.99505
G1 X123.76 Y101.933 E0.21361
G1 X126.532 Y104.705 E0.76775
G1 X125.441 Y104.705 E0.21361
G1 X123.76 Y103.024 E0.46567
G1 X123.76 Y104.115 E0.21361
G1 X124.682 Y105.037 E0.25543
;LAYER_CHANGE
;Z:2.1
;HEIGHT:0.6
;BEFORE_LAYER_CHANGE
G92 E0.0
;2.1


;WIPE_START
G1 F8640
G1 X123.76 Y104.115 E-0.30116
G1 X123.76 Y103.024 E-0.25184
G1 X125.441 Y104.705 E-0.54903
G1 X126.532 Y104.705 E-0.25184
G1 X126.023 Y104.196 E-0.16613
;WIPE_END
G1 E-0.08 F2100
G1 Z1.9 F720
; stop printing object Merged id:0 copy 0
M486 S-1
G1 Z2.1
;AFTER_LAYER_CHANGE
;2.1
G1 Z2.5
; printing object Merged id:0 copy 0
M486 S0
M204 S800
G1 X126.023 Y105.25 F10800
G1 Z2.1 F720
G1 E1.6 F2100
;TYPE:Internal perimeter
;WIDTH:0.871238
G1 F1200
G1 X123.216 Y105.25 E0.52002
G1 X123.216 Y96.451 E1.62963
G1 X127.897 Y96.451 E0.86708
G1 X127.897 Y105.25 E1.62963
M73 P7 R11
G1 X126.143 Y105.25 E0.32484
G1 X126.023 Y106.121 F10800
;TYPE:External perimeter
G1 F1200
M73 Q7 S11
G1 X122.344 Y106.121 E0.68138
G1 X122.344 Y95.58 E1.95236
G1 X128.768 Y95.58 E1.18981
G1 X128.768 Y106.121 E1.95236
G1 X126.143 Y106.121 E0.4862
;WIPE_START
M204 S1000
G1 X125.623 Y105.428 F10800
;WIPE_END
;LAYER_CHANGE
;Z:2.7
;HEIGHT:0.6
;BEFORE_LAYER_CHANGE
G92 E0.0
;2.7


;WIPE_START
G1 F8640
G1 X122.744 Y105.721 E-0.66819
G1 X122.744 Y102.032 E-0.85181
;WIPE_END
G1 E-0.08 F2100
G1 Z2.5 F720
; stop printing object Merged id:0 copy 0
M486 S-1
G1 Z2.7
;AFTER_LAYER_CHANGE
;2.7
; printing object Merged id:0 copy 0
M486 S0
M204 S800
G1 X123.216 Y102.032 F10800
G1 E1.6 F2100
;TYPE:Internal perimeter
G1 F1200
G1 X123.216 Y96.451 E1.03366
G1 X127.897 Y96.451 E0.86708
G1 X127.897 Y105.25 E1.62963
G1 X123.216 Y105.25 E0.86708
G1 X123.216 Y102.152 E0.57375
G1 X122.344 Y102.032 F10800
;TYPE:External perimeter
G1 F1200
G1 X122.344 Y95.58 E1.19502
G1 X128.768 Y95.58 E1.18981
G1 X128.768 Y106.121 E1.95236
G1 X122.344 Y106.121 E1.18981
M73 Q8 S11
G1 X122.344 Y102.152 E0.73512
;WIPE_START
M204 S1000
M73 P8 R11
G1 X123.037 Y101.632 F10800
;WIPE_END
;LAYER_CHANGE
;Z:3.3
;HEIGHT:0.6
;BEFORE_LAYER_CHANGE
G92 E0.0
;3.3


;WIPE_START
G1 F8640
G1 X122.744 Y95.98 E-1.30686
G1 X123.668 Y95.98 E-0.21314
;WIPE_END
G1 E-0.08 F2100
G1 Z3.1 F720
; stop printing object Merged id:0 copy 0
M486 S-1
G1 Z3.3
;AFTER_LAYER_CHANGE
;3.3
; printing object Merged id:0 copy 0
M486 S0
M204 S800
G1 X123.668 Y96.451 F10800
G1 E1.6 F2100
;TYPE:Internal perimeter
G1 F1200
G1 X127.897 Y96.451 E0.78339
G1 X127.897 Y105.25 E1.62963
G1 X123.216 Y105.25 E0.86708
G1 X123.216 Y96.451 E1.62963
G1 X123.548 Y96.451 E0.06146
G1 X123.668 Y95.58 F10800
;TYPE:External perimeter
G1 F1200
G1 X128.768 Y95.58 E0.94475
G1 X128.768 Y106.121 E1.95236
G1 X122.344 Y106.121 E1.18981
G1 X122.344 Y95.58 E1.95236
G1 X123.548 Y95.58 E0.22283
;WIPE_START
M204 S1000
G1 X124.068 Y96.272 F10800
;WIPE_END
;LAYER_CHANGE
;Z:3.9
;HEIGHT:0.6
;BEFORE_LAYER_CHANGE
G92 E0.0
;3.9


;WIPE_START
G1 F8640
G1 X128.368 Y95.98 E-0.9954
G1 X128.368 Y98.252 E-0.5246
;WIPE_END
G1 E-0.08 F2100
G1 Z3.7 F720
; stop printing object Merged id:0 copy 0
M486 S-1
G1 Z3.9
;AFTER_LAYER_CHANGE
;3.9
; printing object Merged id:0 copy 0
M486 S0
M204 S800
G1 X127.897 Y98.252 F10800
G1 E1.6 F2100
;TYPE:Internal perimeter
G1 F1200
G1 X127.897 Y105.25 E1.29612
G1 X123.216 Y105.25 E0.86708
G1 X123.216 Y96.451 E1.62963
G1 X127.897 Y96.451 E0.86708
G1 X127.897 Y98.132 E0.31129
G1 X128.768 Y98.252 F10800
;TYPE:External perimeter
G1 F1200
G1 X128.768 Y106.121 E1.45748
G1 X122.344 Y106.121 E1.18981
G1 X122.344 Y95.58 E1.95236
G1 X128.768 Y95.58 E1.18981
G1 X128.768 Y98.132 E0.47265
;WIPE_START
M204 S1000
M73 Q9 S11
G1 X128.076 Y98.652 F10800
;WIPE_END
;LAYER_CHANGE
;Z:4.5
;HEIGHT:0.6
;BEFORE_LAYER_CHANGE
G92 E0.0
;4.5


;WIPE_START
M73 P9 R11
G1 F8640
G1 X128.348 Y105.229 E-1.52
;WIPE_END
G1 E-0.08 F2100
G1 Z4.3 F720
; stop printing object Merged id:0 copy 0
M486 S-1
G1 Z4.5
;AFTER_LAYER_CHANGE
;4.5
; printing object Merged id:0 copy 0
M486 S0
M204 S800
G1 X127.897 Y105.229 F10800
G1 E1.6 F2100
;TYPE:Internal perimeter
G1 F1200
G1 X127.897 Y105.25 E0.00386
G1 X123.216 Y105.25 E0.86708
G1 X123.216 Y96.451 E1.62963
G1 X127.897 Y96.451 E0.86708
G1 X127.897 Y105.109 E1.60355
G1 X128.768 Y105.229 F10800
;TYPE:External perimeter
G1 F1200
G1 X128.768 Y106.121 E0.16522
G1 X122.344 Y106.121 E1.18981
G1 X122.344 Y95.58 E1.95236
G1 X128.768 Y95.58 E1.18981
G1 X128.768 Y105.109 E1.76491
;WIPE_START
M204 S1000
G1 X128.076 Y105.629 F10800
;WIPE_END
;LAYER_CHANGE
;Z:5.1
;HEIGHT:0.6
;BEFORE_LAYER_CHANGE
G92 E0.0
;5.1


;WIPE_START
G1 F8640
G1 X122.744 Y105.721 E-1.23118
G1 X122.744 Y104.47 E-0.28882
;WIPE_END
G1 E-0.08 F2100
G1 Z4.9 F720
; stop printing object Merged id:0 copy 0
M486 S-1
G1 Z5.1
;AFTER_LAYER_CHANGE
;5.1
; printing object Merged id:0 copy 0
M486 S0
M204 S800
G1 X123.216 Y104.47 F10800
G1 E1.6 F2100
;TYPE:Internal perimeter
G1 F1200
G1 X123.216 Y96.451 E1.48524
G1 X127.897 Y96.451 E0.86708
G1 X127.897 Y105.25 E1.62963
G1 X123.216 Y105.25 E0.86708
G1 X123.216 Y104.59 E0.12217
G1 X122.344 Y104.47 F10800
;TYPE:External perimeter
G1 F1200
G1 X122.344 Y95.58 E1.64661
G1 X128.768 Y95.58 E1.18981
G1 X128.768 Y106.121 E1.95236
G1 X122.344 Y106.121 E1.18981
G1 X122.344 Y104.59 E0.28353
;WIPE_START
M204 S1000
G1 X123.037 Y104.07 F10800
;WIPE_END
;LAYER_CHANGE
;Z:5.7
;HEIGHT:0.6
;BEFORE_LAYER_CHANGE
G92 E0.0
;5.7


;WIPE_START
G1 F8640
G1 X122.799 Y97.491 E-1.52
;WIPE_END
G1 E-0.08 F2100
G1 Z5.5 F720
; stop printing object Merged id:0 copy 0
M486 S-1
M73 Q10 S11
G1 Z5.7
;AFTER_LAYER_CHANGE
;5.7
; printing object Merged id:0 copy 0
M486 S0
M204 S800
G1 X123.216 Y97.491 F10800
G1 E1.6 F2100
;TYPE:Internal perimeter
G1 F1200
G1 X123.216 Y96.451 E0.19273
M73 P10 R11
