; generated by PrusaSlicer 2.4 on 2022-04-04 at 12:37:20 UTC

; 

; external perimeters extrusion width = 0.45mm
; perimeters extrusion width = 0.45mm
; infill extrusion width = 0.45mm
; solid infill extrusion width = 0.45mm
; top infill extrusion width = 0.40mm
; support material extrusion width = 0.35mm
; first layer extrusion width = 0.42mm

; object:{"name":"Merged","id":"Merged id:0 copy 0","object_center":[121.505910,160.874041,0.000000],"boundingbox_center":[121.505910,160.874041,13.152942],"boundingbox_size":[33.935001,15.583664,26.305883]}
; Total objects to print: 1
M486 T1
; plater:{"center":[121.505910,160.874041,0.000000],"boundingbox_center":[121.505910,160.874041,13.152942],"boundingbox_size":[33.935001,15.583664,26.305883]}

M73 P100 R0
M73 Q99 S0
;TYPE:Custom
M862.3 P "MK3S" ; printer model check
M862.1 P0.4 ; nozzle diameter check
M115 U3.10.0 ; tell printer latest fw version
G90 ; use absolute coordinates
M83 ; extruder relative mode
M104 S230 ; set extruder temp
M140 S85 ; set bed temp
M190 S85 ; wait for bed temp
M109 S230 ; wait for extruder temp
G28 W ; home all without mesh bed level
G80 ; mesh bed leveling
G1 Y-3.0 F1000.0 ; go outside print area
G92 E0.0
G1 X60.0 E9.0 F1000.0 ; intro line
M73 P0 R49
M73 Q0 S50
G1 X100.0 E12.5 F1000.0 ; intro line
G92 E0.0
M221 S95

; Don't change E values below. Excessive value can damage the printer.
M907 E430 ; set extruder motor current
M107
G21 ; set units to millimeters
G90 ; use absolute coordinates
M83 ; use relative distances for extrusion
M900 K0.08 ; Filament gcode LA 1.5
M900 K45 ; Filament gcode LA 1.0
M107
;LAYER_CHANGE
;Z:0.2
;HEIGHT:0.2
;BEFORE_LAYER_CHANGE
G92 E0.0
;0.2


M73 P0 R49
M73 Q0 S50
G1 E-1 F2100
M73 P0 R49
M73 Q0 S50
G1 Z0.2 F10800
M73 P0 R49
M73 Q0 S50
G1 Z0.2
;AFTER_LAYER_CHANGE
;0.2
G1 Z0.4
M204 S1000
G1 X103.5382 Y150.2731
M73 P0 R49
M73 Q0 S50
G1 Z0.2
M73 P0 R49
M73 Q0 S50
G1 E1 F2100
;TYPE:Skirt
;WIDTH:0.52
M73 P0 R49
M73 Q0 S50
G1 F1200
M73 P0 R49
M73 Q0 S50
G1 X102.7861 Y151.3618 E0.05249
G1 X99.6128 Y161.4558 E0.419745
M73 P0 R49
M73 Q0 S50
G1 X99.5098 Y162.1272 E0.026945
M73 P0 R49
M73 Q0 S50
G1 X99.51 Y170.7098 E0.340468
M73 P0 R49
M73 Q0 S50
G1 X99.6113 Y171.3757 E0.026716
M73 P0 R49
M73 Q0 S50
G1 X100.3607 Y172.4662 E0.05249
M73 P0 R49
M73 Q0 S50
G1 X101.595 Y172.9431 E0.05249
M73 P0 R49
M73 Q0 S50
G1 X107.5701 Y173.327 E0.237519
M73 P0 R49
M73 Q0 S50
G1 X134.6119 Y173.4281 E1.072738
M73 P0 R49
M73 Q0 S50
G1 X141.4246 Y172.9427 E0.270941
M73 P0 R49
M73 Q0 S50
G1 X143.1109 Y171.974 E0.077144
M73 P0 R49
M73 Q0 S50
G1 X143.502 Y170.7099 E0.05249
M73 P0 R49
M73 Q0 S50
G1 X143.5019 Y162.1272 E0.340473
M73 P0 R49
M73 Q0 S50
G1 X143.2905 Y161.1775 E0.038596
M73 P0 R49
M73 Q0 S50
G1 X139.2867 Y152.6315 E0.374374
M73 P0 R49
M73 Q0 S50
G1 X138.5211 Y151.7319 E0.046862
M73 P0 R49
M73 Q0 S50
G1 X137.2891 Y150.8915 E0.059159
M73 P0 R49
M73 Q0 S50
G1 X136.5433 Y150.5625 E0.032338
M73 P0 R49
M73 Q0 S50
G1 X135.197 Y150.3052 E0.054372
M73 P0 R49
M73 Q0 S50
G1 X111.8838 Y149.7951 E0.925042
M73 P0 R49
M73 Q0 S50
G1 X104.9216 Y149.7946 E0.276185
M73 P0 R49
M73 Q0 S50
G1 X103.5949 Y150.2535 E0.055687
; INIT printing object Merged id:0 copy 0
;WIPE_START
M73 P0 R49
M73 Q0 S50
G1 F8640
M73 P0 R49
M73 Q0 S50
G1 X102.7861 Y151.3618 E-0.316803
G1 X101.9637 Y153.9778 E-0.633197
;WIPE_END
M73 P0 R49
M73 Q0 S50
G1 E-0.05 F2100
M73 P0 R49
M73 Q0 S50
G1 Z0.4 F10800
; printing object Merged id:0 copy 0
M486 S0
; acceleration to travel
M204 S1500
M73 P0 R49
M73 Q0 S50
G1 X128.1048 Y152.8099
; decel to extrusion
M204 S1000
M73 P0 R49
M73 Q0 S50
G1 X134.457 Y152.5261
; end travel
M73 P0 R49
M73 Q0 S50
G1 Z0.2
M73 P0 R49
M73 Q0 S50
G1 E1 F2100
;TYPE:Support material
;WIDTH:0.42
M73 P0 R49
M73 Q0 S50
G1 F1200
M73 P0 R49
M73 Q0 S50
G1 X134.5299 Y152.5294 E0.002286
G1 X134.6153 Y152.5242 E0.002682
M73 P0 R49
M73 Q0 S50
G1 X134.8142 Y152.5262 E0.006236
M73 P0 R49
M73 Q0 S50
G1 X134.8717 Y152.5288 E0.001806
M73 P0 R49
M73 Q0 S50
G1 X134.9864 Y152.5338 E0.0036
M73 P0 R49
M73 Q0 S50
G1 X135.2637 Y152.56 E0.008732
M73 P0 R49
M73 Q0 S50
G1 X136.0276 Y152.7408 E0.024616
M73 P0 R49
M73 Q0 S50
G1 X137.2596 Y153.5812 E0.046759
M73 P0 R49
M73 Q0 S50
G1 X137.6134 Y154.4815 E0.030329
M73 P0 R49
M73 Q0 S50
G1 X137.8794 Y155.1583 E0.022801
M73 P0 R49
M73 Q0 S50
G1 X137.4093 Y162.1272 E0.219001
M73 P0 R49
M73 Q0 S50
G1 X141.2634 Y162.1272 E0.120843
M73 P0 R49
M73 Q0 S50
G1 X141.2634 Y170.7099 E0.269107
M73 P0 R49
M73 Q0 S50
G1 X136.6828 Y170.7099 E0.143622
M73 P0 R49
M73 Q0 S50
G1 X136.312 Y170.9033 E0.013111
M73 P0 R49
M73 Q0 S50
G1 X136.1761 Y170.9211 E0.0043
M73 P0 R49
M73 Q0 S50
G1 X136.015 Y171.0004 E0.005628
M73 P0 R49
M73 Q0 S50
G1 X135.5078 Y171.014 E0.01591
M73 P0 R49
M73 Q0 S50
G1 X134.6201 Y171.1896 E0.028371
M73 P0 R49
M73 Q0 S50
G1 X134.0799 Y171.0845 E0.017254
M73 P0 R49
M73 Q0 S50
G1 X132.8688 Y171.0911 E0.037975
M73 P0 R49
M73 Q0 S50
G1 X132.7961 Y171.0865 E0.002285
M73 P0 R49
M73 Q0 S50
G1 X132.1099 Y171.1048 E0.021521
M73 P0 R49
M73 Q0 S50
G1 X131.6264 Y171.0214 E0.015386
M73 P0 R49
M73 Q0 S50
G1 X131.0815 Y170.9845 E0.017123
M73 P0 R49
M73 Q0 S50
G1 X130.5349 Y170.71 E0.019179
M73 P0 R49
M73 Q0 S50
G1 X125.7834 Y170.71 E0.14898
M73 P0 R49
M73 Q0 S50
G1 X125.7834 Y167.2837 E0.107426
M73 P0 R49
M73 Q0 S50
G1 X131.4156 Y167.2837 E0.176595
M73 P0 R49
M73 Q0 S50
G1 X131.6664 Y167.0493 E0.010764
M73 P0 R49
M73 Q0 S50
G1 X131.6989 Y166.5677 E0.015133
M73 P0 R49
M73 Q0 S50
G1 X131.7324 Y166.0709 E0.015613
M73 P0 R49
M73 Q0 S50
G1 X131.766 Y165.5741 E0.015613
M73 P0 R49
M73 Q0 S50
G1 X131.833 Y164.5804 E0.031226
M73 P0 R49
M73 Q0 S50
G1 X131.8665 Y164.0836 E0.015613
M73 P0 R49
M73 Q0 S50
G1 X131.9 Y163.5867 E0.015613
M73 P0 R49
M73 Q0 S50
G1 X131.9335 Y163.0899 E0.015613
M73 P0 R49
M73 Q0 S50
G1 X132.0006 Y162.0963 E0.031226
M73 P0 R49
M73 Q0 S50
G1 X132.0341 Y161.5994 E0.015613
M73 P0 R49
M73 Q0 S50
G1 X132.0676 Y161.1026 E0.015613
M73 P0 R49
M73 Q0 S50
G1 X132.1011 Y160.6058 E0.015613
M73 P0 R49
M73 Q0 S50
G1 X132.1682 Y159.6121 E0.031226
M73 P0 R49
M73 Q0 S50
G1 X132.2017 Y159.1153 E0.015613
M73 P0 R49
M73 Q0 S50
G1 X132.2352 Y158.6184 E0.015613
M73 P0 R49
M73 Q0 S50
G1 X132.2687 Y158.1216 E0.015613
M73 P0 R49
M73 Q0 S50
G1 X132.3022 Y157.6248 E0.015613
M73 P0 R49
M73 Q0 S50
G1 X132.3357 Y157.128 E0.015613
M73 P0 R49
M73 Q0 S50
G1 X132.3693 Y156.6311 E0.015613
M73 P0 R49
M73 Q0 S50
G1 X132.4028 Y156.1343 E0.015613
M73 P0 R49
M73 Q0 S50
G1 X132.4363 Y155.6375 E0.015613
M73 P0 R49
M73 Q0 S50
G1 X132.4698 Y155.1406 E0.015613
M73 P0 R49
M73 Q0 S50
G1 X132.5033 Y154.6438 E0.015613
M73 P0 R49
M73 Q0 S50
G1 X132.5368 Y154.147 E0.015613
M73 P0 R49
M73 Q0 S50
G1 X132.5704 Y153.6501 E0.015613
M73 P0 R49
M73 Q0 S50
G1 X132.6022 Y153.1784 E0.014826
M73 P0 R49
M73 Q0 S50
G1 X132.3443 Y152.9025 E0.011841
M73 P0 R49
M73 Q0 S50
G1 X131.8691 Y152.9025 E0.014899
M73 P0 R49
M73 Q0 S50
G1 X131.874 Y152.8304 E0.002266
M73 P0 R49
M73 Q0 S50
G1 X132.4833 Y152.7484 E0.019277
M73 P0 R49
M73 Q0 S50
G1 X132.5044 Y152.7399 E0.000713
M73 P0 R49
M73 Q0 S50
G1 X132.9555 Y152.6119 E0.014703
M73 P0 R49
M73 Q0 S50
G1 X133.4938 Y152.6118 E0.016879
M73 P0 R49
M73 Q0 S50
G1 X134.158 Y152.5233 E0.021008
M73 P0 R49
M73 Q0 S50
G1 X134.457 Y152.5261 E0.009377
;WIPE_START
M73 P0 R49
M73 Q0 S50
G1 F8640
M73 P0 R49
M73 Q0 S50
G1 X134.158 Y152.5233 E-0.069053
G1 X133.4938 Y152.6118 E-0.154709
M73 P0 R49
M73 Q0 S50
G1 X132.9555 Y152.6119 E-0.124301
M73 P0 R49
M73 Q0 S50
G1 X132.5044 Y152.7399 E-0.108277
M73 P0 R49
M73 Q0 S50
G1 X132.4833 Y152.7484 E-0.005251
M73 P0 R49
M73 Q0 S50
G1 X131.874 Y152.8304 E-0.14196
M73 P0 R49
M73 Q0 S50
G1 X131.8691 Y152.9025 E-0.01669
M73 P0 R49
M73 Q0 S50
G1 X132.3443 Y152.9025 E-0.109719
M73 P0 R49
M73 Q0 S50
G1 X132.6022 Y153.1784 E-0.087201
M73 P0 R49
M73 Q0 S50
G1 X132.5704 Y153.6501 E-0.10918
M73 P0 R49
M73 Q0 S50
G1 X132.5635 Y153.7524 E-0.02366
;WIPE_END
M73 P0 R49
M73 Q0 S50
G1 E-0.05 F2100
M73 P0 R49
M73 Q0 S50
G1 Z0.4 F10800
; acceleration to travel
M204 S1500
M73 P0 R49
M73 Q0 S50
G1 X139.2326 Y160.5031
; decel to extrusion
M204 S1000
M73 P0 R49
M73 Q0 S50
G1 X140.8532 Y162.1436
; end travel
M73 P0 R49
M73 Q0 S50
G1 Z0.2
M73 P0 R49
M73 Q0 S50
G1 E1 F2100
M73 P0 R49
M73 Q0 S50
G1 F1200
M73 P0 R49
M73 Q0 S50
G1 X140.8532 Y170.5522 E0.263647
G1 X140.4882 Y170.5522 E0.011446
M73 P0 R49
M73 Q0 S50
G1 X140.4882 Y162.2849 E0.259218
M73 P0 R49
M73 Q0 S50
G1 X140.1232 Y162.2849 E0.011446
M73 P0 R49
M73 Q0 S50
G1 X140.1232 Y170.5522 E0.259218
M73 P0 R49
M73 Q0 S50
G1 X139.7581 Y170.5522 E0.011446
M73 P0 R49
M73 Q0 S50
G1 X139.7581 Y162.2849 E0.259218
M73 P0 R49
M73 Q0 S50
G1 X139.3931 Y162.2849 E0.011446
M73 P0 R49
M73 Q0 S50
G1 X139.3931 Y170.5522 E0.259218
M73 P0 R49
M73 Q0 S50
G1 X139.028 Y170.5522 E0.011446
M73 P0 R49
M73 Q0 S50
G1 X139.028 Y162.2849 E0.259218
M73 P0 R49
M73 Q0 S50
G1 X138.663 Y162.2849 E0.011446
M73 P0 R49
M73 Q0 S50
G1 X138.663 Y170.5522 E0.259218
M73 P0 R49
M73 Q0 S50
G1 X138.2979 Y170.5522 E0.011446
M73 P0 R49
M73 Q0 S50
G1 X138.2979 Y162.2849 E0.259218
M73 P0 R49
M73 Q0 S50
G1 X137.9329 Y162.2849 E0.011446
M73 P0 R49
M73 Q0 S50
G1 X137.9329 Y170.5522 E0.259218
M73 P0 R49
M73 Q0 S50
G1 X137.5678 Y170.5522 E0.011446
M73 P0 R49
M73 Q0 S50
G1 X137.5678 Y162.2849 E0.259218
M73 P0 R49
M73 Q0 S50
G1 X137.2406 Y162.2849 E0.01026
M73 P0 R49
M73 Q0 S50
G1 X137.5678 Y157.434 E0.152442
M73 P0 R49
M73 Q0 S50
G1 X137.5678 Y154.7966 E0.082692
M73 P0 R49
M73 Q0 S50
G1 X137.4667 Y154.5391 E0.008674
M73 P0 R49
M73 Q0 S50
G1 X137.2028 Y153.8677 E0.022618
M73 P0 R49
M73 Q0 S50
G1 X137.2028 Y170.5522 E0.52313
M73 P0 R49
M73 Q0 S50
G1 X136.8378 Y170.5522 E0.011446
M73 P0 R49
M73 Q0 S50
G1 X136.8378 Y153.4843 E0.535153
M73 P0 R49
M73 Q0 S50
G1 X136.4727 Y153.2353 E0.013855
M73 P0 R49
M73 Q0 S50
G1 X136.4727 Y170.6416 E0.545764
M73 P0 R49
M73 Q0 S49
G1 X136.2638 Y170.7506 E0.007386
M73 P0 R49
M73 Q0 S49
G1 X136.1298 Y170.7682 E0.00424
M73 P0 R49
M73 Q0 S49
G1 X136.1077 Y170.779 E0.000772
M73 P0 R49
M73 Q0 S49
G1 X136.1077 Y152.9863 E0.557879
M73 P0 R49
M73 Q0 S49
G1 X135.9629 Y152.8876 E0.005495
M73 P0 R49
M73 Q0 S49
G1 X135.7426 Y152.8354 E0.007097
M73 P0 R49
M73 Q0 S49
G1 X135.7426 Y170.8499 E0.564833
M73 P0 R49
M73 Q0 S49
G1 X135.4902 Y170.8567 E0.007917
M73 P0 R49
M73 Q0 S49
G1 X135.3776 Y170.879 E0.0036
M73 P0 R49
M73 Q0 S49
G1 X135.3776 Y152.749 E0.568452
M73 P0 R49
M73 Q0 S49
G1 X135.238 Y152.716 E0.004499
M73 P0 R49
M73 Q0 S49
G1 X135.0125 Y152.6947 E0.007099
M73 P0 R49
M73 Q0 S49
G1 X135.0125 Y170.9512 E0.572421
M73 P0 R49
M73 Q0 S49
G1 X134.6475 Y171.0234 E0.011668
M73 P0 R49
M73 Q0 S49
G1 X134.6475 Y152.6822 E0.575075
M73 P0 R49
M73 Q0 S49
G1 X134.6193 Y152.682 E0.000885
M73 P1 R49
M73 Q1 S49
G1 X134.531 Y152.6873 E0.002772
M73 P1 R49
M73 Q1 S49
G1 X134.4527 Y152.6837 E0.002459
M73 P1 R49
M73 Q1 S49
G1 X134.2825 Y152.6822 E0.005338
M73 P1 R49
M73 Q1 S49
G1 X134.2824 Y170.9632 E0.57319
M73 P1 R49
M73 Q1 S49
G1 X134.0947 Y170.9267 E0.005997
M73 P1 R49
M73 Q1 S49
G1 X133.9174 Y170.9277 E0.00556
M73 P1 R49
M73 Q1 S49
G1 X133.9174 Y152.7145 E0.571062
M73 P1 R49
M73 Q1 S49
G1 X133.5524 Y152.7631 E0.011547
M73 P1 R49
M73 Q1 S49
G1 X133.5524 Y170.9297 E0.5696
M73 P1 R49
M73 Q1 S49
G1 X133.1873 Y170.9317 E0.011446
M73 P1 R49
M73 Q1 S49
G1 X133.1873 Y152.7696 E0.56946
M73 P1 R49
M73 Q1 S49
G1 X132.9775 Y152.7696 E0.00658
M73 P1 R49
M73 Q1 S49
G1 X132.8223 Y152.8137 E0.005058
M73 P1 R49
M73 Q1 S49
G1 X132.8223 Y170.9301 E0.56803
M73 P1 R49
M73 Q1 S49
G1 X132.799 Y170.9287 E0.000732
M73 P1 R49
M73 Q1 S49
G1 X132.4572 Y170.9378 E0.010719
M73 P1 R49
M73 Q1 S49
G1 X132.4572 Y157.6701 E0.416
M73 P1 R49
M73 Q1 S49
G1 X132.4261 Y158.1322 E0.014523
M73 P1 R49
M73 Q1 S49
G1 X132.3925 Y158.6291 E0.015613
M73 P1 R49
M73 Q1 S49
G1 X132.359 Y159.1259 E0.015613
M73 P1 R49
M73 Q1 S49
G1 X132.3255 Y159.6227 E0.015613
M73 P1 R49
M73 Q1 S49
G1 X132.2585 Y160.6164 E0.031226
M73 P1 R49
M73 Q1 S49
G1 X132.225 Y161.1132 E0.015613
M73 P1 R49
M73 Q1 S49
G1 X132.1914 Y161.61 E0.015613
M73 P1 R49
M73 Q1 S49
G1 X132.1579 Y162.1069 E0.015613
M73 P1 R49
M73 Q1 S49
G1 X132.0922 Y163.0813 E0.030623
M73 P1 R49
M73 Q1 S49
G1 X132.0922 Y170.9418 E0.246458
M73 P1 R49
M73 Q1 S49
G1 X131.7271 Y170.8788 E0.011615
M73 P1 R49
M73 Q1 S49
G1 X131.7271 Y167.2084 E0.115081
M73 P1 R49
M73 Q1 S49
G1 X131.4779 Y167.4414 E0.010699
M73 P1 R49
M73 Q1 S49
G1 X131.3621 Y167.4414 E0.00363
M73 P1 R49
M73 Q1 S49
G1 X131.3621 Y170.8455 E0.10673
M73 P1 R49
M73 Q1 S49
G1 X131.1239 Y170.8293 E0.007486
M73 P1 R49
M73 Q1 S49
G1 X130.9971 Y170.7656 E0.004451
M73 P1 R49
M73 Q1 S49
G1 X130.9971 Y167.4414 E0.104227
M73 P1 R49
M73 Q1 S49
G1 X130.632 Y167.4414 E0.011446
M73 P1 R49
M73 Q1 S49
G1 X130.632 Y170.5822 E0.098478
M73 P1 R49
M73 Q1 S49
G1 X130.5723 Y170.5523 E0.002095
M73 P1 R49
M73 Q1 S49
G1 X130.267 Y170.5523 E0.009574
M73 P1 R49
M73 Q1 S49
G1 X130.267 Y167.4414 E0.097537
M73 P1 R49
M73 Q1 S49
G1 X129.9019 Y167.4414 E0.011446
M73 P1 R49
M73 Q1 S49
G1 X129.9019 Y170.5523 E0.097537
M73 P1 R49
M73 Q1 S49
G1 X129.5369 Y170.5523 E0.011446
M73 P1 R49
M73 Q1 S49
G1 X129.5369 Y167.4414 E0.097537
M73 P1 R49
M73 Q1 S49
G1 X129.1718 Y167.4414 E0.011446
M73 P1 R49
M73 Q1 S49
G1 X129.1718 Y170.5523 E0.097537
M73 P1 R49
M73 Q1 S49
G1 X128.8068 Y170.5523 E0.011446
M73 P1 R49
M73 Q1 S49
G1 X128.8068 Y167.4414 E0.097537
M73 P1 R49
M73 Q1 S49
G1 X128.4417 Y167.4414 E0.011446
M73 P1 R49
M73 Q1 S49
G1 X128.4417 Y170.5523 E0.097537
M73 P1 R49
M73 Q1 S49
G1 X128.0767 Y170.5523 E0.011446
M73 P1 R49
M73 Q1 S49
G1 X128.0767 Y167.4414 E0.097537
M73 P1 R49
M73 Q1 S49
G1 X127.7117 Y167.4414 E0.011446
M73 P1 R49
M73 Q1 S49
G1 X127.7117 Y170.5523 E0.097537
M73 P1 R49
M73 Q1 S49
G1 X127.3466 Y170.5523 E0.011446
M73 P1 R49
M73 Q1 S49
G1 X127.3466 Y167.4414 E0.097537
M73 P1 R49
M73 Q1 S49
G1 X126.9816 Y167.4414 E0.011446
M73 P1 R49
M73 Q1 S49
G1 X126.9816 Y170.5523 E0.097537
M73 P1 R49
M73 Q1 S49
G1 X126.6165 Y170.5523 E0.011446
M73 P1 R49
M73 Q1 S49
G1 X126.6165 Y167.4414 E0.097537
M73 P1 R49
M73 Q1 S49
G1 X126.2515 Y167.4414 E0.011446
M73 P1 R49
M73 Q1 S49
G1 X126.2515 Y170.6935 E0.101967
;WIPE_START
M73 P1 R49
M73 Q1 S49
G1 F8640
M73 P1 R49
M73 Q1 S49
G1 X126.2515 Y167.4414 E-0.750916
G1 X126.6165 Y167.4414 E-0.08429
M73 P1 R49
M73 Q1 S49
G1 X126.6165 Y167.9386 E-0.114794
;WIPE_END
M73 P1 R49
M73 Q1 S49
G1 E-0.05 F2100
M73 P1 R49
M73 Q1 S49
G1 Z0.4 F10800
; acceleration to travel
M204 S1500
M73 P1 R49
M73 Q1 S49
G1 X119.0637 Y170.155
; decel to extrusion
M204 S1000
M73 P1 R49
M73 Q1 S49
G1 X117.2284 Y170.6935
; end travel
M73 P1 R49
M73 Q1 S49
G1 Z0.2
M73 P1 R49
M73 Q1 S49
G1 E1 F2100
M73 P1 R49
M73 Q1 S49
G1 F1200
M73 P1 R49
M73 Q1 S49
G1 X117.2284 Y170.7099 E0.000514
G1 X112.6341 Y170.7099 E0.144052
M73 P1 R49
M73 Q1 S49
G1 X112.3214 Y170.8767 E0.011111
M73 P1 R49
M73 Q1 S49
G1 X111.5278 Y170.9951 E0.025158
M73 P1 R49
M73 Q1 S49
G1 X111.2551 Y171.061 E0.008797
M73 P1 R49
M73 Q1 S49
G1 X110.8536 Y171.0821 E0.012606
M73 P1 R49
M73 Q1 S49
G1 X108.8339 Y171.0911 E0.063328
M73 P1 R49
M73 Q1 S49
G1 X107.669 Y171.0906 E0.036526
M73 P1 R49
M73 Q1 S49
G1 X107.5125 Y171.0614 E0.00499
M73 P1 R49
M73 Q1 S49
G1 X106.5979 Y171.0433 E0.028683
M73 P1 R49
M73 Q1 S49
G1 X106.2612 Y170.7101 E0.014852
M73 P1 R49
M73 Q1 S49
G1 X101.7485 Y170.7098 E0.14149
M73 P1 R49
M73 Q1 S49
G1 X101.7483 Y162.1272 E0.269103
M73 P1 R49
M73 Q1 S49
G1 X105.6025 Y162.1272 E0.120845
M73 P1 R49
M73 Q1 S49
G1 X104.9216 Y152.0331 E0.317212
M73 P1 R49
M73 Q1 S49
G1 X111.8357 Y152.0331 E0.216789
M73 P1 R48
M73 Q1 S49
G1 X111.8944 Y152.9025 E0.027322
M73 P1 R48
M73 Q1 S49
G1 X110.6675 Y152.9025 E0.038467
M73 P1 R48
M73 Q1 S49
G1 X110.4096 Y153.1784 E0.011841
M73 P1 R48
M73 Q1 S49
G1 X111.3454 Y167.0493 E0.435902
M73 P1 R48
M73 Q1 S49
G1 X111.5962 Y167.2837 E0.010765
M73 P1 R48
M73 Q1 S49
G1 X117.2284 Y167.2837 E0.176595
M73 P1 R48
M73 Q1 S49
G1 X117.2284 Y170.6335 E0.105031
M73 P1 R48
M73 Q1 S49
G1 X116.7603 Y170.6935 F10800
M73 P1 R48
M73 Q1 S49
G1 F1200
M73 P1 R48
M73 Q1 S49
G1 X116.7603 Y167.4414 E0.101966
G1 X116.3953 Y167.4414 E0.011446
M73 P1 R48
M73 Q1 S49
