; generated by PrusaSlicer 2.4 on 2022-04-09 at 20:05:52 UTC

; 

; external perimeters extrusion width = 0.60mm
; perimeters extrusion width = 0.50mm
; infill extrusion width = 0.50mm
; solid infill extrusion width = 0.50mm
; top infill extrusion width = 0.45mm
; first layer extrusion width = 0.42mm

; external perimeters extrusion width = 0.60mm
; perimeters extrusion width = 0.50mm
; infill extrusion width = 0.50mm
; solid infill extrusion width = 0.50mm
; top infill extrusion width = 0.45mm
; first layer extrusion width = 0.42mm

; object:{"name":"pcb_holder-v2","id":"pcb_holder-v2.stl id:0 copy 0","object_center":[125.000000,95.000000,0.000000],"boundingbox_center":[125.000000,95.000000,3.000000],"boundingbox_size":[40.000000,14.000000,6.000000]}
; object:{"name":"pcb_holder-v2","id":"pcb_holder-v2.stl id:1 copy 0","object_center":[125.000000,115.000000,0.000000],"boundingbox_center":[125.000000,115.000000,3.000000],"boundingbox_size":[40.000000,14.000000,6.000000]}
; Total objects to print: 2
M486 T2
; plater:{"center":[125.000000,105.000000,0.000000],"boundingbox_center":[125.000000,105.000000,3.000000],"boundingbox_size":[40.000000,34.000000,6.000000]}

M73 P100 R0
M73 Q99 S0
;TYPE:Custom
M862.3 P "MK3S" ; printer model check
M862.1 P0.4 ; nozzle diameter check
M115 U3.10.0 ; tell printer latest fw version
G90 ; use absolute coordinates
M83 ; extruder relative mode
M104 S230 ; set extruder temp
M140 S85 ; set bed temp
M190 S85 ; wait for bed temp
M109 S230 ; wait for extruder temp
G28 W ; home all without mesh bed level
G80 ; mesh bed leveling
G1 Y-3.0 F1000.0 ; go outside print area
G92 E0.0
G1 X60.0 E9.0 F1000.0 ; intro line
M73 P0 R12
M73 Q0 S12
G1 X100.0 E12.5 F1000.0 ; intro line
G92 E0.0
M221 S95

; Don't change E values below. Excessive value can damage the printer.

M907 E538 ; set extruder motor current
M107
G21 ; set units to millimeters
G90 ; use absolute coordinates
M83 ; use relative distances for extrusion
M900 K0.08 ; Filament gcode LA 1.5
M900 K45 ; Filament gcode LA 1.0
M107
;LAYER_CHANGE
;Z:0.2
;HEIGHT:0.2
;BEFORE_LAYER_CHANGE
G92 E0.0
;0.2


M73 P0 R12
M73 Q0 S12
G1 E-1 F2100
M73 P0 R12
M73 Q0 S12
G1 Z0.2 F10800
M73 P0 R12
M73 Q0 S12
G1 Z0.2
;AFTER_LAYER_CHANGE
;0.2
G1 Z0.4
M204 S1000
G1 X103.1525 Y86.7359
M73 P0 R12
M73 Q0 S12
G1 Z0.2
M73 P0 R12
M73 Q0 S12
G1 E1 F2100
;TYPE:Skirt
;WIDTH:0.52
M73 P0 R12
M73 Q0 S12
G1 F1200
M73 P0 R12
M73 Q1 S12
G1 X102.7615 Y88 E0.05249
G1 X102.7615 Y118 E1.19008
M73 P0 R12
M73 Q1 S12
G1 X102.9234 Y118.836 E0.03378
M73 P1 R11
M73 Q1 S12
G1 X103.7583 Y119.8626 E0.05249
M73 P1 R11
M73 Q1 S12
G1 X109.7583 Y123.8626 E0.28606
M73 P1 R11
M73 Q1 S12
G1 X111 Y124.2385 E0.051466
M73 P1 R11
M73 Q1 S12
G1 X139 Y124.2385 E1.110741
M73 P1 R11
M73 Q1 S12
G1 X140.2417 Y123.8626 E0.051466
M73 P1 R11
M73 Q1 S12
G1 X146.2417 Y119.8626 E0.28606
M73 P1 R11
M73 Q1 S12
G1 X146.8475 Y119.2641 E0.03378
M73 P1 R11
M73 Q1 S12
G1 X147.2385 Y118 E0.05249
M73 P1 R11
M73 Q1 S12
G1 X147.2385 Y88 E1.19008
M73 P1 R11
M73 Q1 S12
G1 X147.0865 Y87.1891 E0.032729
M73 P1 R11
M73 Q1 S12
G1 X146.2641 Y86.1525 E0.05249
M73 P1 R11
M73 Q1 S12
G1 X145 Y85.7615 E0.05249
M73 P1 R11
M73 Q1 S12
G1 X105 Y85.7615 E1.586773
M73 P1 R11
M73 Q1 S12
G1 X104.1891 Y85.9135 E0.032729
M73 P2 R11
M73 Q2 S12
G1 X103.1995 Y86.6986 E0.05011
; INIT printing object pcb_holder-v2.stl id:0 copy 0
;WIPE_START
M73 P2 R11
M73 Q2 S12
G1 F8640
M73 P2 R11
M73 Q2 S12
G1 X102.7615 Y88 E-0.317059
G1 X102.7615 Y90.7412 E-0.632941
;WIPE_END
M73 P2 R11
M73 Q2 S12
G1 E-0.05 F2100
M73 P2 R11
M73 Q2 S12
G1 Z0.4 F10800
; printing object pcb_holder-v2.stl id:0 copy 0
M486 S0
; acceleration to travel
M204 S1500
M73 P2 R11
M73 Q2 S12
G1 X104.9789 Y88.7894
; decel to extrusion
M204 S800
M73 P2 R11
M73 Q2 S12
G1 X105.41 Y88.41
; end travel
M73 P2 R11
M73 Q2 S12
G1 Z0.2
M73 P2 R11
M73 Q2 S12
G1 E1 F2100
;TYPE:External perimeter
;WIDTH:0.42
M73 P2 R11
M73 Q2 S12
G1 F1200
M73 P2 R11
M73 Q2 S12
G1 X111.783 Y88.41 E0.199821
G1 X110.465 Y91.9246 E0.117693
M73 P2 R11
M73 Q2 S12
G1 X110.465 Y92.533 E0.019075
M73 P2 R11
M73 Q2 S12
G1 X119.535 Y92.533 E0.284384
M73 P2 R11
M73 Q2 S12
G1 X119.535 Y91.9246 E0.019075
M73 P2 R11
M73 Q2 S12
G1 X118.217 Y88.41 E0.117692
M73 P2 R11
M73 Q2 S12
G1 X131.783 Y88.41 E0.425352
M73 P2 R11
M73 Q2 S12
G1 X130.465 Y91.9246 E0.117693
M73 P2 R11
M73 Q2 S11
G1 X130.465 Y92.533 E0.019075
M73 P2 R11
M73 Q2 S11
G1 X139.535 Y92.533 E0.284384
M73 P2 R11
M73 Q2 S11
G1 X139.535 Y91.9246 E0.019075
M73 P2 R11
M73 Q2 S11
G1 X138.217 Y88.41 E0.117692
M73 P2 R11
M73 Q2 S11
G1 X144.59 Y88.41 E0.199821
M73 P2 R11
M73 Q2 S11
G1 X144.59 Y97.59 E0.287833
M73 P2 R11
M73 Q2 S11
G1 X136.9084 Y97.59 E0.240852
M73 P2 R11
M73 Q2 S11
G1 X138.4084 Y101.59 E0.133946
M73 P2 R11
M73 Q2 S11
G1 X131.5916 Y101.59 E0.213734
M73 P2 R11
M73 Q2 S11
G1 X133.0916 Y97.59 E0.133946
M73 P2 R11
M73 Q2 S11
G1 X116.9084 Y97.59 E0.507415
M73 P2 R11
M73 Q2 S11
G1 X118.4084 Y101.59 E0.133946
M73 P2 R11
M73 Q2 S11
G1 X111.5916 Y101.59 E0.213734
M73 P2 R11
M73 Q2 S11
G1 X113.0916 Y97.59 E0.133946
M73 P2 R11
M73 Q2 S11
G1 X105.41 Y97.59 E0.240852
M73 P2 R11
M73 Q2 S11
G1 X105.41 Y88.47 E0.285951
;WIPE_START
M204 S1000
M73 P3 R11
M73 Q3 S11
G1 X105.7564 Y88.61 F10800
;WIPE_END
M73 P3 R11
M73 Q3 S11
G1 X105.7564 Y88.6928
;TYPE:Solid infill
M73 P3 R11
M73 Q3 S11
G1 F1200
M73 P3 R11
M73 Q3 S11
G1 X111.382 Y88.6928 E0.176387
G1 X110.0791 Y92.8158 E0.135575
M73 P3 R11
M73 Q3 S11
G1 X119.9223 Y92.8158 E0.308628
M73 P3 R11
M73 Q3 S11
G1 X118.6043 Y88.6928 E0.135718
M73 P3 R11
M73 Q3 S11
G1 X131.3957 Y88.6928 E0.401066
M73 P3 R11
M73 Q3 S11
G1 X130.0777 Y92.8158 E0.135718
M73 P3 R11
M73 Q3 S11
G1 X139.9223 Y92.8158 E0.30867
M73 P3 R11
M73 Q3 S11
G1 X138.6043 Y88.6928 E0.135719
M73 P3 R11
M73 Q3 S11
G1 X144.3072 Y88.6928 E0.178811
M73 P3 R11
M73 Q3 S11
G1 X144.3072 Y97.3072 E0.270099
M73 P3 R11
M73 Q3 S11
G1 X136.5003 Y97.3072 E0.24478
M73 P3 R11
M73 Q3 S11
G1 X138.0003 Y101.3072 E0.133946
M73 P3 R11
M73 Q3 S11
G1 X131.9997 Y101.3072 E0.188145
M73 P3 R11
M73 Q3 S11
G1 X133.4997 Y97.3072 E0.133946
M73 P3 R11
M73 Q3 S11
G1 X116.5003 Y97.3072 E0.533004
M73 P3 R11
M73 Q3 S11
G1 X118.0003 Y101.3072 E0.133946
M73 P3 R11
M73 Q3 S11
G1 X111.9997 Y101.3072 E0.188145
M73 P3 R11
M73 Q3 S11
G1 X113.4997 Y97.3072 E0.133946
M73 P3 R11
M73 Q3 S11
G1 X105.6928 Y97.3072 E0.24478
M73 P3 R11
M73 Q3 S11
G1 X105.6964 Y88.6928 E0.270099
M73 P4 R11
M73 Q4 S11
G1 X106.0699 Y89.0699 F10800
M73 P4 R11
M73 Q4 S11
G1 F1200
M73 P4 R11
M73 Q4 S11
G1 X110.8674 Y89.0699 E0.150423
G1 X109.5644 Y93.1929 E0.135575
M73 P4 R11
M73 Q4 S11
G1 X120.4387 Y93.1929 E0.340956
M73 P4 R11
M73 Q4 S11
G1 X119.1207 Y89.0699 E0.135718
M73 P4 R11
M73 Q4 S11
G1 X130.8793 Y89.0699 E0.368682
M73 P4 R11
M73 Q4 S11
G1 X129.5613 Y93.1929 E0.135718
M73 P4 R11
M73 Q4 S11
G1 X140.4387 Y93.1929 E0.341054
M73 P4 R11
M73 Q4 S11
G1 X139.1207 Y89.0699 E0.135719
M73 P4 R11
M73 Q4 S11
G1 X143.9301 Y89.0699 E0.150796
M73 P4 R11
M73 Q4 S11
G1 X143.9301 Y96.9301 E0.246453
M73 P4 R11
M73 Q4 S11
G1 X135.9562 Y96.9301 E0.250018
M73 P4 R11
M73 Q4 S11
G1 X137.4562 Y100.9301 E0.133946
M73 P4 R11
M73 Q4 S11
G1 X132.5438 Y100.9301 E0.154024
M73 P4 R11
M73 Q4 S11
G1 X134.0438 Y96.9301 E0.133946
M73 P4 R11
M73 Q4 S11
G1 X115.9562 Y96.9301 E0.567125
M73 P4 R11
M73 Q4 S11
G1 X117.4562 Y100.9301 E0.133946
M73 P4 R11
M73 Q4 S11
G1 X112.5438 Y100.9301 E0.154024
M73 P4 R11
M73 Q4 S11
G1 X114.0438 Y96.9301 E0.133946
M73 P4 R11
M73 Q4 S11
G1 X106.0699 Y96.9301 E0.250018
M73 P4 R11
M73 Q4 S11
G1 X106.0699 Y89.1299 E0.244572
M73 P5 R11
M73 Q4 S11
G1 X106.4469 Y89.4469 F10800
M73 P5 R11
M73 Q5 S11
G1 F1200
M73 P5 R11
M73 Q5 S11
G1 X110.3528 Y89.4469 E0.122464
G1 X109.0498 Y93.5699 E0.135575
M73 P5 R11
M73 Q5 S11
G1 X120.9552 Y93.5699 E0.373284
M73 P5 R11
M73 Q5 S11
G1 X119.6371 Y89.4469 E0.135718
M73 P5 R11
M73 Q5 S11
G1 X130.3629 Y89.4469 E0.336298
M73 P5 R11
M73 Q5 S11
G1 X129.0449 Y93.5699 E0.135718
M73 P5 R11
M73 Q5 S11
G1 X140.9552 Y93.5699 E0.373438
M73 P5 R11
M73 Q5 S11
G1 X139.6371 Y89.4469 E0.135719
M73 P5 R11
M73 Q5 S11
G1 X143.5531 Y89.4469 E0.122781
M73 P5 R11
M73 Q5 S11
G1 X143.5531 Y96.5531 E0.222807
M73 P5 R11
M73 Q5 S11
G1 X135.4121 Y96.5531 E0.255255
M73 P5 R11
M73 Q5 S11
G1 X136.9121 Y100.5531 E0.133946
M73 P5 R11
M73 Q5 S11
G1 X133.0879 Y100.5531 E0.119902
M73 P5 R11
M73 Q5 S11
G1 X134.5879 Y96.5531 E0.133946
M73 P5 R11
M73 Q5 S11
G1 X115.4121 Y96.5531 E0.601247
M73 P5 R11
M73 Q5 S11
G1 X116.9121 Y100.5531 E0.133946
M73 P5 R11
M73 Q5 S11
G1 X113.0879 Y100.5531 E0.119902
M73 P5 R11
M73 Q5 S11
G1 X114.5879 Y96.5531 E0.133946
M73 P5 R11
M73 Q5 S11
G1 X106.4469 Y96.5531 E0.255255
M73 P5 R11
M73 Q5 S11
G1 X106.4469 Y89.5069 E0.220926
;WIPE_START
M73 P5 R11
M73 Q5 S11
G1 F8640
M73 P6 R11
M73 Q5 S11
G1 X110.3528 Y89.4469 E-0.901971
G1 X110.2901 Y89.6453 E-0.048029
;WIPE_END
M73 P6 R11
M73 Q5 S11
G1 E-0.05 F2100
M73 P6 R11
M73 Q5 S11
G1 Z0.4 F10800
; acceleration to travel
M204 S1500
M73 P6 R11
M73 Q5 S11
G1 X114.0792 Y95.1826
; decel to extrusion
M204 S1000
M73 P6 R11
M73 Q5 S11
G1 X115 Y96.5282
; end travel
M73 P6 R11
M73 Q6 S11
G1 Z0.2
M73 P6 R11
M73 Q6 S11
G1 E1 F2100
M73 P6 R11
M73 Q6 S11
G1 F1200
M73 P6 R11
M73 Q6 S11
G1 X116.3679 Y100.176 E0.122152
G1 X113.6321 Y100.176 E0.085781
M73 P6 R11
M73 Q6 S11
G1 X114.9789 Y96.5843 E0.120271
;WIPE_START
M73 P6 R11
M73 Q6 S11
G1 F8640
M73 P6 R11
M73 Q6 S11
G1 X116.3679 Y100.176 E-0.889176
G1 X116.1045 Y100.176 E-0.060824
;WIPE_END
M73 P6 R11
M73 Q6 S11
G1 E-0.05 F2100
M73 P6 R11
M73 Q6 S11
G1 Z0.4 F10800
; acceleration to travel
M204 S1500
M73 P6 R11
M73 Q6 S11
G1 X130.2055 Y100.176
; decel to extrusion
M204 S1000
M73 P6 R11
M73 Q6 S11
G1 X133.6321 Y100.176
; end travel
M73 P6 R11
M73 Q6 S11
G1 Z0.2
M73 P6 R11
M73 Q6 S11
G1 E1 F2100
M73 P6 R11
M73 Q6 S11
G1 F1200
M73 P6 R11
M73 Q6 S11
G1 X135 Y96.5282 E0.122152
G1 X136.3679 Y100.176 E0.122152
M73 P6 R11
M73 Q6 S11
G1 X133.6921 Y100.176 E0.0839
;WIPE_START
M73 P6 R11
M73 Q6 S11
G1 F8640
M73 P6 R11
M73 Q6 S11
G1 X135 Y96.5282 E-0.894796
G1 X135.0839 Y96.752 E-0.055204
;WIPE_END
M73 P6 R11
M73 Q6 S11
G1 E-0.05 F2100
M73 P6 R11
M73 Q6 S11
G1 Z0.4 F10800
M73 P6 R11
M73 Q6 S11
G1 X133.6921 Y96.176
M73 P6 R11
M73 Q6 S11
G1 Z0.2
M73 P6 R11
M73 Q6 S11
G1 E1 F2100
M73 P6 R11
M73 Q6 S11
G1 F1200
M73 P6 R11
M73 Q6 S11
G1 X106.824 Y96.176 E0.842429
G1 X106.824 Y89.824 E0.199161
M73 P6 R11
M73 Q6 S11
G1 X109.8381 Y89.824 E0.094505
M73 P6 R11
M73 Q6 S11
G1 X108.5352 Y93.947 E0.135575
M73 P6 R11
M73 Q6 S11
G1 X121.4716 Y93.947 E0.405611
M73 P6 R11
M73 Q6 S11
G1 X120.1536 Y89.824 E0.135718
M73 P6 R11
M73 Q6 S11
G1 X129.8465 Y89.824 E0.303914
M73 P6 R11
M73 Q6 S11
G1 X128.5285 Y93.947 E0.135718
M73 P6 R11
M73 Q6 S11
G1 X141.4716 Y93.947 E0.405822
M73 P6 R11
M73 Q6 S11
G1 X140.1536 Y89.824 E0.135719
M73 P6 R11
M73 Q6 S11
G1 X143.176 Y89.824 E0.094766
M73 P6 R11
M73 Q6 S11
G1 X143.176 Y96.176 E0.199161
M73 P6 R11
M73 Q6 S11
G1 X133.7521 Y96.176 E0.29548
;WIPE_START
M73 P7 R11
M73 Q6 S11
G1 F8640
M73 P7 R11
M73 Q7 S11
G1 X129.6378 Y96.176 E-0.95
;WIPE_END
G1 E-0.05 F2100
M73 P7 R11
M73 Q7 S11
G1 Z0.4 F10800
; acceleration to travel
M204 S1500
M73 P7 R11
M73 Q7 S11
G1 X133.9517 Y97.3233
; decel to extrusion
M204 S1000
M73 P7 R11
M73 Q7 S11
G1 X135 Y97.6021
; end travel
M73 P7 R11
M73 Q7 S11
G1 Z0.2
M73 P7 R11
M73 Q7 S11
G1 E1 F2100
M73 P7 R11
M73 Q7 S11
G1 F1200
M73 P7 R11
M73 Q7 S11
G1 X135.8238 Y99.7989 E0.073563
G1 X134.1762 Y99.7989 E0.05166
M73 P7 R11
M73 Q7 S11
G1 X134.9789 Y97.6583 E0.071682
;WIPE_START
M73 P7 R11
M73 Q7 S11
G1 F8640
M73 P7 R11
M73 Q7 S11
G1 X135.8238 Y99.7989 E-0.531384
G1 X134.1762 Y99.7989 E-0.380438
M73 P7 R11
M73 Q7 S11
G1 X134.2343 Y99.6441 E-0.038179
;WIPE_END
M73 P7 R11
M73 Q7 S11
G1 E-0.05 F2100
M73 P7 R11
M73 Q7 S11
G1 Z0.4 F10800
; acceleration to travel
M204 S1500
M73 P7 R11
M73 Q7 S11
G1 X119.423 Y99.7686
; decel to extrusion
M204 S1000
M73 P7 R11
M73 Q7 S11
G1 X115.8238 Y99.7989
; end travel
M73 P7 R11
M73 Q7 S11
G1 Z0.2
M73 P7 R11
M73 Q7 S11
G1 E1 F2100
M73 P7 R11
M73 Q7 S11
G1 F1200
M73 P7 R11
M73 Q7 S11
G1 X114.1762 Y99.7989 E0.05166
G1 X115 Y97.6021 E0.073564
M73 P7 R11
M73 Q7 S11
G1 X115.8027 Y99.7427 E0.071682
;WIPE_START
M73 P7 R11
M73 Q7 S11
G1 F8640
M73 P7 R11
M73 Q7 S11
G1 X114.1762 Y99.7989 E-0.375798
G1 X115 Y97.6021 E-0.541745
M73 P7 R11
M73 Q7 S11
G1 X115.0494 Y97.7337 E-0.032458
;WIPE_END
M73 P7 R11
M73 Q7 S11
G1 E-0.05 F2100
M73 P7 R11
M73 Q7 S11
G1 Z0.4 F10800
; acceleration to travel
M204 S1500
M73 P7 R11
M73 Q7 S11
G1 X115.6555 Y96.1771
; decel to extrusion
M204 S1000
M73 P7 R11
M73 Q7 S11
G1 X115.8027 Y95.7989
; end travel
M73 P7 R11
M73 Q7 S11
G1 Z0.2
M73 P7 R11
M73 Q7 S11
G1 E1 F2100
M73 P7 R11
M73 Q7 S11
G1 F1200
M73 P7 R11
M73 Q7 S11
G1 X107.2011 Y95.7989 E0.269698
G1 X107.2011 Y90.2011 E0.175515
M73 P7 R11
M73 Q7 S11
G1 X109.3235 Y90.2011 E0.066547
M73 P7 R11
M73 Q7 S11
G1 X108.0206 Y94.3241 E0.135575
M73 P7 R11
M73 Q7 S11
G1 X121.988 Y94.3241 E0.437939
M73 P7 R11
M73 Q7 S11
G1 X120.67 Y90.2011 E0.135718
M73 P7 R11
M73 Q7 S11
G1 X129.33 Y90.2011 E0.27153
M73 P7 R11
M73 Q7 S11
G1 X128.012 Y94.3241 E0.135718
M73 P7 R11
M73 Q7 S11
G1 X141.988 Y94.3241 E0.438206
M73 P7 R11
M73 Q7 S11
G1 X140.67 Y90.2011 E0.135719
M73 P7 R11
M73 Q7 S11
G1 X142.7989 Y90.2011 E0.066751
M73 P7 R11
M73 Q7 S11
G1 X142.7989 Y95.7989 E0.175515
M73 P7 R11
M73 Q7 S11
G1 X115.8627 Y95.7989 E0.844564
;WIPE_START
M73 P7 R11
M73 Q7 S11
G1 F8640
M73 P8 R11
M73 Q8 S11
G1 X111.7485 Y95.7989 E-0.95
;WIPE_END
G1 E-0.05 F2100
M73 P8 R11
M73 Q8 S11
G1 Z0.4 F10800
; acceleration to travel
M204 S1500
M73 P8 R11
M73 Q8 S11
G1 X114.3643 Y98.1135
; decel to extrusion
M204 S1000
M73 P8 R11
M73 Q8 S11
G1 X115 Y98.676
; end travel
M73 P8 R11
M73 Q8 S11
G1 Z0.2
M73 P8 R11
M73 Q8 S11
G1 E1 F2100
M73 P8 R11
M73 Q8 S11
G1 F1200
M73 P8 R11
M73 Q8 S11
G1 X115.2797 Y99.4218 E0.024976
G1 X114.7203 Y99.4218 E0.017538
M73 P8 R11
M73 Q8 S11
G1 X114.9789 Y98.7321 E0.023094
;WIPE_START
M73 P8 R11
M73 Q8 S11
G1 F8640
M73 P8 R11
M73 Q8 S11
G1 X115.2797 Y99.4218 E-0.173728
G1 X114.7203 Y99.4218 E-0.129155
M73 P8 R11
M73 Q8 S11
G1 X114.9789 Y98.7321 E-0.170074
;WIPE_END
M73 P8 R11
M73 Q8 S11
G1 E-0.527042 F2100
M73 P8 R11
M73 Q8 S11
G1 Z0.4 F10800
; acceleration to travel
M204 S1500
M73 P8 R11
M73 Q8 S11
G1 X130.861 Y99.287
; decel to extrusion
M204 S1000
M73 P8 R11
M73 Q8 S11
G1 X134.7203 Y99.4218
; end travel
M73 P8 R11
M73 Q8 S11
G1 Z0.2
M73 P8 R11
M73 Q8 S11
G1 E1 F2100
M73 P8 R11
M73 Q8 S11
G1 F1200
M73 P8 R11
M73 Q8 S11
G1 X135 Y98.676 E0.024975
G1 X135.2797 Y99.4218 E0.024974
M73 P8 R11
M73 Q8 S11
G1 X134.7803 Y99.4218 E0.015657
;WIPE_START
M73 P8 R11
M73 Q8 S11
G1 F8640
M73 P8 R11
M73 Q8 S11
G1 X135 Y98.676 E-0.179525
G1 X135.2797 Y99.4218 E-0.183918
M73 P8 R11
M73 Q8 S11
G1 X134.7803 Y99.4218 E-0.115305
;WIPE_END
M73 P8 R11
M73 Q8 S11
G1 E-0.521252 F2100
M73 P8 R11
M73 Q8 S11
G1 Z0.4 F10800
; acceleration to travel
M204 S1500
M73 P8 R11
M73 Q8 S11
G1 X134.7803 Y96.2038
; decel to extrusion
M204 S1000
M73 P8 R11
M73 Q8 S11
G1 X134.7803 Y95.4218
; end travel
M73 P8 R11
M73 Q8 S11
G1 Z0.2
M73 P8 R11
M73 Q8 S11
G1 E1 F2100
M73 P8 R11
M73 Q8 S11
G1 F1200
M73 P8 R11
M73 Q8 S11
G1 X107.5782 Y95.4218 E0.852904
G1 X107.5782 Y94.7012 E0.022595
M73 P8 R11
M73 Q8 S11
G1 X122.5044 Y94.7012 E0.468001
M73 P8 R11
M73 Q8 S11
G1 X121.1864 Y90.5782 E0.135718
M73 P8 R11
M73 Q8 S11
G1 X128.8136 Y90.5782 E0.239146
M73 P8 R11
M73 Q8 S11
G1 X127.4956 Y94.7012 E0.135718
M73 P8 R11
M73 Q8 S11
G1 X142.4218 Y94.7012 E0.468
M73 P8 R11
M73 Q8 S11
G1 X142.4218 Y95.4218 E0.022595
M73 P8 R11
M73 Q8 S11
G1 X134.8403 Y95.4218 E0.237713
;WIPE_START
M73 P8 R11
M73 Q8 S11
G1 F8640
M73 P8 R11
M73 Q8 S11
G1 X130.726 Y95.4218 E-0.95
;WIPE_END
G1 E-0.05 F2100
M73 P8 R11
M73 Q8 S11
G1 Z0.4 F10800
; acceleration to travel
M204 S1500
M73 P8 R11
M73 Q8 S11
G1 X113.0936 Y91.5251
; decel to extrusion
M204 S1000
M73 P8 R11
M73 Q8 S11
G1 X108.8089 Y90.5782
; end travel
M73 P8 R11
M73 Q8 S11
G1 Z0.2
M73 P8 R11
M73 Q8 S11
G1 E1 F2100
M73 P8 R11
M73 Q8 S11
G1 F1200
M73 P8 R11
M73 Q8 S11
