; generated by SuperSlicer 2.5.59 on 2022-12-03 at 23:31:29 UTC


;
;
;

; external perimeters extrusion width = 1.00mm
; perimeters extrusion width = 1.00mm
; infill extrusion width = 0.90mm
; solid infill extrusion width = 0.90mm
; top infill extrusion width = 0.80mm
; first layer extrusion width = 0.90mm

; object:{"name":"pikachristmas","id":"pikachristmas.stl id:0 copy 0","object_center":[125.000000,105.000000,0.000000],"boundingbox_center":[125.000000,105.000000,4.000000],"boundingbox_size":[181.293945,188.059570,8.000000]}
; Total objects to print: 1
M486 T1
; plater:{"center":[125.000000,105.000000,0.000000],"boundingbox_center":[125.000000,105.000000,4.000000],"boundingbox_size":[181.293945,188.059570,8.000000]}

M73 P0 R101
M73 C69
M73 Q0 S103
M73 D70
M201 X1000 Y1000 Z200 E5000 ; sets maximum accelerations, mm/sec^2
M203 X200 Y200 Z12 E120 ; sets maximum feedrates, mm / sec
M204 P1250 R1250 T1250 ; sets acceleration (P, T) and retract acceleration (R), mm/sec^2
M205 X8.00 Y8.00 Z0.40 E4.50 ; sets the jerk limits, mm/sec
M205 S0 T0 ; sets the minimum extruding and travel feed rate, mm/sec
;TYPE:Custom
M862.3 P "MK3S" ; printer model check
M862.1 P0.8 ; nozzle diameter check
M115 U3.11.0 ; tell printer latest fw version

; Init
G90 ; use absolute coordinates
M83 ; extruder relative mode
M104 S220 ; set extruder temp
M140 S60 ; set bed temp
M190 S60 ; wait for bed temp

M117 Homing
G28 W ; home all without mesh bed level
M300 S40 P10 ; chirp
M109 S220 ; wait for extruder temp


; Final print adjustments
; Prusa's default flow to 95% to prevent overextrusion
M221 S95
; Set default linear advances for nozzles 0.4, 0.6 and 0.8
M900 K0.02
; Set extruder motor currents according to print profile name
M907 E538


M300 S40 P10 ; chirp
M117 Print in progress
M107
G21 ; set units to millimeters
G90 ; use absolute coordinates
M83 ; use relative distances for extrusion
M900 K0.01;
;_TOOLCHANGE 0
M107
G1 E-0.08 F2100
G1 Z6.4 F720
; acceleration to travel
M204 S1500
G1 X129.353 Y131.793 F10800
; decel to extrusion
M204 S1000
G1 X146.959 Y134.218
; end travel
G1 Z6 F720
G1 E1.6 F2100
G1 F3817.0917
G1 X149.388 Y131.789 E0.49379
G1 X150.144 Y131.405 E0.12188
G1 X151.73 Y130.149 E0.29092
G1 X153.329 Y128.586 E0.32146
G1 X153.685 Y128.189 E0.07671
G1 X155.034 Y126.686 E0.2903
G1 X156.947 Y124.23 E0.44757
G1 X179.733 Y101.443 E4.6331
G1 X179.336 Y100.861 E0.10134
G1 X177.8 Y102.397 E0.31223
G1 X177.569 Y102.722 E0.05733
G1 X176.334 Y104.363 E0.29525
G1 X176.135 Y104.557 E0.04002
G1 X175.518 Y105.073 E0.11558
G1 X175.174 Y105.301 E0.05928
G1 X174.698 Y105.499 E0.07421
G1 X159.603 Y120.594 E3.06911
G1 X161.514 Y117.704 E0.49807
G1 X173.642 Y105.576 E2.466
G1 X173.251 Y105.44 E0.05953
G1 X172.951 Y105.287 E0.04842
G1 X165.02 Y113.218 E1.61246
G1 X165.672 Y111.586 E0.25263
G1 X172.313 Y104.945 E1.35022
G1 X172.249 Y104.906 E0.01084
G1 X172.014 Y104.705 E0.04446
G1 X171.795 Y104.483 E0.04473
G1 X166.164 Y110.115 E1.14502
G1 X166.545 Y108.754 E0.20315
G1 X171.309 Y103.99 E0.96869
G1 X170.823 Y103.496 E0.09959
G1 X166.79 Y107.529 E0.81998
G1 X166.987 Y106.353 E0.17143
G1 X170.337 Y103.003 E0.68119
G1 X169.851 Y102.51 E0.09959
G1 X167.155 Y105.205 E0.54814
G1 X167.243 Y104.137 E0.1541
G1 X169.37 Y102.011 E0.43241
G1 X168.893 Y101.508 E0.09962
G1 X167.332 Y103.069 E0.3174
G1 X167.384 Y102.439 E0.0909
G1 X167.413 Y102.008 E0.06211
G1 X168.416 Y101.006 E0.20383
G1 X167.939 Y100.503 E0.09962
G1 X167.164 Y101.277 E0.15744
;WIPE_START
G1 F8640
G1 X167.939 Y100.503 E-0.25285
G1 X168.416 Y101.006 E-0.16
G1 X167.413 Y102.008 E-0.32735
G1 X167.384 Y102.439 E-0.09975
G1 X167.332 Y103.069 E-0.14598
G1 X168.893 Y101.508 E-0.50976
G1 X168.965 Y101.584 E-0.02431
;WIPE_END
G1 E-0.08 F2100
G1 Z6.4 F720
; acceleration to travel
M204 S1500
G1 X152.709 Y125.412 F10800
; decel to extrusion
M204 S1000
G1 X148.25 Y131.947
; end travel
G1 Z6 F720
G1 E1.6 F2100
G1 F3817.0917
G1 X146.934 Y133.264 E0.26765
G1 X146.725 Y132.956 E0.05346
G1 X146.642 Y132.575 E0.05602
G1 X147.226 Y131.992 E0.11861
;WIPE_START
G1 F8640
G1 X146.642 Y132.575 E-0.19049
G1 X146.725 Y132.956 E-0.08996
G1 X146.934 Y133.264 E-0.08586
G1 X148.25 Y131.947 E-0.42985
;WIPE_END
G1 E-0.80384 F2100
G1 Z6.4 F720
; acceleration to travel
M204 S1500
G1 X160.084 Y164.077 F10800
; decel to extrusion
M204 S1000
G1 X163.094 Y172.248
; end travel
G1 Z6 F720
G1 E1.6 F2100
;TYPE:Solid infill
;WIDTH:1.17
G1 F2561.8414
G1 X161.794 Y173.547 E0.3937
;WIPE_START
G1 F8640
G1 X163.094 Y172.248 E-0.42437
;WIPE_END
G1 E-1.17563 F2100
G1 Z6.4 F720
; acceleration to travel
M204 S1500
G1 X162.45 Y174.692 F10800
; decel to extrusion
M204 S1000
G1 X162.29 Y175.299
; end travel
G1 Z6 F720
G1 E1.6 F2100
;TYPE:Internal bridge infill
;WIDTH:0.758947
;HEIGHT:0.758947
G1 F1980
G1 X144.796 Y192.793 E4.65313
;WIPE_START
G1 F8640
G1 X149.451 Y188.138 E-1.52
;WIPE_END
G1 E-0.08 F2100
G1 Z6.4 F720
; acceleration to travel
M204 S1500
G1 X144.529 Y192.149 F10800
; decel to extrusion
M204 S1000
G1 X143.306 Y193.145
; end travel
G1 Z6 F720
G1 E1.6 F2100
G1 F1980
G1 X162.123 Y174.328 E5.00506
G1 X161.491 Y173.822 E0.15228
G1 X142.311 Y193.002 E5.10165
G1 X140.905 Y193.27 E0.26914
G1 X159.315 Y174.86 E4.89679
;WIPE_START
G1 F8640
G1 X154.66 Y179.515 E-1.52
;WIPE_END
G1 E-0.08 F2100
G1 Z6.4 F720
; acceleration to travel
M204 S1500
G1 X156.589 Y176.674 F10800
; decel to extrusion
M204 S1000
G1 X157.068 Y175.969
; end travel
G1 Z6 F720
G1 E1.6 F2100
G1 F1980
G1 X139.25 Y193.787 E4.73931
;WIPE_START
G1 F8640
G1 X143.905 Y189.132 E-1.52
;WIPE_END
G1 E-0.08 F2100
G1 Z6.4 F720
; acceleration to travel
M204 S1500
G1 X139.208 Y192.917 F10800
; decel to extrusion
M204 S1000
G1 X138.041 Y193.858
; end travel
G1 Z6 F720
G1 E1.6 F2100
G1 F1980
G1 X154.766 Y177.132 E4.4487
;WIPE_START
G1 F8640
G1 X150.112 Y181.787 E-1.52
;WIPE_END
G1 E-0.08 F2100
G1 Z6.4 F720
; acceleration to travel
M204 S1500
G1 X152.352 Y178.635 F10800
; decel to extrusion
M204 S1000
G1 X152.908 Y177.853
; end travel
G1 Z6 F720
G1 E1.6 F2100
G1 F1980
G1 X137.188 Y193.573 E4.18136
;WIPE_START
G1 F8640
G1 X141.843 Y188.918 E-1.52
;WIPE_END
G1 E-0.08 F2100
G1 Z6.4 F720
; acceleration to travel
M204 S1500
G1 X137.27 Y192.579 F10800
; decel to extrusion
M204 S1000
G1 X136.135 Y193.488
; end travel
G1 Z6 F720
G1 E1.6 F2100
G1 F1980
G1 X150.044 Y179.579 E3.69951
G1 X150.02 Y179.586 E0.00465
G1 X148.775 Y179.71 E0.23526
G1 X134.709 Y193.776 E3.74138
G1 X133.497 Y193.85 E0.22844
G1 X147.392 Y179.954 E3.69603
M73 Q89 S10
G1 X146.313 Y180.361 E0.2169
G1 X146.212 Y180.378 E0.01924
G1 X145.84 Y180.368 E0.06994
G1 X132.284 Y193.924 E3.60569
G1 X131.072 Y193.999 E0.22844
G1 X143.546 Y181.525 E3.31786
G1 X142.151 Y181.782 E0.26679
G1 X129.823 Y194.109 E3.27898
G1 X128.528 Y194.267 E0.24539
G1 X140.756 Y182.039 E3.25242
G1 X140.061 Y182.167 E0.13296
G1 X139.921 Y182.156 E0.02642
G1 X139.612 Y182.045 E0.06168
G1 X127.144 Y194.513 E3.31629
G1 X125.705 Y194.814 E0.27661
G1 X138.594 Y181.925 E3.42834
;WIPE_START
G1 F8640
G1 X133.939 Y186.58 E-1.52
;WIPE_END
G1 E-0.08 F2100
G1 Z6.4 F720
; acceleration to travel
M204 S1500
G1 X133.915 Y183.869 F10800
; decel to extrusion
M204 S1000
G1 X133.909 Y183.196
; end travel
G1 Z6 F720
G1 E1.6 F2100
G1 F1980
G1 X121.389 Y195.716 E3.33017
G1 X121.732 Y195.646 E0.06579
G1 X122.826 Y195.417 E0.21027
G1 X134.809 Y183.434 E3.18727
G1 X136.054 Y183.19 E0.23863
G1 X136.115 Y183.17 E0.01215
G1 X136.296 Y183.085 E0.03753
G1 X123.844 Y195.537 E3.31214
;WIPE_START
G1 F8640
G1 X128.498 Y190.882 E-1.52
;WIPE_END
G1 E-0.08 F2100
G1 Z6.4 F720
; acceleration to travel
M204 S1500
G1 X121.323 Y195.323 F10800
; decel to extrusion
M204 S1000
G1 X119.541 Y196.425
; end travel
G1 Z6 F720
G1 E1.6 F2100
G1 F1980
G1 X131.688 Y184.279 E3.23083
;WIPE_START
G1 F8640
G1 X127.033 Y188.934 E-1.52
;WIPE_END
G1 E-0.08 F2100
G1 Z6.4 F720
; acceleration to travel
M204 S1500
G1 X129.294 Y185.761 F10800
; decel to extrusion
M204 S1000
G1 X129.856 Y184.973
; end travel
G1 Z6 F720
G1 E1.6 F2100
G1 F1980
G1 X118.112 Y196.717 E3.12369
;WIPE_START
G1 F8640
G1 X122.767 Y192.062 E-1.52
;WIPE_END
G1 E-0.08 F2100
G1 Z6.4 F720
; acceleration to travel
M204 S1500
G1 X117.893 Y196.024 F10800
; decel to extrusion
M204 S1000
G1 X116.683 Y197.008
; end travel
G1 Z6 F720
G1 E1.6 F2100
G1 F1980
G1 X127.706 Y185.985 E2.93192
G1 X127.078 Y186.214 E0.12559
G1 X126.987 Y186.23 E0.0175
G1 X126.322 Y186.23 E0.12497
G1 X115.707 Y196.846 E2.82363
G1 X115.237 Y196.908 E0.08902
G1 X114.481 Y196.934 E0.14242
G1 X125.184 Y186.23 E2.84703
G1 X124.326 Y186.23 E0.16144
G1 X124.225 Y186.28 E0.02115
G1 X124.123 Y186.307 E0.01982
G1 X123.959 Y186.318 E0.03096
G1 X113.302 Y196.974 E2.83452
G1 X112.124 Y197.015 E0.22173
G1 X122.745 Y186.394 E2.82497
G1 X121.531 Y186.47 E0.2288
G1 X110.946 Y197.055 E2.81542
G1 X109.807 Y197.094 E0.21427
G1 X109.77 Y197.093 E0.00707
G1 X120.568 Y186.295 E2.87211
G1 X120.375 Y186.228 E0.03828
G1 X120.264 Y186.25 E0.02125
G1 X120.239 Y186.253 E0.00482
G1 X119.536 Y186.319 E0.13282
G1 X119.51 Y186.32 E0.00481
G1 X119.405 Y186.32 E0.01987
G1 X108.653 Y197.071 E2.85972
G1 X107.537 Y197.05 E0.21002
G1 X118.045 Y186.541 E2.79508
G1 X116.773 Y186.676 E0.24067
G1 X106.438 Y197.011 E2.74897
G1 X105.352 Y196.959 E0.2045
G1 X115.5 Y186.811 E2.69937
G1 X114.228 Y186.945 E0.24067
G1 X104.266 Y196.907 E2.64978
G1 X103.18 Y196.855 E0.2045
G1 X113.132 Y186.903 E2.64707
G1 X113.042 Y186.928 E0.0175
G1 X112.97 Y186.938 E0.01369
G1 X111.958 Y186.938 E0.19024
G1 X102.094 Y196.803 E2.6239
G1 X102.076 Y196.802 E0.00326
G1 X101.102 Y196.656 E0.18523
G1 X110.82 Y186.938 E2.58488
G1 X110.291 Y186.938 E0.09953
G1 X110.186 Y186.917 E0.02018
G1 X109.848 Y186.773 E0.06911
G1 X100.143 Y196.477 E2.58134
G1 X99.255 Y196.228 E0.17361
G1 X108.671 Y186.812 E2.50455
G1 X107.704 Y186.641 E0.18462
G1 X98.456 Y195.889 E2.46003
G1 X97.948 Y195.655 E0.10515
G1 X97.709 Y195.497 E0.05378
G1 X106.738 Y186.469 E2.40144
G1 X105.862 Y186.314 E0.1672
G1 X105.732 Y186.337 E0.02499
M73 P90 R10
G1 X97.024 Y195.045 E2.31605
G1 X96.823 Y194.911 E0.04547
G1 X96.399 Y194.532 E0.10696
G1 X104.528 Y186.403 E2.1623
G1 X103.734 Y186.059 E0.16275
G1 X95.798 Y193.995 E2.11086
G1 X95.198 Y193.457 E0.15158
G1 X102.914 Y185.741 E2.05248
G1 X101.867 Y185.65 E0.19777
G1 X94.597 Y192.92 E1.93357
G1 X93.997 Y192.382 E0.15158
G1 X100.769 Y185.61 E1.80135
G1 X99.969 Y185.592 E0.15058
G1 X99.447 Y185.794 E0.1052
G1 X93.439 Y191.802 E1.59813
G1 X92.886 Y191.217 E0.15141
G1 X97.9 Y186.203 E1.33371
G1 X96.781 Y186.183 E0.21041
G1 X92.333 Y190.632 E1.18324
G1 X91.78 Y190.047 E0.15141
G1 X95.663 Y186.164 E1.03276
G1 X95.249 Y186.157 E0.07786
G1 X95.216 Y186.154 E0.00625
G1 X94.62 Y186.069 E0.11317
G1 X91.26 Y189.429 E0.89371
G1 X90.76 Y188.791 E0.15244
G1 X93.694 Y185.857 E0.78034
G1 X92.953 Y185.654 E0.14441
G1 X92.807 Y185.606 E0.029
G1 X90.259 Y188.153 E0.6775
G1 X89.759 Y187.516 E0.15244
G1 X91.976 Y185.299 E0.58955
G1 X91.153 Y184.984 E0.16569
G1 X89.289 Y186.848 E0.49589
G1 X88.843 Y186.156 E0.15484
G1 X90.207 Y184.792 E0.36296
G1 X89.055 Y184.847 E0.21688
G1 X89.015 Y184.845 E0.00753
G1 X88.397 Y185.464 E0.16458
G1 X87.951 Y184.772 E0.15484
G1 X88.273 Y184.45 E0.08567
;WIPE_START
G1 F8640
G1 X87.951 Y184.772 E-0.10517
G1 X88.397 Y185.464 E-0.19009
G1 X89.015 Y184.845 E-0.20205
G1 X89.055 Y184.847 E-0.00925
G1 X90.207 Y184.792 E-0.26625
G1 X88.843 Y186.156 E-0.44559
G1 X89.289 Y186.848 E-0.19009
G1 X89.63 Y186.507 E-0.11149
;WIPE_END
G1 E-0.08 F2100
G1 Z6.4 F720
; acceleration to travel
M204 S1500
G1 X135.032 Y191.243 F10800
; decel to extrusion
M204 S1000
G1 X146.308 Y192.419
; end travel
G1 Z6 F720
G1 E1.6 F2100
G1 F1980
G1 X161.361 Y177.366 E4.0038
;WIPE_START
G1 F8640
G1 X156.706 Y182.021 E-1.52
;WIPE_END
G1 E-0.08 F2100
G1 Z6.4 F720
; acceleration to travel
M204 S1500
G1 X159.69 Y179.948 F10800
; decel to extrusion
M204 S1000
G1 X160.431 Y179.434
; end travel
G1 Z6 F720
G1 E1.6 F2100
G1 F1980
G1 X147.939 Y191.926 E3.32276
;WIPE_START
G1 F8640
G1 X152.594 Y187.271 E-1.52
;WIPE_END
G1 E-0.08 F2100
G1 Z6.4 F720
; acceleration to travel
M204 S1500
G1 X150.298 Y190.478 F10800
; decel to extrusion
M204 S1000
G1 X149.728 Y191.275
; end travel
G1 Z6 F720
G1 E1.6 F2100
G1 F1980
G1 X159.081 Y181.921 E2.48783
;WIPE_START
G1 F8640
G1 X154.426 Y186.576 E-1.52
;WIPE_END
G1 E-0.08 F2100
G1 Z6.4 F720
; acceleration to travel
M204 S1500
G1 X156.56 Y185.355 F10800
; decel to extrusion
M204 S1000
G1 X157.09 Y185.051
; end travel
G1 Z6 F720
G1 E1.6 F2100
G1 F1980
G1 X152.106 Y190.035 E1.32564
;WIPE_START
G1 F8640
G1 X156.76 Y185.38 E-1.52
;WIPE_END
G1 E-0.08 F2100
G1 Z6.4 F720
; acceleration to travel
M204 S1500
G1 X130.539 Y57.883 F10800
; decel to extrusion
M204 S800
G1 X125.353 Y32.67
; end travel
G1 Z6 F720
G1 E1.6 F2100
;TYPE:Internal perimeter
;WIDTH:1.167417
;HEIGHT:0.5
G1 F1841.4847
G1 X125.275 Y32.361 E0.07024
G1 X125.166 Y31.081 E0.2832
G1 X125.094 Y30.114 E0.21357
G1 X125.145 Y29.758 E0.07933
;WIDTH:1.238143
G1 F1787.7772
G1 X125.195 Y29.402 E0.08462
G1 X125.317 Y28.802 E0.14389
G1 X125.44 Y28.135 E0.15946
G1 X125.967 Y28.296 E0.12957
G1 X126.677 Y28.171 E0.16954
G1 X126.779 Y28.081 E0.03203
G1 X126.525 Y29.068 E0.23964
G1 X126.454 Y29.366 E0.07195
;WIDTH:1.167417
G1 F1841.4847
G1 X126.383 Y29.664 E0.06745
G1 X126.311 Y29.992 E0.07408
G1 X126.24 Y30.32 E0.07408
G1 X126.002 Y31.221 E0.20518
G1 X125.71 Y31.871 E0.15704
G1 X125.408 Y32.376 E0.12965
G1 X125.375 Y32.552 E0.03962
;WIPE_START
G1 F8640
M204 S1000
M73 P90 R9
G1 X125.275 Y32.361 E-0.04981
G1 X125.166 Y31.081 E-0.29674
G1 X125.094 Y30.114 E-0.22378
G1 X125.145 Y29.758 E-0.08312
;WIPE_END
G1 E-0.94656 F2100
G1 Z6.4 F720
; acceleration to travel
M204 S1500
G1 X128.578 Y22.634 F10800
; decel to extrusion
M204 S800
G1 X129.252 Y21.234
; end travel
G1 Z6 F720
G1 E1.6 F2100
;WIDTH:0.990022
G1 F1629.5059
G1 X129.27 Y21.092 E0.02633
G1 X129.287 Y20.949 E0.02633
G1 X129.151 Y20.556 E0.07626
G1 X129.015 Y20.164 E0.07626
G1 X128.713 Y19.844 E0.08062
G1 X128.242 Y19.555 E0.10135
G1 X128.822 Y19.48 E0.10719
G1 X129.313 Y19.381 E0.09203
G1 X129.826 Y19.233 E0.09792
G1 X130.547 Y18.884 E0.14696
G1 X129.84 Y20.113 E0.26025
G1 X129.598 Y20.54 E0.09
G1 X129.355 Y20.966 E0.09
G1 X129.304 Y21.1 E0.02633
G1 X129.295 Y21.122 E0.00431
;WIPE_START
G1 F8640
M204 S1000
G1 X129.27 Y21.092 E-0.00921
G1 X129.287 Y20.949 E-0.03313
G1 X129.151 Y20.556 E-0.09596
G1 X129.015 Y20.164 E-0.09596
G1 X128.713 Y19.844 E-0.10145
G1 X128.242 Y19.555 E-0.12754
G1 X128.822 Y19.48 E-0.13489
G1 X129.313 Y19.381 E-0.11581
G1 X129.826 Y19.233 E-0.12322
G1 X130.547 Y18.884 E-0.18492
G1 X129.84 Y20.113 E-0.32748
G1 X129.598 Y20.54 E-0.11325
G1 X129.475 Y20.755 E-0.05718
;WIPE_END
G1 E-0.08 F2100
G1 Z6.4 F720
; acceleration to travel
M204 S1500
G1 X106.661 Y19.571 F10800
; decel to extrusion
M204 S800
G1 X102.194 Y19.339
; end travel
G1 Z6 F720
G1 E1.6 F2100
;WIDTH:0.75162
G1 F1500
G1 X101.582 Y19.521 E0.08554
G1 X100.967 Y19.927 E0.09864
G1 X100.665 Y20.484 E0.0849
G1 X100.575 Y20.287 E0.02902
G1 X100.043 Y19.299 E0.15032
G1 X102.075 Y19.337 E0.27221
;WIPE_START
G1 F8640
M204 S1000
G1 X101.582 Y19.521 E-0.12135
G1 X100.967 Y19.927 E-0.17005
G1 X100.665 Y20.484 E-0.14636
G1 X100.575 Y20.287 E-0.05002
G1 X100.043 Y19.299 E-0.25914
G1 X102.075 Y19.337 E-0.46927
;WIPE_END
G1 E-0.38382 F2100
G1 Z6.4 F720
; acceleration to travel
M204 S1500
G1 X99.43 Y18.607 F10800
; decel to extrusion
M204 S800
G1 X98.9 Y18.461
; end travel
G1 Z6 F720
G1 E1.6 F2100
;TYPE:External perimeter
;WIDTH:1.3196
G1 F2177.6804
G1 X98.858 Y18.404 E0.01803
G1 X98.42 Y17.779 E0.19233
;WIDTH:1.264876
G1 F2280.6295
G1 X97.983 Y17.153 E0.18365
G1 X97.606 Y16.625 E0.15605
G1 X97.561 Y16.566 E0.018
G1 X97.142 Y16.048 E0.16033
;WIDTH:1.325194
G1 F2167.6779
G1 X96.723 Y15.53 E0.16869
G1 X96.481 Y15.261 E0.09146
G1 X96.24 Y14.992 E0.09146
G1 X96.01 Y14.753 E0.08409
G1 X95.78 Y14.513 E0.08409
G1 X95.563 Y14.341 E0.07003
;WIDTH:1.274666
G1 F2261.5033
G1 X95.347 Y14.169 E0.06712
G1 X95.141 Y14.045 E0.05823
;WIDTH:1.356274
G1 F2113.7364
G1 X94.935 Y13.922 E0.06231
G1 X94.666 Y13.8 E0.07659
