; generated by SuperSlicer 2.5.59 on 2022-12-04 at 09:26:01 UTC


;
;
;

; external perimeters extrusion width = 1.00mm
; perimeters extrusion width = 1.00mm
; infill extrusion width = 0.90mm
; solid infill extrusion width = 0.90mm
; top infill extrusion width = 0.80mm
; first layer extrusion width = 0.90mm

; object:{"name":"pikachristmas","id":"pikachristmas.stl id:0 copy 0","object_center":[125.000000,105.000000,0.000000],"boundingbox_center":[125.000000,105.000000,4.000000],"boundingbox_size":[181.293945,188.059570,8.000000]}
; Total objects to print: 1
M486 T1
; plater:{"center":[125.000000,105.000000,0.000000],"boundingbox_center":[125.000000,105.000000,4.000000],"boundingbox_size":[181.293945,188.059570,8.000000]}

M73 P0 R113
M73 C0
M73 Q0 S114
M201 X1000 Y1000 Z200 E5000 ; sets maximum accelerations, mm/sec^2
M203 X200 Y200 Z12 E120 ; sets maximum feedrates, mm / sec
M204 P1250 R1250 T1250 ; sets acceleration (P, T) and retract acceleration (R), mm/sec^2
M205 X8.00 Y8.00 Z0.40 E4.50 ; sets the jerk limits, mm/sec
M205 S0 T0 ; sets the minimum extruding and travel feed rate, mm/sec
;TYPE:Custom
M862.3 P "MK3S" ; printer model check
M862.1 P0.8 ; nozzle diameter check
M115 U3.11.0 ; tell printer latest fw version

; Init
G90 ; use absolute coordinates
M83 ; extruder relative mode
M104 S220 ; set extruder temp
M140 S60 ; set bed temp
M190 S60 ; wait for bed temp

M117 Homing
G28 W ; home all without mesh bed level
M109 S220 ; wait for extruder temp


; Final print adjustments
; Prusa's default flow to 95% to prevent overextrusion
M221 S95
; Set default linear advances for nozzles 0.4, 0.6 and 0.8
M900 K0.02
; Set extruder motor currents according to print profile name
M907 E538


M300 S40 P10 ; chirp
M117 Print in progress
M107
G21 ; set units to millimeters
G90 ; use absolute coordinates
M83 ; use relative distances for extrusion
M900 K0.01;
;_TOOLCHANGE 0
M107
;4.5
;COLOR_CHANGE,T0,#000000
M600
; printing object pikachristmas.stl id:0 copy 0
M486 S0
M204 S800
G1 X52.561 Y177.174 F10800
;TYPE:Internal perimeter
;WIDTH:1
G1 F2957.3236
G1 X53.796 Y176.191 E0.29295
G1 X57.39 Y173.157 E0.87271
G1 X57.406 Y173.143 E0.00403
G1 X58.385 Y172.208 E0.25124
G1 X58.389 Y171.695 E0.09527
G1 X55.99 Y169.343 E0.6234
G1 X55.954 Y169.306 E0.00962
G1 X53.187 Y166.318 E0.75557
G1 X53.106 Y166.22 E0.02363
G1 X51.955 Y164.634 E0.3637
G1 X51.885 Y164.525 E0.02402
G1 X50.997 Y162.925 E0.33962
G1 X50.937 Y162.799 E0.02583
G1 X50.214 Y160.973 E0.36445
G1 X50.182 Y160.882 E0.01801
G1 X48.616 Y155.563 E1.02893
G1 X48.141 Y154.145 E0.27749
G1 X48.105 Y154.009 E0.02601
G1 X47.738 Y152.123 E0.35655
G1 X47.731 Y152.084 E0.00741
G1 X47.161 Y148.44 E0.68441
G1 X46.938 Y148.163 E0.06594
G1 X46.494 Y148.324 E0.08766
G1 X44.46 Y152.057 E0.78881
G1 X42.135 Y156.833 E0.98572
G1 X42.128 Y156.849 E0.00334
G1 X40.153 Y161.489 E0.9358
G1 X40.145 Y161.508 E0.00371
G1 X38.528 Y165.987 E0.88372
G1 X38.521 Y166.008 E0.00417
G1 X37.271 Y170.3 E0.82947
G1 X37.265 Y170.324 E0.00473
G1 X36.387 Y174.402 E0.77398
G1 X36.382 Y174.431 E0.00546
G1 X35.876 Y178.309 E0.72585
G1 X35.78 Y179.454 E0.21307
G1 X35.779 Y179.491 E0.00703
G1 X35.87 Y183.525 E0.74862
G1 X35.878 Y183.592 E0.01258
G1 X36.008 Y184.19 E0.11353
G1 X36.015 Y184.218 E0.00541
G1 X36.281 Y185.095 E0.16998
G1 X36.315 Y185.172 E0.01576
G1 X36.537 Y185.548 E0.08083
G1 X36.618 Y185.643 E0.02325
G1 X36.758 Y185.756 E0.03338
G1 X36.878 Y185.821 E0.02541
G1 X37.082 Y185.884 E0.03961
G1 X37.023 Y186.8 E0.17034
;TYPE:External perimeter
G1 X36.382 Y186.602 E0.12456
G1 X35.881 Y186.193 E0.12002
G1 X35.47 Y185.497 E0.14994
G1 X35.146 Y184.429 E0.20724
G1 X34.981 Y183.664 E0.14514
G1 X34.885 Y179.445 E0.78307
G1 X34.987 Y178.223 E0.2277
G1 X35.503 Y174.264 E0.74077
G1 X36.402 Y170.093 E0.79183
G1 X37.675 Y165.721 E0.84505
G1 X39.318 Y161.172 E0.89752
G1 X41.319 Y156.471 E0.94815
G1 X43.67 Y151.64 E0.99695
G1 X46.361 Y146.704 E1.04321
G1 X49.385 Y141.686 E1.08723
G1 X53.392 Y135.623 E1.34861
G1 X59.381 Y127.287 E1.90489
G1 X62.954 Y122.375 E1.12711
G1 X64.666 Y119.686 E0.59147
G1 X65.019 Y118.734 E0.18841
G1 X65.087 Y117.876 E0.15973
G1 X64.711 Y116.128 E0.33179
G1 X64.361 Y114.711 E0.27087
G1 X64.336 Y113.998 E0.13239
G1 X64.21 Y112.563 E0.26735
G1 X64.02 Y110.881 E0.31416
G1 X63.909 Y109.649 E0.22953
G1 X63.541 Y109.367 E0.08605
G1 X63.492 Y109.022 E0.06479
G1 X63.301 Y105.084 E0.73155
G1 X62.986 Y89.263 E2.93653
G1 X62.634 Y85.039 E0.78645
G1 X62.401 Y82.98 E0.38462
G1 X62.399 Y79.713 E0.60626
G1 X62.566 Y79.111 E0.116
G1 X63.196 Y77.512 E0.31889
G1 X64.266 Y75.979 E0.34689
;TYPE:Internal perimeter
;WIDTH:0.971294
G1 F3044.726
G1 X65.107 Y76.571 E0.18557
;WIDTH:1
G1 F2957.3236
G1 X65.258 Y76.968 E0.0787
G1 X66.028 Y77.154 E0.14705
G1 X66.291 Y77.825 E0.13375
G1 X66.173 Y81.889 E0.75457
G1 X66.174 Y81.929 E0.00736
G1 X66.24 Y82.738 E0.15063
G1 X66.244 Y82.765 E0.00513
G1 X66.408 Y83.786 E0.19181
G1 X66.421 Y83.839 E0.01012
G1 X66.715 Y84.749 E0.17756
G1 X66.735 Y84.798 E0.00977
G1 X67.156 Y85.649 E0.17628
G1 X67.183 Y85.694 E0.00968
G1 X67.719 Y86.467 E0.17448
G1 X67.752 Y86.508 E0.00978
G1 X68.386 Y87.183 E0.17198
G1 X68.426 Y87.22 E0.00998
G1 X69.139 Y87.78 E0.16826
G1 X69.186 Y87.811 E0.01046
G1 X69.96 Y88.242 E0.16447
G1 X70.015 Y88.267 E0.01114
G1 X70.911 Y88.583 E0.17629
G1 X70.94 Y88.592 E0.00566
G1 X71.221 Y88.665 E0.05386
G1 X71.313 Y88.677 E0.01721
G1 X72.721 Y88.668 E0.26126
G1 X72.809 Y88.656 E0.01663
G1 X73.217 Y88.549 E0.07815
G1 X73.249 Y88.538 E0.00641
G1 X74.423 Y88.104 E0.23218
G1 X74.482 Y88.075 E0.01227
G1 X75.524 Y87.45 E0.22538
G1 X75.573 Y87.415 E0.01113
G1 X76.551 Y86.578 E0.23895
G1 X76.589 Y86.539 E0.01019
G1 X77.48 Y85.5 E0.25387
G1 X77.51 Y85.459 E0.00936
G1 X78.287 Y84.239 E0.26844
G1 X78.309 Y84.198 E0.0088
G1 X78.949 Y82.818 E0.28212
G1 X78.965 Y82.776 E0.00842
G1 X79.446 Y81.262 E0.29482
G1 X79.456 Y81.219 E0.00825
G1 X79.765 Y79.543 E0.31618
G1 X79.769 Y79.521 E0.00416
G1 X79.851 Y78.837 E0.1278
G1 X79.853 Y78.78 E0.01054
G1 X79.807 Y77.615 E0.21649
G1 X79.805 Y77.584 E0.00565
G1 X79.564 Y75.67 E0.35806
G1 X79.548 Y75.601 E0.01318
G1 X79.015 Y74.013 E0.31088
G1 X78.983 Y73.943 E0.0142
G1 X78.112 Y72.487 E0.31483
G1 X78.071 Y72.431 E0.0128
G1 X76.741 Y70.952 E0.36922
G1 X76.721 Y70.931 E0.00535
G1 X76.227 Y70.464 E0.1261
G1 X76.137 Y70.403 E0.02022
G1 X75.862 Y70.269 E0.0567
G1 X75.73 Y70.234 E0.02545
G1 X74.726 Y70.169 E0.18673
G1 X74.225 Y70.007 E0.09756
G1 X73.47 Y69.531 E0.16572
G1 X73.189 Y69.25 E0.07379
G1 X73.096 Y68.676 E0.10795
G1 X72.956 Y68.446 E0.0499
G1 X72.486 Y68.485 E0.08766
G1 X72.187 Y68.797 E0.08021
G1 X67.781 Y73.32 E1.17159
G1 X65.505 Y75.853 E0.63189
G1 X64.819 Y75.281 E0.16577
;TYPE:External perimeter
G1 X67.124 Y72.715 E0.64002
G1 X71.548 Y68.174 E1.17637
G1 X76.496 Y63.011 E1.32716
G1 X77.338 Y61.823 E0.2702
G1 X77.648 Y60.851 E0.18937
G1 X77.82 Y58.818 E0.37857
G1 X77.891 Y55.532 E0.60989
G1 X77.788 Y46.901 E1.60177
G1 X77.442 Y38.497 E1.5609
G1 X77.206 Y35.49 E0.55977
G1 X76.936 Y33.857 E0.30711
G1 X76.748 Y33.367 E0.09737
G1 X76.248 Y33.176 E0.09923
G1 X75.133 Y33.023 E0.20901
G1 X74.27 Y32.968 E0.16042
G1 X73.113 Y33.079 E0.21565
G1 X70.853 Y33.401 E0.42364
G1 X68.789 Y33.939 E0.39585
G1 X67.591 Y34.323 E0.23345
G1 X66.092 Y34.515 E0.28036
G1 X65.356 Y34.421 E0.1378
G1 X64.364 Y34.223 E0.18765
G1 X63.417 Y33.892 E0.18612
G1 X61.467 Y32.752 E0.4192
G1 X59.465 Y30.947 E0.50018
G1 X57.341 Y28.411 E0.61391
G1 X55.629 Y25.876 E0.56763
G1 X54.778 Y24.007 E0.38109
G1 X54.719 Y23.781 E0.04339
G1 X54.902 Y23.297 E0.09606
G1 X54.729 Y22.271 E0.19304
G1 X54.812 Y21.02 E0.23271
;TYPE:Internal perimeter
G1 X55.676 Y21.481 E0.18178
G1 X55.629 Y22.184 E0.13073
G1 X55.633 Y22.267 E0.01541
G1 X55.774 Y23.102 E0.1571
G1 X55.718 Y23.663 E0.10466
G1 X55.716 Y23.704 E0.00761
G1 X55.719 Y23.704 E0.00067
G1 X55.727 Y23.937 E0.04322
G1 X55.748 Y23.984 E0.00965
G1 X56.141 Y24.047 E0.07381
G1 X56.146 Y24.137 E0.01658
G1 X56.967 Y24.088 E0.1526
G1 X58.78 Y24.657 E0.35256
G1 X58.848 Y24.682 E0.01347
G1 X59.303 Y24.859 E0.09051
G1 X59.412 Y24.883 E0.02079
G1 X60.321 Y24.935 E0.16896
G1 X60.506 Y24.895 E0.035
G1 X60.877 Y24.703 E0.07751
G1 X61.027 Y24.556 E0.03911
G1 X61.173 Y24.285 E0.05709
G1 X61.215 Y24.136 E0.02865
G1 X61.255 Y23.454 E0.12677
G1 X61.244 Y23.346 E0.02025
G1 X61.202 Y23.18 E0.03164
G1 X61.182 Y23.122 E0.01134
G1 X60.241 Y21.015 E0.42835
G1 X60.198 Y20.903 E0.02217
G1 X59.824 Y19.727 E0.22902
G1 X59.897 Y18.953 E0.14425
G1 X59.675 Y18.588 E0.07928
G1 X59.22 Y18.406 E0.09103
G1 X58.992 Y18.325 E0.04474
G1 X58.899 Y18.306 E0.0178
G1 X57.943 Y18.239 E0.17771
G1 X57.852 Y18.244 E0.01687
G1 X57.642 Y18.283 E0.03977
G1 X57.606 Y18.292 E0.00693
G1 X57.084 Y18.448 E0.10108
G1 X57.018 Y18.474 E0.0131
G1 X56.627 Y18.682 E0.08219
G1 X56.566 Y18.722 E0.0135
G1 X56.291 Y18.95 E0.06634
G1 X56.231 Y19.015 E0.01638
G1 X56.086 Y19.213 E0.04558
G1 X56.017 Y19.412 E0.03911
G1 X55.977 Y20.662 E0.23197
G1 X55.096 Y20.28 E0.17809
;TYPE:External perimeter
G1 X55.135 Y19.064 E0.22586
G1 X55.252 Y18.841 E0.04673
G1 X55.602 Y18.362 E0.10995
G1 X56.095 Y17.953 E0.11897
G1 X56.709 Y17.628 E0.12898
G1 X57.413 Y17.418 E0.13626
G1 X57.846 Y17.337 E0.08169
G1 X59.13 Y17.427 E0.23893
G1 X59.543 Y17.573 E0.08116
G1 X60.448 Y17.937 E0.18115
G1 X61.257 Y18.148 E0.15516
G1 X61.793 Y18.151 E0.09947
G1 X62.286 Y17.819 E0.11031
G1 X63.15 Y17.098 E0.20881
G1 X63.569 Y16.701 E0.10707
G1 X64.043 Y16.544 E0.09259
G1 X64.306 Y16.576 E0.04927
G1 X65.07 Y16.828 E0.14922
G1 X66.189 Y17.563 E0.24844
G1 X67.092 Y18.239 E0.20931
G1 X67.62 Y18.239 E0.0979
;TYPE:Internal perimeter
G1 X67.8 Y19.131 E0.169
G1 X67.15 Y19.131 E0.12062
G1 X66.511 Y18.919 E0.12491
G1 X65.684 Y18.301 E0.19158
G1 X65.667 Y18.288 E0.004
G1 X64.718 Y17.664 E0.21072
G1 X64.634 Y17.624 E0.0174
G1 X64.287 Y17.509 E0.06773
G1 X63.929 Y17.589 E0.06797
G1 X63.769 Y17.742 E0.04111
G1 X63.718 Y17.787 E0.01258
G1 X62.865 Y18.498 E0.20605
G1 X62.827 Y18.527 E0.00899
G1 X62.848 Y19.114 E0.10886
G1 X63.765 Y19.701 E0.20202
G1 X64.41 Y21.064 E0.27992
G1 X64.48 Y21.164 E0.02253
G1 X65.851 Y22.539 E0.36037
G1 X65.948 Y22.608 E0.0221
G1 X67.254 Y23.242 E0.26944
G1 X67.524 Y23.553 E0.07632
G1 X67.838 Y23.672 E0.06237
G1 X68.151 Y23.318 E0.08766
G1 X68.151 Y21.969 E0.25034
G1 X69.043 Y21.951 E0.16569
;TYPE:External perimeter
G1 X69.043 Y24.006 E0.3814
G1 X68.822 Y24.751 E0.14424
G1 X68.653 Y24.943 E0.04756
G1 X68.203 Y25.254 E0.1015
G1 X67.643 Y25.379 E0.10652
G1 X67.074 Y25.317 E0.10616
G1 X66.596 Y25.057 E0.10098
G1 X66.692 Y24.613 E0.08432
G1 X66.93 Y24.077 E0.10873
G1 X65.368 Y23.319 E0.32219
G1 X63.696 Y21.641 E0.43961
G1 X62.914 Y19.99 E0.33895
G1 X62.416 Y19.985 E0.09254
G1 X60.652 Y19.387 E0.34552
G1 X61.052 Y20.642 E0.2444
G1 X62.041 Y22.857 E0.45012
G1 X62.157 Y23.313 E0.08743
G1 X62.09 Y24.464 E0.21398
G1 X61.676 Y25.232 E0.16184
G1 X61.417 Y25.429 E0.06035
G1 X60.75 Y25.774 E0.13941
G1 X60.508 Y25.839 E0.04656
G1 X59.163 Y25.763 E0.24995
G1 X58.518 Y25.511 E0.12847
G1 X56.637 Y24.92 E0.36585
G1 X57.448 Y26.549 E0.33758
G1 X58.301 Y27.725 E0.26971
G1 X60.367 Y30.161 E0.59278
G1 X61.392 Y31.19 E0.26931
G1 X62.259 Y31.767 E0.19337
G1 X63.61 Y32.524 E0.28736
G1 X64.961 Y32.967 E0.26385
G1 X66.335 Y33.083 E0.25596
G1 X67.72 Y32.886 E0.25955
G1 X72.649 Y31.991 E0.92955
G1 X74.456 Y31.706 E0.33952
G1 X75.626 Y31.313 E0.22905
G1 X76.273 Y30.578 E0.18174
G1 X76.466 Y29.556 E0.19286
G1 X76.522 Y28.849 E0.13163
G1 X76.378 Y26.605 E0.41728
G1 X76.148 Y21.385 E0.9696
G1 X75.934 Y17.905 E0.64714
G1 X75.624 Y17.079 E0.16368
G1 X74.985 Y16.697 E0.13819
G1 X73.512 Y16.688 E0.27336
G1 X71.965 Y17.144 E0.29925
G1 X71.331 Y17.441 E0.12997
G1 X69.953 Y18.818 E0.36144
G1 X69.625 Y19.508 E0.14175
G1 X69.194 Y20.787 E0.25045
G1 X69.135 Y21.067 E0.05321
;TYPE:Internal perimeter
G1 X68.22 Y21.082 E0.16987
G1 X68.318 Y20.614 E0.08884
G1 X68.351 Y20.492 E0.0235
G1 X68.68 Y19.517 E0.19087
G1 X68.667 Y19.255 E0.04864
G1 X68.643 Y19.245 E0.00483
;WIDTH:0.783734
G1 F3773.3752
G1 X68.434 Y17.986 E0.18557
;TYPE:External perimeter
;WIDTH:1
G1 F2957.3236
G1 X69.876 Y16.758 E0.35145
G1 X70.373 Y16.491 E0.10484
G1 X72.53 Y16.054 E0.40836
G1 X74.469 Y15.629 E0.36832
G1 X76.105 Y14.975 E0.32687
G1 X77.38 Y14.095 E0.28769
G1 X78.213 Y13.02 E0.25233
G1 X78.471 Y12.515 E0.10512
G1 X78.436 Y11.899 E0.11458
G1 X79.295 Y11.972 E0.15993
G1 X79.578 Y12.02 E0.05334
G1 X78.573 Y14.19 E0.44372
G1 X78.007 Y15.181 E0.21176
G1 X77.499 Y15.988 E0.17704
G1 X77.297 Y16.739 E0.14438
G1 X76.997 Y18.229 E0.28196
G1 X76.875 Y19.074 E0.15848
G1 X76.881 Y25.42 E1.1775
G1 X77.038 Y26.962 E0.28773
G1 X78.286 Y35.317 E1.56769
G1 X78.599 Y40.114 E0.89199
G1 X78.735 Y42.67 E0.47496
G1 X78.869 Y49.784 E1.3204
G1 X78.959 Y56.315 E1.21202
G1 X79.057 Y57.118 E0.15022
G1 X79.332 Y58.315 E0.22795
G1 X79.616 Y58.956 E0.13
G1 X80.162 Y59.094 E0.10459
G1 X80.928 Y59.024 E0.1427
G1 X82.565 Y58.336 E0.32961
G1 X88.018 Y56.177 E1.08826
G1 X95.78 Y53.667 E1.51376
G1 X100.474 Y52.31 E0.90676
G1 X104.438 Y51.345 E0.75715
G1 X108.057 Y50.69 E0.68239
G1 X111.722 Y50.262 E0.68478
G1 X112.976 Y50.149 E0.23369
G1 X118.507 Y50.149 E1.02635
G1 X119.758 Y50.259 E0.23301
G1 X124.792 Y50.918 E0.94228
G1 X130.028 Y52.044 E0.99382
G1 X135.633 Y53.679 E1.08338
G1 X141.756 Y55.862 E1.20628
G1 X145.802 Y57.591 E0.81658
G1 X148.96 Y59.361 E0.6718
G1 X151.434 Y61.298 E0.58299
G1 X153.164 Y63.231 E0.48142
G1 X153.067 Y63.349 E0.02836
G1 X150.104 Y61.609 E0.63769
G1 X145.955 Y59.555 E0.85914
G1 X141.3 Y57.526 E0.94228
G1 X136.391 Y55.615 E0.97752
G1 X131.488 Y53.916 E0.96287
G1 X126.846 Y52.523 E0.89947
G1 X122.717 Y51.532 E0.78785
G1 X119.368 Y51.042 E0.62813
G1 X117.918 Y50.938 E0.26974
G1 X116.334 Y50.997 E0.29415
G1 X111.575 Y51.327 E0.88525
G1 X106.961 Y51.995 E0.86514
G1 X102.117 Y53.069 E0.92077
G1 X96.656 Y54.621 E1.0535
G1 X90.557 Y56.613 E1.19066
G1 X85.999 Y58.42 E0.90983
G1 X82.444 Y60.292 E0.74559
G1 X79.73 Y62.213 E0.61708
;TYPE:Internal perimeter
G1 X79.376 Y61.37 E0.16966
G1 X80.428 Y60.626 E0.23918
G1 X80.578 Y60.317 E0.06367
G1 X80.249 Y59.978 E0.08766
G1 X79.913 Y59.952 E0.06251
G1 X79.476 Y59.841 E0.08369
G1 X79.214 Y59.62 E0.06372
G1 X78.969 Y59.536 E0.04801
G1 X78.628 Y59.863 E0.08766
G1 X78.539 Y60.906 E0.19428
G1 X78.493 Y61.141 E0.04449
G1 X78.465 Y61.228 E0.01693
G1 X78.542 Y61.578 E0.06643
G1 X78.568 Y61.581 E0.00483
;WIDTH:0.785766
G1 F3763.6164
G1 X79.031 Y62.766 E0.18557
;TYPE:External perimeter
;WIDTH:1
G1 F2957.3236
G1 X77.734 Y63.908 E0.32074
G1 X76.077 Y65.562 E0.43439
G1 X74.743 Y67.068 E0.37344
G1 X74.078 Y68.085 E0.22542
G1 X73.912 Y68.754 E0.12801
G1 X74.739 Y69.275 E0.18143
G1 X76.032 Y69.359 E0.24039
G1 X76.7 Y69.683 E0.13789
G1 X77.371 Y70.318 E0.17127
G1 X78.816 Y71.925 E0.40109
G1 X79.818 Y73.6 E0.36234
G1 X80.434 Y75.435 E0.35907
G1 X80.697 Y77.526 E0.39114
G1 X80.749 Y78.845 E0.2449
G1 X80.65 Y79.666 E0.15359
G1 X80.32 Y81.457 E0.33793
G1 X79.792 Y83.122 E0.32405
G1 X79.084 Y84.649 E0.31232
G1 X78.215 Y86.014 E0.3003
G1 X77.205 Y87.193 E0.28817
G1 X76.073 Y88.162 E0.27639
G1 X74.842 Y88.9 E0.2665
G1 X73.503 Y89.396 E0.26497
G1 X72.884 Y89.559 E0.11871
G1 X71.155 Y89.57 E0.32098
G1 X70.664 Y89.443 E0.09416
G1 X69.618 Y89.073 E0.20577
G1 X68.665 Y88.543 E0.2024
G1 X67.8 Y87.863 E0.20414
G1 X67.038 Y87.051 E0.20664
G1 X66.397 Y86.128 E0.20863
G1 X65.894 Y85.111 E0.21043
G1 X65.542 Y84.022 E0.21247
G1 X65.355 Y82.859 E0.21856
G1 X65.278 Y81.933 E0.17253
G1 X65.401 Y77.726 E0.781
G1 X64.412 Y78.055 E0.19346
G1 X63.851 Y79.144 E0.22731
G1 X63.477 Y80.078 E0.18667
G1 X63.358 Y81.24 E0.21667
G1 X63.634 Y83.761 E0.47073
G1 X64.125 Y90.711 E1.29282
G1 X64.308 Y105.916 E2.8218
G1 X64.524 Y109.162 E0.60382
G1 X65.035 Y112.347 E0.59855
G1 X65.965 Y116.571 E0.80272
G1 X66.978 Y120.522 E0.75682
G1 X68.229 Y123.979 E0.68219
G1 X70.229 Y129.401 E1.07239
G1 X71.168 Y131.099 E0.36005
G1 X73.475 Y135.107 E0.85821
G1 X74.325 Y136.147 E0.24929
G1 X74.819 Y136.621 E0.12712
G1 X76.006 Y137.255 E0.24965
G1 X78.602 Y138.702 E0.55152
G1 X83.01 Y140.926 E0.91616
G1 X87.883 Y142.798 E0.96872
