; generated by SuperSlicer 2.5.59 on 2022-12-04 at 09:31:17 UTC


;
;
;

; external perimeters extrusion width = 1.00mm
; perimeters extrusion width = 1.00mm
; infill extrusion width = 0.90mm
; solid infill extrusion width = 0.90mm
; top infill extrusion width = 0.80mm
; first layer extrusion width = 0.90mm

; object:{"name":"pikachristmas","id":"pikachristmas.stl id:0 copy 0","object_center":[125.000000,105.000000,0.000000],"boundingbox_center":[125.000000,105.000000,4.000000],"boundingbox_size":[181.293945,188.059570,8.000000]}
; Total objects to print: 1
M486 T1
; plater:{"center":[125.000000,105.000000,0.000000],"boundingbox_center":[125.000000,105.000000,4.000000],"boundingbox_size":[181.293945,188.059570,8.000000]}

M73 P0 R117
M73 C0
M73 Q0 S118
M201 X1000 Y1000 Z200 E5000 ; sets maximum accelerations, mm/sec^2
M203 X200 Y200 Z12 E120 ; sets maximum feedrates, mm / sec
M204 P1250 R1250 T1250 ; sets acceleration (P, T) and retract acceleration (R), mm/sec^2
M205 X8.00 Y8.00 Z0.40 E4.50 ; sets the jerk limits, mm/sec
M205 S0 T0 ; sets the minimum extruding and travel feed rate, mm/sec
;TYPE:Custom
M862.3 P "MK3S" ; printer model check
M862.1 P0.8 ; nozzle diameter check
M115 U3.11.0 ; tell printer latest fw version

; Init
G90 ; use absolute coordinates
M83 ; extruder relative mode
M104 S235 ; set extruder temp
M140 S85 ; set bed temp
M190 S85 ; wait for bed temp

M117 Homing
G28 W ; home all without mesh bed level
M109 S235 ; wait for extruder temp


; Final print adjustments
; Prusa's default flow to 95% to prevent overextrusion
M221 S95
; Set default linear advances for nozzles 0.4, 0.6 and 0.8
M900 K0.02
; Set extruder motor currents according to print profile name
M907 E538


M300 S40 P10 ; chirp
M117 Print in progress
G1 Z2.5
;AFTER_LAYER_CHANGE
;4.5
; printing object pikachristmas.stl id:0 copy 0
M486 S0
M204 S800
G1 X52.561 Y177.174 F10800
;TYPE:Internal perimeter
;WIDTH:1
G1 F2688.476
G1 X53.796 Y176.191 E0.28416
G1 X57.39 Y173.157 E0.84653
G1 X57.406 Y173.143 E0.00391
G1 X58.385 Y172.208 E0.2437
G1 X58.389 Y171.695 E0.09241
G1 X55.99 Y169.343 E0.6047
G1 X55.954 Y169.306 E0.00933
G1 X53.187 Y166.318 E0.7329
G1 X53.106 Y166.22 E0.02292
G1 X51.955 Y164.634 E0.35279
G1 X51.885 Y164.525 E0.0233
G1 X50.997 Y162.925 E0.32943
G1 X50.937 Y162.799 E0.02506
G1 X50.214 Y160.973 E0.35352
G1 X50.182 Y160.882 E0.01747
G1 X48.616 Y155.563 E0.99806
G1 X48.141 Y154.145 E0.26917
G1 X48.105 Y154.009 E0.02523
G1 X47.738 Y152.123 E0.34585
G1 X47.731 Y152.084 E0.00719
G1 X47.161 Y148.44 E0.66388
G1 X46.938 Y148.163 E0.06397
G1 X46.494 Y148.324 E0.08503
G1 X44.46 Y152.057 E0.76514
G1 X42.135 Y156.833 E0.95615
G1 X42.128 Y156.849 E0.00324
G1 X40.153 Y161.489 E0.90773
G1 X40.145 Y161.508 E0.0036
G1 X38.528 Y165.987 E0.85721
G1 X38.521 Y166.008 E0.00404
G1 X37.271 Y170.3 E0.80458
G1 X37.265 Y170.324 E0.00459
G1 X36.387 Y174.402 E0.75076
G1 X36.382 Y174.431 E0.00529
G1 X35.876 Y178.309 E0.70407
G1 X35.78 Y179.454 E0.20668
G1 X35.779 Y179.491 E0.00682
G1 X35.87 Y183.525 E0.72616
G1 X35.878 Y183.592 E0.01221
G1 X36.008 Y184.19 E0.11013
G1 X36.015 Y184.218 E0.00525
G1 X36.281 Y185.095 E0.16488
G1 X36.315 Y185.172 E0.01529
G1 X36.537 Y185.548 E0.07841
G1 X36.618 Y185.643 E0.02255
G1 X36.758 Y185.756 E0.03238
G1 X36.878 Y185.821 E0.02465
G1 X37.082 Y185.884 E0.03842
G1 X37.023 Y186.8 E0.16523
;TYPE:External perimeter
G1 X36.382 Y186.602 E0.12082
G1 X35.881 Y186.193 E0.11642
G1 X35.47 Y185.497 E0.14544
G1 X35.146 Y184.429 E0.20102
G1 X34.981 Y183.664 E0.14079
G1 X34.885 Y179.445 E0.75958
G1 X34.987 Y178.223 E0.22087
G1 X35.503 Y174.264 E0.71855
G1 X36.402 Y170.093 E0.76807
G1 X37.675 Y165.721 E0.8197
G1 X39.318 Y161.172 E0.87059
G1 X41.319 Y156.471 E0.9197
G1 X43.67 Y151.64 E0.96704
G1 X46.361 Y146.704 E1.01191
G1 X49.385 Y141.686 E1.05461
G1 X53.392 Y135.623 E1.30816
G1 X59.381 Y127.287 E1.84775
G1 X62.954 Y122.375 E1.09329
G1 X64.666 Y119.686 E0.57373
G1 X65.019 Y118.734 E0.18276
G1 X65.087 Y117.876 E0.15493
G1 X64.711 Y116.128 E0.32183
G1 X64.361 Y114.711 E0.26275
G1 X64.336 Y113.998 E0.12842
G1 X64.21 Y112.563 E0.25933
G1 X64.02 Y110.881 E0.30474
G1 X63.909 Y109.649 E0.22264
G1 X63.541 Y109.367 E0.08347
G1 X63.492 Y109.022 E0.06285
G1 X63.301 Y105.084 E0.70961
G1 X62.986 Y89.263 E2.84843
G1 X62.634 Y85.039 E0.76286
G1 X62.401 Y82.98 E0.37308
G1 X62.399 Y79.713 E0.58807
G1 X62.566 Y79.111 E0.11252
G1 X63.196 Y77.512 E0.30932
G1 X64.266 Y75.979 E0.33648
;TYPE:Internal perimeter
;WIDTH:0.971294
G1 F2767.9328
G1 X65.107 Y76.571 E0.18
;WIDTH:1
G1 F2688.476
G1 X65.258 Y76.968 E0.07634
G1 X66.028 Y77.154 E0.14264
G1 X66.291 Y77.825 E0.12973
G1 X66.173 Y81.889 E0.73193
G1 X66.174 Y81.929 E0.00714
G1 X66.24 Y82.738 E0.14611
G1 X66.244 Y82.765 E0.00498
G1 X66.408 Y83.786 E0.18605
G1 X66.421 Y83.839 E0.00981
G1 X66.715 Y84.749 E0.17223
G1 X66.735 Y84.798 E0.00948
G1 X67.156 Y85.649 E0.17099
G1 X67.183 Y85.694 E0.00939
G1 X67.719 Y86.467 E0.16925
G1 X67.752 Y86.508 E0.00948
G1 X68.386 Y87.183 E0.16682
G1 X68.426 Y87.22 E0.00968
G1 X69.139 Y87.78 E0.16322
G1 X69.186 Y87.811 E0.01015
G1 X69.96 Y88.242 E0.15953
G1 X70.015 Y88.267 E0.01081
G1 X70.911 Y88.583 E0.171
G1 X70.94 Y88.592 E0.00549
G1 X71.221 Y88.665 E0.05225
G1 X71.313 Y88.677 E0.01669
G1 X72.721 Y88.668 E0.25343
G1 X72.809 Y88.656 E0.01614
G1 X73.217 Y88.549 E0.0758
G1 X73.249 Y88.538 E0.00621
G1 X74.423 Y88.104 E0.22522
G1 X74.482 Y88.075 E0.0119
G1 X75.524 Y87.45 E0.21862
G1 X75.573 Y87.415 E0.0108
G1 X76.551 Y86.578 E0.23179
G1 X76.589 Y86.539 E0.00989
G1 X77.48 Y85.5 E0.24625
G1 X77.51 Y85.459 E0.00908
G1 X78.287 Y84.239 E0.26039
G1 X78.309 Y84.198 E0.00854
G1 X78.949 Y82.818 E0.27366
G1 X78.965 Y82.776 E0.00816
G1 X79.446 Y81.262 E0.28597
G1 X79.456 Y81.219 E0.00801
G1 X79.765 Y79.543 E0.30669
G1 X79.769 Y79.521 E0.00403
G1 X79.851 Y78.837 E0.12397
G1 X79.853 Y78.78 E0.01023
G1 X79.807 Y77.615 E0.21
G1 X79.805 Y77.584 E0.00548
G1 X79.564 Y75.67 E0.34732
G1 X79.548 Y75.601 E0.01279
G1 X79.015 Y74.013 E0.30155
G1 X78.983 Y73.943 E0.01378
G1 X78.112 Y72.487 E0.30538
G1 X78.071 Y72.431 E0.01242
G1 X76.741 Y70.952 E0.35814
G1 X76.721 Y70.931 E0.00519
G1 X76.227 Y70.464 E0.12231
G1 X76.137 Y70.403 E0.01962
G1 X75.862 Y70.269 E0.055
G1 X75.73 Y70.234 E0.02469
G1 X74.726 Y70.169 E0.18113
G1 X74.225 Y70.007 E0.09464
G1 X73.47 Y69.531 E0.16075
G1 X73.189 Y69.25 E0.07157
G1 X73.096 Y68.676 E0.10471
G1 X72.956 Y68.446 E0.04841
G1 X72.486 Y68.485 E0.08503
G1 X72.187 Y68.797 E0.0778
G1 X67.781 Y73.32 E1.13644
G1 X65.505 Y75.853 E0.61293
G1 X64.819 Y75.281 E0.1608
;TYPE:External perimeter
G1 X67.124 Y72.715 E0.62082
G1 X71.548 Y68.174 E1.14108
G1 X76.496 Y63.011 E1.28734
G1 X77.338 Y61.823 E0.26209
G1 X77.648 Y60.851 E0.18369
G1 X77.82 Y58.818 E0.36721
G1 X77.891 Y55.532 E0.59159
M73 P74 R30
G1 X77.788 Y46.901 E1.55372
G1 X77.442 Y38.497 E1.51407
G1 X77.206 Y35.49 E0.54298
G1 X76.936 Y33.857 E0.2979
G1 X76.748 Y33.367 E0.09445
G1 X76.248 Y33.176 E0.09626
G1 X75.133 Y33.023 E0.20274
G1 X74.27 Y32.968 E0.15561
G1 X73.113 Y33.079 E0.20918
G1 X70.853 Y33.401 E0.41093
G1 X68.789 Y33.939 E0.38398
G1 X67.591 Y34.323 E0.22645
G1 X66.092 Y34.515 E0.27195
G1 X65.356 Y34.421 E0.13367
G1 X64.364 Y34.223 E0.18202
G1 X63.417 Y33.892 E0.18054
G1 X61.467 Y32.752 E0.40662
G1 X59.465 Y30.947 E0.48518
G1 X57.341 Y28.411 E0.59549
G1 X55.629 Y25.876 E0.5506
G1 X54.778 Y24.007 E0.36966
G1 X54.719 Y23.781 E0.04209
G1 X54.902 Y23.297 E0.09317
G1 X54.729 Y22.271 E0.18725
G1 X54.812 Y21.02 E0.22573
;TYPE:Internal perimeter
G1 X55.676 Y21.481 E0.17633
G1 X55.629 Y22.184 E0.12681
G1 X55.633 Y22.267 E0.01494
G1 X55.774 Y23.102 E0.15238
G1 X55.718 Y23.663 E0.10152
G1 X55.716 Y23.704 E0.00738
G1 X55.719 Y23.704 E0.00065
G1 X55.727 Y23.937 E0.04192
G1 X55.748 Y23.984 E0.00936
G1 X56.141 Y24.047 E0.07159
G1 X56.146 Y24.137 E0.01608
G1 X56.967 Y24.088 E0.14802
G1 X58.78 Y24.657 E0.34198
G1 X58.848 Y24.682 E0.01307
G1 X59.303 Y24.859 E0.0878
G1 X59.412 Y24.883 E0.02017
G1 X60.321 Y24.935 E0.16389
G1 X60.506 Y24.895 E0.03395
G1 X60.877 Y24.703 E0.07518
G1 X61.027 Y24.556 E0.03794
G1 X61.173 Y24.285 E0.05538
G1 X61.215 Y24.136 E0.02779
G1 X61.255 Y23.454 E0.12297
G1 X61.244 Y23.346 E0.01965
G1 X61.202 Y23.18 E0.03069
G1 X61.182 Y23.122 E0.011
G1 X60.241 Y21.015 E0.4155
G1 X60.198 Y20.903 E0.02151
G1 X59.824 Y19.727 E0.22215
G1 X59.897 Y18.953 E0.13992
G1 X59.675 Y18.588 E0.0769
G1 X59.22 Y18.406 E0.0883
G1 X58.992 Y18.325 E0.0434
G1 X58.899 Y18.306 E0.01727
G1 X57.943 Y18.239 E0.17238
G1 X57.852 Y18.244 E0.01637
G1 X57.642 Y18.283 E0.03858
G1 X57.606 Y18.292 E0.00672
G1 X57.084 Y18.448 E0.09804
G1 X57.018 Y18.474 E0.01271
G1 X56.627 Y18.682 E0.07972
G1 X56.566 Y18.722 E0.0131
G1 X56.291 Y18.95 E0.06435
G1 X56.231 Y19.015 E0.01589
G1 X56.086 Y19.213 E0.04421
G1 X56.017 Y19.412 E0.03793
G1 X55.977 Y20.662 E0.22501
G1 X55.096 Y20.28 E0.17275
;TYPE:External perimeter
G1 X55.135 Y19.064 E0.21909
G1 X55.252 Y18.841 E0.04533
G1 X55.602 Y18.362 E0.10666
G1 X56.095 Y17.953 E0.1154
G1 X56.709 Y17.628 E0.12511
G1 X57.413 Y17.418 E0.13217
G1 X57.846 Y17.337 E0.07924
G1 X59.13 Y17.427 E0.23176
G1 X59.543 Y17.573 E0.07872
G1 X60.448 Y17.937 E0.17571
G1 X61.257 Y18.148 E0.1505
G1 X61.793 Y18.151 E0.09648
G1 X62.286 Y17.819 E0.10701
G1 X63.15 Y17.098 E0.20254
G1 X63.569 Y16.701 E0.10386
G1 X64.043 Y16.544 E0.08981
G1 X64.306 Y16.576 E0.04779
G1 X65.07 Y16.828 E0.14474
G1 X66.189 Y17.563 E0.24099
G1 X67.092 Y18.239 E0.20303
G1 X67.62 Y18.239 E0.09496
;TYPE:Internal perimeter
G1 X67.8 Y19.131 E0.16393
G1 X67.15 Y19.131 E0.11701
G1 X66.511 Y18.919 E0.12117
G1 X65.684 Y18.301 E0.18583
G1 X65.667 Y18.288 E0.00388
G1 X64.718 Y17.664 E0.2044
G1 X64.634 Y17.624 E0.01688
G1 X64.287 Y17.509 E0.0657
G1 X63.929 Y17.589 E0.06593
G1 X63.769 Y17.742 E0.03988
G1 X63.718 Y17.787 E0.0122
G1 X62.865 Y18.498 E0.19987
G1 X62.827 Y18.527 E0.00872
G1 X62.848 Y19.114 E0.10559
G1 X63.765 Y19.701 E0.19596
G1 X64.41 Y21.064 E0.27153
G1 X64.48 Y21.164 E0.02186
G1 X65.851 Y22.539 E0.34955
G1 X65.948 Y22.608 E0.02144
G1 X67.254 Y23.242 E0.26135
G1 X67.524 Y23.553 E0.07403
G1 X67.838 Y23.672 E0.0605
G1 X68.151 Y23.318 E0.08503
G1 X68.151 Y21.969 E0.24283
G1 X69.043 Y21.951 E0.16072
;TYPE:External perimeter
G1 X69.043 Y24.006 E0.36995
G1 X68.822 Y24.751 E0.13992
G1 X68.653 Y24.943 E0.04613
G1 X68.203 Y25.254 E0.09846
G1 X67.643 Y25.379 E0.10333
G1 X67.074 Y25.317 E0.10297
G1 X66.596 Y25.057 E0.09795
G1 X66.692 Y24.613 E0.08179
G1 X66.93 Y24.077 E0.10547
G1 X65.368 Y23.319 E0.31253
G1 X63.696 Y21.641 E0.42642
G1 X62.914 Y19.99 E0.32878
G1 X62.416 Y19.985 E0.08976
G1 X60.652 Y19.387 E0.33516
G1 X61.052 Y20.642 E0.23707
G1 X62.041 Y22.857 E0.43662
G1 X62.157 Y23.313 E0.08481
G1 X62.09 Y24.464 E0.20756
G1 X61.676 Y25.232 E0.15699
G1 X61.417 Y25.429 E0.05854
G1 X60.75 Y25.774 E0.13523
G1 X60.508 Y25.839 E0.04516
G1 X59.163 Y25.763 E0.24245
G1 X58.518 Y25.511 E0.12462
G1 X56.637 Y24.92 E0.35487
G1 X57.448 Y26.549 E0.32745
G1 X58.301 Y27.725 E0.26161
G1 X60.367 Y30.161 E0.57499
G1 X61.392 Y31.19 E0.26123
G1 X62.259 Y31.767 E0.18757
G1 X63.61 Y32.524 E0.27874
G1 X64.961 Y32.967 E0.25593
G1 X66.335 Y33.083 E0.24828
G1 X67.72 Y32.886 E0.25176
G1 X72.649 Y31.991 E0.90166
G1 X74.456 Y31.706 E0.32933
G1 X75.626 Y31.313 E0.22218
G1 X76.273 Y30.578 E0.17629
G1 X76.466 Y29.556 E0.18707
G1 X76.522 Y28.849 E0.12768
G1 X76.378 Y26.605 E0.40476
G1 X76.148 Y21.385 E0.94051
G1 X75.934 Y17.905 E0.62773
G1 X75.624 Y17.079 E0.15877
G1 X74.985 Y16.697 E0.13404
G1 X73.512 Y16.688 E0.26516
G1 X71.965 Y17.144 E0.29028
G1 X71.331 Y17.441 E0.12607
G1 X69.953 Y18.818 E0.3506
G1 X69.625 Y19.508 E0.1375
G1 X69.194 Y20.787 E0.24294
G1 X69.135 Y21.067 E0.05161
;TYPE:Internal perimeter
G1 X68.22 Y21.082 E0.16477
G1 X68.318 Y20.614 E0.08617
G1 X68.351 Y20.492 E0.0228
G1 X68.68 Y19.517 E0.18514
G1 X68.667 Y19.255 E0.04718
G1 X68.643 Y19.245 E0.00468
;WIDTH:0.783734
G1 F3430.3411
G1 X68.434 Y17.986 E0.18
;TYPE:External perimeter
;WIDTH:1
G1 F2688.476
G1 X69.876 Y16.758 E0.34091
G1 X70.373 Y16.491 E0.1017
G1 X72.53 Y16.054 E0.39611
G1 X74.469 Y15.629 E0.35728
G1 X76.105 Y14.975 E0.31706
G1 X77.38 Y14.095 E0.27906
G1 X78.213 Y13.02 E0.24476
G1 X78.471 Y12.515 E0.10197
G1 X78.436 Y11.899 E0.11114
G1 X79.295 Y11.972 E0.15513
G1 X79.578 Y12.02 E0.05174
G1 X78.573 Y14.19 E0.43041
G1 X78.007 Y15.181 E0.2054
G1 X77.499 Y15.988 E0.17173
G1 X77.297 Y16.739 E0.14005
G1 X76.997 Y18.229 E0.2735
G1 X76.875 Y19.074 E0.15373
G1 X76.881 Y25.42 E1.14217
G1 X77.038 Y26.962 E0.27909
G1 X78.286 Y35.317 E1.52066
G1 X78.599 Y40.114 E0.86523
G1 X78.735 Y42.67 E0.46071
G1 X78.869 Y49.784 E1.28079
G1 X78.959 Y56.315 E1.17566
G1 X79.057 Y57.118 E0.14571
G1 X79.332 Y58.315 E0.22111
G1 X79.616 Y58.956 E0.1261
G1 X80.162 Y59.094 E0.10145
G1 X80.928 Y59.024 E0.13841
G1 X82.565 Y58.336 E0.31972
G1 X88.018 Y56.177 E1.05562
G1 X95.78 Y53.667 E1.46835
G1 X100.474 Y52.31 E0.87956
G1 X104.438 Y51.345 E0.73443
G1 X108.057 Y50.69 E0.66192
G1 X111.722 Y50.262 E0.66423
G1 X112.976 Y50.149 E0.22668
G1 X118.507 Y50.149 E0.99556
G1 X119.758 Y50.259 E0.22602
G1 X124.792 Y50.918 E0.91401
G1 X130.028 Y52.044 E0.964
G1 X135.633 Y53.679 E1.05088
G1 X141.756 Y55.862 E1.17009
G1 X145.802 Y57.591 E0.79208
G1 X148.96 Y59.361 E0.65164
G1 X151.434 Y61.298 E0.5655
G1 X153.164 Y63.231 E0.46698
G1 X153.067 Y63.349 E0.02751
G1 X150.104 Y61.609 E0.61856
G1 X145.955 Y59.555 E0.83336
G1 X141.3 Y57.526 E0.91401
G1 X136.391 Y55.615 E0.94819
G1 X131.488 Y53.916 E0.93398
G1 X126.846 Y52.523 E0.87248
G1 X122.717 Y51.532 E0.76422
G1 X119.368 Y51.042 E0.60929
G1 X117.918 Y50.938 E0.26165
G1 X116.334 Y50.997 E0.28532
G1 X111.575 Y51.327 E0.8587
G1 X106.961 Y51.995 E0.83919
G1 X102.117 Y53.069 E0.89314
G1 X96.656 Y54.621 E1.02189
G1 X90.557 Y56.613 E1.15494
G1 X85.999 Y58.42 E0.88254
G1 X82.444 Y60.292 E0.72322
G1 X79.73 Y62.213 E0.59857
;TYPE:Internal perimeter
G1 X79.376 Y61.37 E0.16457
G1 X80.428 Y60.626 E0.232
G1 X80.578 Y60.317 E0.06176
G1 X80.249 Y59.978 E0.08503
G1 X79.913 Y59.952 E0.06063
G1 X79.476 Y59.841 E0.08118
G1 X79.214 Y59.62 E0.06181
G1 X78.969 Y59.536 E0.04657
G1 X78.628 Y59.863 E0.08503
G1 X78.539 Y60.906 E0.18845
G1 X78.493 Y61.141 E0.04316
G1 X78.465 Y61.228 E0.01643
G1 X78.542 Y61.578 E0.06444
G1 X78.568 Y61.581 E0.00468
;WIDTH:0.785766
G1 F3421.4694
G1 X79.031 Y62.766 E0.18
;TYPE:External perimeter
;WIDTH:1
G1 F2688.476
G1 X77.734 Y63.908 E0.31112
G1 X76.077 Y65.562 E0.42136
G1 X74.743 Y67.068 E0.36224
G1 X74.078 Y68.085 E0.21866
G1 X73.912 Y68.754 E0.12417
G1 X74.739 Y69.275 E0.17598
G1 X76.032 Y69.359 E0.23318
G1 X76.7 Y69.683 E0.13375
G1 X77.371 Y70.318 E0.16613
G1 X78.816 Y71.925 E0.38906
G1 X79.818 Y73.6 E0.35147
G1 X80.434 Y75.435 E0.34829
G1 X80.697 Y77.526 E0.3794
G1 X80.749 Y78.845 E0.23756
G1 X80.65 Y79.666 E0.14898
G1 X80.32 Y81.457 E0.32779
G1 X79.792 Y83.122 E0.31433
G1 X79.084 Y84.649 E0.30295
G1 X78.215 Y86.014 E0.29129
G1 X77.205 Y87.193 E0.27953
G1 X76.073 Y88.162 E0.2681
G1 X74.842 Y88.9 E0.2585
G1 X73.503 Y89.396 E0.25702
G1 X72.884 Y89.559 E0.11515
G1 X71.155 Y89.57 E0.31135
G1 X70.664 Y89.443 E0.09134
G1 X69.618 Y89.073 E0.1996
G1 X68.665 Y88.543 E0.19633
G1 X67.8 Y87.863 E0.19802
G1 X67.038 Y87.051 E0.20045
G1 X66.397 Y86.128 E0.20237
G1 X65.894 Y85.111 E0.20411
G1 X65.542 Y84.022 E0.20609
G1 X65.355 Y82.859 E0.212
G1 X65.278 Y81.933 E0.16735
G1 X65.401 Y77.726 E0.75757
G1 X64.412 Y78.055 E0.18765
G1 X63.851 Y79.144 E0.22049
G1 X63.477 Y80.078 E0.18107
G1 X63.358 Y81.24 E0.21017
G1 X63.634 Y83.761 E0.45661
G1 X64.125 Y90.711 E1.25403
G1 X64.308 Y105.916 E2.73715
G1 X64.524 Y109.162 E0.58571
G1 X65.035 Y112.347 E0.58059
G1 X65.965 Y116.571 E0.77864
G1 X66.978 Y120.522 E0.73411
G1 X68.229 Y123.979 E0.66172
G1 X70.229 Y129.401 E1.04022
G1 X71.168 Y131.099 E0.34924
G1 X73.475 Y135.107 E0.83246
G1 X74.325 Y136.147 E0.24181
G1 X74.819 Y136.621 E0.12331
G1 X76.006 Y137.255 E0.24216
G1 X78.602 Y138.702 E0.53498
G1 X83.01 Y140.926 E0.88867
G1 X87.883 Y142.798 E0.93965
G1 X89.79 Y143.317 E0.35583
G1 X92.13 Y143.754 E0.4285
G1 X98.174 Y144.4 E1.09408
G1 X100.099 Y144.538 E0.34747
G1 X107.562 Y144.643 E1.34345
