; generated by SuperSlicer 2.5.59 on 2022-12-04 at 10:24:17 UTC


;
;
; 

; external perimeters extrusion width = 1.00mm
; perimeters extrusion width = 1.00mm
; infill extrusion width = 0.90mm
; solid infill extrusion width = 0.90mm
; top infill extrusion width = 0.80mm
; first layer extrusion width = 0.90mm

; object:{"name":"pikachristmas","id":"pikachristmas.stl id:0 copy 0","object_center":[125.000000,105.000000,0.000000],"boundingbox_center":[125.000000,105.000000,4.000000],"boundingbox_size":[181.293945,188.059570,8.000000]}
; Total objects to print: 1
M486 T1
; plater:{"center":[125.000000,105.000000,0.000000],"boundingbox_center":[125.000000,105.000000,4.000000],"boundingbox_size":[181.293945,188.059570,8.000000]}

M73 P0 R237
M73 C0
M73 Q0 S239
M201 X1000 Y1000 Z200 E5000 ; sets maximum accelerations, mm/sec^2
M203 X200 Y200 Z12 E120 ; sets maximum feedrates, mm / sec
M204 P1250 R1250 T1250 ; sets acceleration (P, T) and retract acceleration (R), mm/sec^2
M205 X8.00 Y8.00 Z0.40 E4.50 ; sets the jerk limits, mm/sec
M205 S0 T0 ; sets the minimum extruding and travel feed rate, mm/sec
;TYPE:Custom
M862.3 P "MK3S" ; printer model check
M862.1 P0.8 ; nozzle diameter check
M115 U3.11.0 ; tell printer latest fw version

; Init
G90 ; use absolute coordinates
M83 ; extruder relative mode
M104 S235 ; set extruder temp
M140 S85 ; set bed temp
M190 S85 ; wait for bed temp

M117 Homing
G28 W ; home all without mesh bed level
M109 S235 ; wait for extruder temp


; Final print adjustments
; Prusa's default flow to 95% to prevent overextrusion
M221 S95
; Set default linear advances for nozzles 0.4, 0.6 and 0.8
M900 K0.02
; Set extruder motor currents according to print profile name
M907 E538


M300 S40 P10 ; chirp
M117 Print in progress
M107
G21 ; set units to millimeters
G90 ; use absolute coordinates
M83 ; use relative distances for extrusion
M900 K0.01;
;_TOOLCHANGE 0
M107
;LAYER_CHANGE
;Z:0.5
;HEIGHT:0.5
;BEFORE_LAYER_CHANGE
G92 E0.0
;0.5


G1 E-2 F2100
G1 Z0.5 F720
;AFTER_LAYER_CHANGE
;0.5
;COLOR_CHANGE,T0,#FFFF00
M600
M73 P0 R236
M73 Q0 S238
G1 E-2 F2100
M204 S800
M73 C3
M73 D3
G1 X51.268 Y18.394 F10800
G1 E2 F2100
;TYPE:Skirt
;WIDTH:1.04
G1 F1200
G1 X50.874 Y20.244 E0.35563
G1 X31.011 Y177.473 E29.80503
G1 X30.905 Y182.701 E0.98339
G1 X31.498 Y186.225 E0.67205
G1 X32.109 Y187.757 E0.31024
G1 X32.568 Y188.483 E0.16143
G1 X33.723 Y189.718 E0.31801
G1 X35.061 Y190.469 E0.28861
G1 X35.909 Y190.697 E0.16507
G1 X101.168 Y202.22 E12.46318
G1 X103.099 Y202.436 E0.36532
G1 X114.781 Y202.434 E2.19714
G1 X213.923 Y190.058 E18.79017
G1 X214.662 Y189.913 E0.14165
G1 X215.929 Y189.358 E0.26016
G1 X216.854 Y188.707 E0.21274
G1 X217.881 Y187.569 E0.28816
G1 X218.772 Y185.476 E0.42785
G1 X219.112 Y183.574 E0.36341
G1 X215.761 Y60.989 E23.06298
G1 X214.873 Y57.106 E0.74922
G1 X214.175 Y55.406 E0.3456
G1 X213.061 Y53.421 E0.42803
G1 X211.486 Y51.378 E0.48521
G1 X176.785 Y14.721 E9.49313
G1 X175.391 Y13.784 E0.31586
G1 X174.389 Y13.389 E0.20258
G1 X150.682 Y7.571 E4.5908
G1 X89.006 Y7.504 E11.59931
G1 X77.66 Y8.017 E2.13605
G1 X55.864 Y13.787 E4.24034
G1 X53.877 Y14.701 E0.4114
G1 X53.209 Y15.202 E0.15703
G1 X51.994 Y16.636 E0.35344
G1 X51.314 Y18.283 E0.33524
;WIPE_START
G1 F8640
M204 S1000
G1 X50.874 Y20.244 E-0.4639
G1 X50.094 Y26.414 E-1.4361
;WIPE_END
G1 E-0.1 F2100
; printing object pikachristmas.stl id:0 copy 0
M486 S0
; acceleration to travel
M204 S1500
G1 X54.392 Y20.647 F10800
; decel to extrusion
M204 S800
G1 X55.227 Y19.526
; end travel
G1 E2 F2100
;TYPE:External perimeter
;WIDTH:0.9
G1 F1200
G1 X55.42 Y18.919 E0.10167
G1 X55.761 Y18.433 E0.09494
G1 X56.28 Y18.044 E0.10356
G1 X57.066 Y17.724 E0.13572
G1 X57.425 Y17.617 E0.05989
G1 X58.828 Y17.617 E0.22418
G1 X59.252 Y17.728 E0.07007
G1 X60.889 Y18.339 E0.27933
G1 X61.412 Y18.452 E0.08561
G1 X62.003 Y18.207 E0.1022
G1 X62.981 Y17.504 E0.19249
G1 X63.774 Y16.852 E0.16416
G1 X63.819 Y16.822 E0.00861
G1 X64.543 Y16.822 E0.11576
G1 X64.815 Y16.949 E0.04786
G1 X65.984 Y17.706 E0.22265
G1 X66.87 Y18.369 E0.17682
G1 X67.82 Y18.548 E0.15464
G1 X68.347 Y18.275 E0.09484
G1 X69.337 Y17.474 E0.20354
G1 X69.937 Y16.964 E0.12582
G1 X70.416 Y16.703 E0.0872
G1 X74.408 Y15.903 E0.6507
G1 X75.906 Y15.286 E0.25898
G1 X76.776 Y14.839 E0.1563
G1 X78.081 Y13.643 E0.28305
G1 X78.608 Y12.556 E0.19304
G1 X78.556 Y12.143 E0.06655
G1 X79.337 Y12.212 E0.12531
G1 X79.633 Y12.311 E0.0498
G1 X79.919 Y12.754 E0.08434
G1 X80.732 Y12.221 E0.15529
G1 X80.823 Y12.234 E0.01464
G1 X82.206 Y12.727 E0.23465
G1 X82.767 Y13.06 E0.10433
G1 X83.018 Y13.3 E0.05543
G1 X83.252 Y13.738 E0.07942
G1 X83.621 Y13.744 E0.05911
;TYPE:Internal perimeter
G1 X83.522 Y14.535 E0.12746
G1 X83.325 Y14.532 E0.03146
G1 X82.511 Y14.035 E0.15248
G1 X82.402 Y13.829 E0.03714
G1 X82.341 Y13.749 E0.01605
G1 X82.311 Y13.721 E0.00662
G1 X82.254 Y13.677 E0.01156
G1 X81.894 Y13.464 E0.06692
G1 X81.839 Y13.438 E0.0097
G1 X81.005 Y13.141 E0.14148
G1 X80.725 Y13.174 E0.04512
G1 X80.405 Y13.383 E0.06106
G1 X79.782 Y13.508 E0.10151
G1 X79.515 Y13.329 E0.05137
G1 X79.054 Y13.454 E0.07648
G1 X78.807 Y13.962 E0.09018
G1 X78.595 Y14.247 E0.05696
G1 X77.327 Y15.409 E0.27486
G1 X77.119 Y15.554 E0.04048
G1 X76.274 Y15.988 E0.15184
G1 X76.201 Y16.022 E0.01285
G1 X74.723 Y16.63 E0.25547
G1 X74.548 Y16.683 E0.02918
G1 X70.736 Y17.448 E0.62145
G1 X70.647 Y17.48 E0.01515
G1 X70.409 Y17.609 E0.04334
G1 X70.359 Y17.643 E0.00969
G1 X68.864 Y18.876 E0.30961
G1 X68.697 Y18.986 E0.03209
G1 X68.232 Y19.227 E0.08367
G1 X67.622 Y19.317 E0.09862
G1 X66.759 Y19.155 E0.14033
G1 X66.365 Y18.982 E0.06875
G1 X65.539 Y18.363 E0.16492
G1 X65.522 Y18.351 E0.00348
G1 X64.463 Y17.666 E0.20152
G1 X64.291 Y17.615 E0.02871
G1 X64.214 Y17.615 E0.01233
G1 X64.014 Y17.686 E0.03394
G1 X63.485 Y18.116 E0.10892
G1 X63.439 Y18.151 E0.00916
G1 X62.48 Y18.84 E0.18883
G1 X62.291 Y18.945 E0.03459
G1 X61.762 Y19.166 E0.09153
G1 X61.196 Y19.217 E0.09078
G1 X60.732 Y19.116 E0.07602
G1 X60.601 Y19.077 E0.02172
G1 X59.028 Y18.49 E0.26839
G1 X58.997 Y18.48 E0.00521
G1 X58.765 Y18.42 E0.03826
G1 X58.686 Y18.41 E0.01286
G1 X57.586 Y18.41 E0.17574
G1 X57.496 Y18.423 E0.01457
G1 X57.344 Y18.468 E0.02537
G1 X57.314 Y18.479 E0.005
G1 X56.711 Y18.724 E0.10409
G1 X56.641 Y18.764 E0.01296
G1 X56.378 Y18.961 E0.0525
G1 X56.309 Y19.033 E0.01591
G1 X56.167 Y19.235 E0.0395
G1 X56.124 Y19.321 E0.01539
G1 X56.005 Y19.697 E0.06305
G1 X56.007 Y19.898 E0.03204
G1 X56.177 Y20.383 E0.08221
G1 X56.213 Y20.769 E0.06191
G1 X55.843 Y21.368 E0.11252
G1 X55.822 Y21.383 E0.00416
G1 X55.687 Y21.618 E0.04328
G1 X55.646 Y22.15 E0.08529
G1 X55.649 Y22.22 E0.01114
G1 X55.87 Y23.753 E0.24765
G1 X55.812 Y24.156 E0.06509
G1 X55.845 Y24.349 E0.03131
G1 X56.607 Y25.791 E0.26066
G1 X56.628 Y25.826 E0.00656
G1 X58.332 Y28.236 E0.47171
G1 X58.352 Y28.262 E0.00528
G1 X60.424 Y30.627 E0.50257
G1 X60.438 Y30.642 E0.00326
G1 X61.601 Y31.808 E0.26325
G1 X61.651 Y31.849 E0.01024
G1 X62.365 Y32.321 E0.13687
G1 X63.491 Y32.981 E0.20861
G1 X63.537 Y33.003 E0.00813
G1 X64.57 Y33.404 E0.17718
G1 X64.594 Y33.412 E0.00395
G1 X64.899 Y33.504 E0.05089
G1 X64.974 Y33.517 E0.01222
G1 X66.526 Y33.595 E0.24843
G1 X66.596 Y33.59 E0.01125
G1 X66.941 Y33.53 E0.05591
G1 X66.967 Y33.525 E0.00433
G1 X70.463 Y32.604 E0.57774
G1 X70.557 Y32.584 E0.01536
G1 X72.591 Y32.263 E0.32915
G1 X72.681 Y32.253 E0.01453
G1 X74.551 Y32.139 E0.29944
G1 X74.697 Y32.142 E0.02339
G1 X76.112 Y32.274 E0.22703
G1 X76.255 Y32.298 E0.02324
G1 X76.945 Y32.472 E0.11381
G1 X77.596 Y33.051 E0.1393
G1 X77.784 Y33.545 E0.0845
G1 X77.837 Y33.75 E0.03383
G1 X78.178 Y36.182 E0.39249
G1 X78.185 Y36.255 E0.01171
G1 X78.48 Y40.971 E0.75527
G1 X78.482 Y41.008 E0.00592
G1 X78.779 Y53.667 E2.02404
G1 X78.779 Y53.688 E0.00335
G1 X78.787 Y59.076 E0.86119
G1 X78.781 Y59.184 E0.01728
G1 X78.539 Y61.331 E0.34539
G1 X78.449 Y61.641 E0.05152
G1 X77.778 Y63.018 E0.24481
G1 X77.632 Y63.235 E0.04183
G1 X76.947 Y64.002 E0.16434
G1 X76.92 Y64.031 E0.0063
G1 X67.764 Y73.459 E2.10076
G1 X65.244 Y76.246 E0.60059
M73 Q0 S237
G1 X65.22 Y76.276 E0.00614
G1 X64.07 Y77.908 E0.31909
G1 X64.036 Y77.971 E0.01151
G1 X63.475 Y79.349 E0.23776
G1 X63.466 Y79.375 E0.00445
G1 X63.322 Y79.843 E0.07813
G1 X63.308 Y79.936 E0.01506
G1 X63.308 Y82.934 E0.47923
G1 X63.31 Y82.97 E0.00573
G1 X63.536 Y84.958 E0.31985
G1 X63.539 Y84.986 E0.00448
G1 X63.89 Y89.167 E0.67058
G1 X63.893 Y89.226 E0.00946
G1 X64.284 Y107.488 E2.91971
G1 X64.286 Y107.509 E0.00337
G1 X64.369 Y108.459 E0.15248
G1 X64.409 Y108.587 E0.02129
G1 X64.767 Y109.225 E0.117
G1 X65.076 Y112.136 E0.46792
G1 X65.078 Y112.155 E0.00303
G1 X65.236 Y113.989 E0.29417
G1 X65.239 Y114.044 E0.00887
G1 X65.254 Y114.575 E0.08483
G1 X65.263 Y114.643 E0.01099
G1 X65.97 Y117.47 E0.46586
G1 X65.998 Y117.701 E0.03711
G1 X65.998 Y118.739 E0.16592
G1 X65.938 Y119.071 E0.05388
G1 X65.723 Y119.648 E0.09855
G1 X65.699 Y119.706 E0.0099
G1 X65.348 Y120.487 E0.13695
G1 X65.285 Y120.605 E0.02142
G1 X64.548 Y121.772 E0.2206
G1 X64.516 Y121.821 E0.00935
G1 X54.269 Y136.04 E2.80146
G1 X50.236 Y142.134 E1.16801
G1 X47.41 Y146.783 E0.86962
G1 X44.861 Y151.396 E0.8424
G1 X42.606 Y155.936 E0.81028
G1 X40.655 Y160.378 E0.7755
G1 X39.016 Y164.698 E0.73849
G1 X39.01 Y164.715 E0.00289
G1 X37.7 Y168.866 E0.69582
G1 X37.694 Y168.886 E0.00323
G1 X36.715 Y172.859 E0.65402
G1 X36.71 Y172.881 E0.00371
G1 X36.061 Y176.698 E0.61879
G1 X35.893 Y177.999 E0.20977
G1 X35.89 Y178.033 E0.0054
G1 X35.798 Y182.266 E0.6767
G1 X35.799 Y182.305 E0.00633
G1 X35.887 Y183.15 E0.13569
G1 X35.891 Y183.18 E0.00487
G1 X36.268 Y185.045 E0.3041
G1 X36.292 Y185.117 E0.01215
G1 X36.458 Y185.469 E0.0622
G1 X36.5 Y185.535 E0.01255
G1 X36.673 Y185.746 E0.04367
G1 X36.899 Y185.862 E0.04056
G1 X37.728 Y185.911 E0.13267
G1 X37.81 Y185.905 E0.01314
G1 X39.303 Y185.601 E0.24365
G1 X39.348 Y185.589 E0.00735
G1 X41.357 Y184.865 E0.34137
G1 X41.387 Y184.853 E0.00521
G1 X43.743 Y183.719 E0.41783
G1 X43.811 Y183.683 E0.01234
G1 X43.915 Y183.593 E0.02195
G1 X44.276 Y183.11 E0.0964
G1 X45.019 Y182.669 E0.13815
G1 X45.035 Y182.659 E0.00298
G1 X48.149 Y180.553 E0.60087
G1 X52.11 Y177.558 E0.79371
G1 X55.892 Y174.478 E0.77972
G1 X55.906 Y174.466 E0.00296
G1 X58.445 Y172.139 E0.55036
G1 X58.462 Y172.122 E0.00392
G1 X58.547 Y171.874 E0.04187
G1 X58.512 Y171.51 E0.05839
G1 X58.586 Y171.085 E0.06906
G1 X59.109 Y170.62 E0.11182
G1 X59.811 Y170.387 E0.11823
G1 X59.864 Y170.363 E0.00926
G1 X60.464 Y170.033 E0.10948
G1 X60.509 Y170.003 E0.00865
G1 X61.558 Y169.163 E0.21476
G1 X61.582 Y169.142 E0.00512
G1 X65.13 Y165.659 E0.79468
G1 X67.963 Y162.825 E0.64044
G1 X68.055 Y162.744 E0.01973
G1 X68.893 Y162.099 E0.16892
G1 X69.099 Y161.978 E0.03826
G1 X69.754 Y161.699 E0.11383
G1 X69.929 Y161.643 E0.02933
G1 X70.501 Y161.521 E0.09345
G1 X71.32 Y161.735 E0.13524
G1 X71.851 Y162.202 E0.113
G1 X71.949 Y162.302 E0.02236
G1 X74.223 Y164.988 E0.56247
G1 X74.273 Y165.053 E0.01317
G1 X74.941 Y165.997 E0.18483
G1 X74.974 Y166.949 E0.15227
G1 X74.898 Y167.003 E0.01508
G1 X74.826 Y167.449 E0.0721
G1 X74.915 Y167.57 E0.02407
G1 X75.017 Y167.739 E0.03145
G1 X75.051 Y167.784 E0.00911
G1 X75.285 Y168.049 E0.05644
G1 X75.309 Y168.078 E0.00604
G1 X76.174 Y169.135 E0.21837
G1 X76.199 Y169.162 E0.00588
G1 X79.253 Y172.12 E0.67959
G1 X80.458 Y173.241 E0.26308
G1 X80.562 Y173.356 E0.02473
G1 X81.216 Y174.2 E0.17067
G1 X81.258 Y174.26 E0.01169
G1 X82.683 Y176.428 E0.41475
G1 X82.726 Y176.498 E0.0131
G1 X86.651 Y183.763 E1.31982
G1 X88.353 Y186.559 E0.52322
G1 X88.367 Y186.58 E0.00409
G1 X90.057 Y188.909 E0.45993
G1 X90.073 Y188.929 E0.0041
G1 X92.037 Y191.22 E0.48233
G1 X92.05 Y191.235 E0.00307
G1 X93.811 Y193.053 E0.40463
G1 X93.826 Y193.068 E0.00347
G1 X95.493 Y194.569 E0.35854
G1 X95.514 Y194.587 E0.00433
G1 X97.011 Y195.719 E0.30001
G1 X97.043 Y195.741 E0.00624
G1 X98.352 Y196.498 E0.24164
G1 X98.376 Y196.51 E0.0044
G1 X98.927 Y196.768 E0.09721
G1 X98.984 Y196.788 E0.00964
G1 X99.747 Y196.981 E0.12585
G1 X99.77 Y196.986 E0.00361
G1 X101.977 Y197.377 E0.35833
G1 X103.167 Y197.524 E0.19167
G1 X103.206 Y197.527 E0.0062
G1 X114.667 Y197.525 E1.83199
G1 X114.708 Y197.522 E0.00651
G1 X115.765 Y197.385 E0.17041
G1 X118.214 Y196.97 E0.39692
G1 X121.932 Y196.142 E0.60889
G1 X128.144 Y194.857 E1.01405
G1 X128.227 Y194.843 E0.01341
G1 X130.69 Y194.557 E0.3963
G1 X130.746 Y194.552 E0.00898
G1 X133.465 Y194.398 E0.43532
G1 X134.796 Y194.346 E0.2129
G1 X134.96 Y194.293 E0.02761
G1 X135.123 Y194.184 E0.03133
G1 X135.149 Y194.164 E0.00525
G1 X135.471 Y193.897 E0.06677
G1 X136.076 Y193.678 E0.10288
G1 X136.592 Y193.678 E0.08257
G1 X136.873 Y193.72 E0.04538
G1 X137.623 Y193.952 E0.12536
G1 X137.784 Y194.019 E0.028
G1 X137.806 Y194.03 E0.00391
G1 X137.956 Y194.067 E0.02472
G1 X138.373 Y194.063 E0.06658
G1 X138.398 Y194.062 E0.00401
G1 X140.346 Y193.891 E0.31252
G1 X140.373 Y193.888 E0.00443
G1 X142.944 Y193.433 E0.41737
G1 X142.962 Y193.43 E0.00287
G1 X145.819 Y192.756 E0.46923
G1 X145.836 Y192.751 E0.0028
M73 P0 R235
G1 X148.622 Y191.93 E0.46426
G1 X149.963 Y191.486 E0.22581
G1 X150.005 Y191.469 E0.00719
G1 X150.878 Y191.034 E0.1558
G1 X150.904 Y191.019 E0.00494
G1 X152.985 Y189.717 E0.3923
G1 X153.029 Y189.684 E0.00887
G1 X155.003 Y187.901 E0.42503
G1 X155.035 Y187.868 E0.00738
G1 X156.981 Y185.513 E0.48839
G1 X157.003 Y185.483 E0.0059
G1 X158.917 Y182.524 E0.56329
G1 X158.932 Y182.499 E0.00462
G1 X160.812 Y178.916 E0.64674
G1 X160.822 Y178.896 E0.00363
G1 X162.664 Y174.673 E0.73645
G1 X162.671 Y174.656 E0.00285
G1 X164.485 Y169.765 E0.83386
G1 X167.851 Y159.361 E1.7479
G1 X167.889 Y159.263 E0.01672
G1 X168.469 Y157.974 E0.22599
G1 X168.554 Y157.823 E0.02763
G1 X169.114 Y157.013 E0.1575
G1 X169.192 Y156.915 E0.01986
G1 X169.623 Y156.439 E0.10275
G1 X170.053 Y156.167 E0.08137
G1 X171.002 Y155.882 E0.15834
G1 X171.573 Y155.891 E0.09125
G1 X172.197 Y156.098 E0.10511
G1 X172.315 Y156.146 E0.02037
G1 X173.116 Y156.537 E0.14247
G1 X173.268 Y156.63 E0.02854
G1 X174.35 Y157.44 E0.21596
G1 X174.421 Y157.499 E0.01472
G1 X178.424 Y161.15 E0.866
G1 X186.019 Y168.217 E1.6582
G1 X192.184 Y173.733 E1.32227
G1 X197.054 Y177.818 E1.01607
G1 X197.069 Y177.829 E0.00294
G1 X200.751 Y180.57 E0.73382
G1 X200.891 Y180.629 E0.02427
G1 X201.363 Y180.704 E0.07632
G1 X202.616 Y181.504 E0.23771
G1 X205.164 Y183.06 E0.47713
G1 X205.18 Y183.07 E0.00303
G1 X207.212 Y184.149 E0.36771
G1 X207.239 Y184.162 E0.00492
G1 X208.831 Y184.819 E0.27525
G1 X208.875 Y184.834 E0.00747
G1 X210.186 Y185.16 E0.21581
G1 X210.216 Y185.166 E0.00487
G1 X210.889 Y185.266 E0.10878
G1 X210.935 Y185.27 E0.00748
G1 X211.877 Y185.27 E0.15042
G1 X211.895 Y185.269 E0.00303
G1 X213.242 Y185.188 E0.21554
G1 X213.405 Y185.131 E0.02771
G1 X213.695 Y184.927 E0.0566
G1 X213.811 Y184.775 E0.03066
G1 X214.109 Y183.937 E0.14217
G1 X214.121 Y183.897 E0.00667
G1 X214.193 Y183.561 E0.0548
G1 X214.2 Y183.487 E0.01191
G1 X214.106 Y179.694 E0.60644
G1 X214.104 Y179.669 E0.00404
G1 X213.891 Y177.635 E0.32687
G1 X213.427 Y174.365 E0.52798
G1 X213.423 Y174.344 E0.00332
G1 X212.715 Y170.963 E0.55219
G1 X212.711 Y170.945 E0.00297
G1 X211.762 Y167.452 E0.57858
G1 X210.594 Y163.914 E0.5955
G1 X209.222 Y160.379 E0.60612
G1 X207.664 Y156.892 E0.61045
G1 X205.936 Y153.503 E0.608
G1 X204.054 Y150.251 E0.60066
G1 X203.512 Y149.373 E0.16482
G1 X203.373 Y148.948 E0.0715
G1 X203.36 Y148.782 E0.02658
G1 X203.308 Y148.631 E0.02558
G1 X201.667 Y146.168 E0.47309
G1 X197.901 Y140.719 E1.05877
G1 X193.373 Y134.695 E1.20452
G1 X193.357 Y134.673 E0.00436
G1 X190.787 Y131.042 E0.711
G1 X190.731 Y130.951 E0.01706
G1 X189.934 Y129.505 E0.26391
G1 X189.886 Y129.404 E0.01788
G1 X189.364 Y128.121 E0.22141
G1 X189.341 Y128.057 E0.01082
G1 X189.066 Y127.213 E0.14203
G1 X189.019 Y126.914 E0.04828
G1 X189.029 Y124.816 E0.33537
G1 X189.071 Y124.542 E0.04432
G1 X189.313 Y123.75 E0.13235
G1 X189.32 Y123.723 E0.00449
G1 X190.252 Y119.323 E0.71887
G1 X190.255 Y119.306 E0.00284
G1 X192.079 Y107.453 E1.91678
G1 X194.075 Y95.074 E2.00431
G1 X194.081 Y95.044 E0.00481
G1 X196.031 Y84.987 E1.6375
G1 X196.042 Y84.938 E0.00795
G1 X197.82 Y77.789 E1.17756
G1 X197.844 Y77.711 E0.01305
