; generated by SuperSlicer 2.5.59 on 2023-10-08 at 13:21:15 UTC
; external perimeters extrusion width = 0.65mm
; perimeters extrusion width = 0.65mm
; infill extrusion width = 0.65mm
; solid infill extrusion width = 0.65mm
; top infill extrusion width = 0.60mm
; first layer extrusion width = 0.65mm

; object:{"name":"Shape-Box","id":"Shape-Box id:0 copy 0","object_center":[125.000000,105.000000,0.000000],"boundingbox_center":[125.000000,105.000000,0.000000],"boundingbox_size":[160.000000,25.000000,0.200000]}
; Total objects to print: 1
M486 T1
; plater:{"center":[125.000000,105.000000,0.000000],"boundingbox_center":[125.000000,105.000000,0.000000],"boundingbox_size":[160.000000,25.000000,0.200000]}

M73 P0 R6
M73 Q0 S6
M201 X2000 Y2000 Z400 E5000 ; sets maximum accelerations, mm/sec^2
M203 X400 Y400 Z15 E170 ; sets maximum feedrates, mm / sec
M204 P1500 R1500 T1500 ; sets acceleration (P, T) and retract acceleration (R), mm/sec^2
M205 X8.00 Y8.00 Z0.40 E4.50 ; sets the jerk limits, mm/sec
M205 S0 T0 ; sets the minimum extruding and travel feed rate, mm/sec
;TYPE:Custom
M862.3 P "MK3S" ; printer model check
M862.1 P0.6 ; nozzle diameter check
M115 U3.11.0 ; tell printer latest fw version

; Init
G90 ; use absolute coordinates
M83 ; extruder relative mode
M104 S220 ; set extruder temp
M140 S60 ; set bed temp
M190 S60 ; wait for bed temp

M117 Homing
G28 W ; home all without mesh bed level
M300 S40 P10 ; chirp
G80 ; mesh bed leveling
M117 Saving results
G81 ; save mesh leveling results
M109 S220 ; wait for extruder temp


; Purge line
M300 S40 P10 ; chirp
M117 Printing prime line
; Small version
G0 Z0.15 ; Restore nozzle position - (thanks tim.m30)
M900 K0; Disable Linear Advance for prime line
G92 E0.0 ; reset extrusion distance
G1 Y-3.0 F1000.0 ; go outside print area
G1 E2 F1000 ; de-retract and push ooze
M73 P5 R6
M73 Q5 S6
G1 X20.0 E6  F1000.0 ; fat 20mm intro line @ 0.30
G1 X60.0 E3.2  F1000.0 ; thin +40mm intro line @ 0.08
G1 X100.0 E6  F1000.0 ; fat +40mm intro line @ 0.15
G1 E-0.8 F3000; retract to avoid stringing
M73 P6 R6
M73 Q6 S6
G1 X99.5 E0 F1000.0 ; -0.5mm wipe action to avoid string
G1 X110.0 E0 F1000.0 ; +10mm intro line @ 0.00
G1 E0.6 F1500; de-retract
G92 E0.0 ; reset extrusion distance

; Long version
;G1 X55.0 F2000.0
;G1 Z0.3 F1000.0
;G92 E0.0
;G1 X240.0 E25.0 F2200.0
;G1 Y-2.0 F1000.0
;G1 X65.0 E25 F1400.0 ; off set this section to the right by 10mm
;G1 Z0.20 F1000.0
;G1 X15.0 E4.0 F1000.0 ; offset to the right 10mm to avoid blob;

; Final print adjustments
; Prusa's default flow to 95% to prevent overextrusion
M221 S95
; Set default linear advances for nozzles 0.4, 0.6 and 0.8
M900 K0.05
; Set extruder motor currents according to print profile name

M907 E430

M300 S40 P10 ; chirp
M117 Print in progress
M107
G21 ; set units to millimeters
G90 ; use absolute coordinates
M83 ; use relative distances for extrusion
M900 K0.05;
;_TOOLCHANGE 0
M107
;LAYER_CHANGE
;Z:0.2
;HEIGHT:0.2
;BEFORE_LAYER_CHANGE
G92 E0.0
;0.2


G1 Z0.2 F720
;AFTER_LAYER_CHANGE
;0.2
G1 E-2 F2100
M204 S800

;TYPE:Solid infill
;WIDTH:0.647339
G91
G1 Z-0.02
G90

G1 F1200
M73 Q17 S5
G1 X204.02 Y93.468 E1.14914
G1 X203.413 Y93.468 E0.02991
G1 X203.413 Y116.532 E1.13627
M73 P17 R5
G1 X202.806 Y116.532 E0.02991
G1 X202.806 Y93.468 E1.13627
G1 X202.198 Y93.468 E0.02991
G1 X202.198 Y116.532 E1.13627
M73 Q18 S5
G1 X201.591 Y116.532 E0.02991
G1 X201.591 Y93.468 E1.13627
M73 P18 R5
G1 X200.984 Y93.468 E0.02991
G1 X200.984 Y116.532 E1.13627
G1 X200.377 Y116.532 E0.02991
G1 X200.377 Y93.468 E1.13627
G1 X199.77 Y93.468 E0.02991
G1 X199.77 Y116.532 E1.13627
M73 P19 R5
M73 Q19 S5
G1 X199.163 Y116.532 E0.02991
G1 X199.163 Y93.468 E1.13627
G1 X198.556 Y93.468 E0.02991
G1 X198.556 Y116.532 E1.13627
G1 X197.949 Y116.532 E0.02991
G1 X197.949 Y93.468 E1.13627
M73 Q20 S5
G1 X197.342 Y93.468 E0.02991
G1 X197.342 Y116.532 E1.13627
M73 P20 R5
G1 X196.735 Y116.532 E0.02991
G1 X196.735 Y93.468 E1.13627
G1 X196.128 Y93.468 E0.02991
G1 X196.128 Y116.532 E1.13627
M73 Q21 S5
G1 X195.521 Y116.532 E0.02991
G1 X195.521 Y93.468 E1.13627
M73 P21 R5
G1 X194.913 Y93.468 E0.02991
G1 X194.913 Y116.532 E1.13627
G1 X194.306 Y116.532 E0.02991
G1 X194.306 Y93.468 E1.13627
G1 X193.699 Y93.468 E0.02991
G1 X193.699 Y120.532 E1.13627
G91
G1 Z0.005
G90
M73 P22 R5
M73 Q22 S5
G1 X193.092 Y116.532 E0.02991
G1 X193.092 Y93.468 E1.13627
G1 X192.485 Y93.468 E0.02991
G1 X192.485 Y116.532 E1.13627
G1 X191.878 Y116.532 E0.02991
G1 X191.878 Y93.468 E1.13627
M73 Q23 S5
G1 X191.271 Y93.468 E0.02991
G1 X191.271 Y116.532 E1.13627
M73 P23 R5
G1 X190.664 Y116.532 E0.02991
G1 X190.664 Y93.468 E1.13627
G1 X190.057 Y93.468 E0.02991
G1 X190.057 Y116.532 E1.13627
M73 Q24 S5
G1 X189.45 Y116.532 E0.02991
G1 X189.45 Y93.468 E1.13627
M73 P24 R5
G1 X188.843 Y93.468 E0.02991
G1 X188.843 Y116.532 E1.13627
M73 P24 R4
M73 Q24 S4
G1 X188.236 Y116.532 E0.02991
G1 X188.236 Y93.468 E1.13627
G1 X187.629 Y93.468 E0.02991
G1 X187.629 Y116.532 E1.13627
M73 P25 R4
M73 Q25 S4
G1 X187.021 Y116.532 E0.02991
G1 X187.021 Y93.468 E1.13627
G1 X186.414 Y93.468 E0.02991
G1 X186.414 Y116.532 E1.13627
G1 X185.807 Y116.532 E0.02991
G1 X185.807 Y93.468 E1.13627
M73 P26 R4
M73 Q26 S4
G1 X185.2 Y93.468 E0.02991
G1 X185.2 Y116.532 E1.13627
G1 X184.593 Y116.532 E0.02991
G1 X184.593 Y93.468 E1.13627
G1 X183.986 Y93.468 E0.02991
G1 X183.986 Y120.532 E1.13627


G91
G1 Z0.005
G90
M73 Q27 S4
G1 X183.379 Y116.532 E0.02991
G1 X183.379 Y93.468 E1.13627
M73 P27 R4
G1 X182.772 Y93.468 E0.02991
G1 X182.772 Y116.532 E1.13627
G1 X182.165 Y116.532 E0.02991
G1 X182.165 Y93.468 E1.13627
G1 X181.558 Y93.468 E0.02991
M73 Q28 S4
G1 X181.558 Y116.532 E1.13627
M73 P28 R4
G1 X180.951 Y116.532 E0.02991
G1 X180.951 Y93.468 E1.13627
G1 X180.344 Y93.468 E0.02991
G1 X180.344 Y116.532 E1.13627
G1 X179.737 Y116.532 E0.02991
G1 X179.737 Y93.468 E1.13627
M73 P29 R4
M73 Q29 S4
G1 X179.129 Y93.468 E0.02991
G1 X179.129 Y116.532 E1.13627
G1 X178.522 Y116.532 E0.02991
G1 X178.522 Y93.468 E1.13627
G1 X177.915 Y93.468 E0.02991
G1 X177.915 Y116.532 E1.13627
M73 Q30 S4
G1 X177.308 Y116.532 E0.02991
G1 X177.308 Y93.468 E1.13627
M73 P30 R4
G1 X176.701 Y93.468 E0.02991
G1 X176.701 Y116.532 E1.13627
G1 X176.094 Y116.532 E0.02991
G1 X176.094 Y93.468 E1.13627
M73 Q31 S4
G1 X175.487 Y93.468 E0.02991
G1 X175.487 Y116.532 E1.13627
M73 P31 R4
G1 X174.88 Y116.532 E0.02991
G1 X174.88 Y93.468 E1.13627
G1 X174.273 Y93.468 E0.02991
G1 X174.273 Y120.532 E1.13627
G1 X173.666 Y116.532 E0.02991
G1 X173.666 Y93.468 E1.13627

G91
G1 Z0.005
G90
M73 P32 R4
M73 Q32 S4
G1 X173.059 Y93.468 E0.02991
G1 X173.059 Y116.532 E1.13627
G1 X172.452 Y116.532 E0.02991
G1 X172.452 Y93.468 E1.13627
G1 X171.844 Y93.468 E0.02991
G1 X171.844 Y116.532 E1.13627
M73 Q33 S4
G1 X171.237 Y116.532 E0.02991
G1 X171.237 Y93.468 E1.13627
M73 P33 R4
G1 X170.63 Y93.468 E0.02991
G1 X170.63 Y116.532 E1.13627
G1 X170.023 Y116.532 E0.02991
G1 X170.023 Y93.468 E1.13627
M73 Q34 S4
G1 X169.416 Y93.468 E0.02991
G1 X169.416 Y116.532 E1.13627
M73 P34 R4
G1 X168.809 Y116.532 E0.02991
G1 X168.809 Y93.468 E1.13627
G1 X168.202 Y93.468 E0.02991
G1 X168.202 Y116.532 E1.13627
G1 X167.595 Y116.532 E0.02991
G1 X167.595 Y93.468 E1.13627
M73 P35 R4
M73 Q35 S4
G1 X166.988 Y93.468 E0.02991
G1 X166.988 Y116.532 E1.13627
G1 X166.381 Y116.532 E0.02991
G1 X166.381 Y93.468 E1.13627
G1 X165.774 Y93.468 E0.02991
G1 X165.774 Y116.532 E1.13627
M73 P36 R4
M73 Q36 S4
G1 X165.167 Y116.532 E0.02991
G1 X165.167 Y93.468 E1.13627
G1 X164.56 Y93.468 E0.02991
G1 X164.56 Y120.532 E1.13627
G1 X163.952 Y116.532 E0.02991
G1 X163.952 Y93.468 E1.13627



G91
G1 Z0.005
G90
M73 Q37 S4
G1 X163.345 Y93.468 E0.02991
G1 X163.345 Y116.532 E1.13627
M73 P37 R4
G1 X162.738 Y116.532 E0.02991
G1 X162.738 Y93.468 E1.13627
G1 X162.131 Y93.468 E0.02991
G1 X162.131 Y116.532 E1.13627
G1 X161.524 Y116.532 E0.02991
G1 X161.524 Y93.468 E1.13627
M73 P38 R4
M73 Q38 S4
G1 X160.917 Y93.468 E0.02991
G1 X160.917 Y116.532 E1.13627
G1 X160.31 Y116.532 E0.02991
G1 X160.31 Y93.468 E1.13627
G1 X159.703 Y93.468 E0.02991
G1 X159.703 Y116.532 E1.13627
M73 P39 R4
M73 Q39 S4
G1 X159.096 Y116.532 E0.02991
G1 X159.096 Y93.468 E1.13627
G1 X158.489 Y93.468 E0.02991
G1 X158.489 Y116.532 E1.13627
M73 P39 R3
M73 Q39 S3
G1 X157.882 Y116.532 E0.02991
G1 X157.882 Y93.468 E1.13627
M73 Q40 S3
G1 X157.275 Y93.468 E0.02991
G1 X157.275 Y116.532 E1.13627
M73 P40 R3
G1 X156.667 Y116.532 E0.02991
G1 X156.668 Y93.468 E1.13627
G1 X156.06 Y93.468 E0.02991
G1 X156.06 Y116.532 E1.13627
G1 X155.453 Y116.532 E0.02991
M73 Q41 S3
G1 X155.453 Y93.468 E1.13627
M73 P41 R3
G1 X154.846 Y93.468 E0.02991
G1 X154.846 Y116.532 E1.13627
G1 X154.239 Y116.532 E0.02991
G1 X154.239 Y93.468 E1.13627
G1 X153.632 Y93.468 E0.02991
G1 X153.632 Y120.532 E1.13627

G91
G1 Z0.005
G90
M73 P42 R3
M73 Q42 S3
G1 X153.025 Y116.532 E0.02991
G1 X153.025 Y93.468 E1.13627
G1 X152.418 Y93.468 E0.02991
G1 X152.418 Y116.532 E1.13627
G1 X151.811 Y116.532 E0.02991
G1 X151.811 Y93.468 E1.13627
M73 Q43 S3
G1 X151.204 Y93.468 E0.02991
G1 X151.204 Y116.532 E1.13627
M73 P43 R3
G1 X150.597 Y116.532 E0.02991
G1 X150.597 Y93.468 E1.13627
G1 X149.99 Y93.468 E0.02991
G1 X149.99 Y116.532 E1.13627
M73 Q44 S3
G1 X149.383 Y116.532 E0.02991
G1 X149.383 Y93.468 E1.13627
M73 P44 R3
G1 X148.775 Y93.468 E0.02991
G1 X148.775 Y116.532 E1.13627
G1 X148.168 Y116.532 E0.02991
G1 X148.168 Y93.468 E1.13627
G1 X147.561 Y93.468 E0.02991
G1 X147.561 Y116.532 E1.13627
M73 P45 R3
M73 Q45 S3
G1 X146.954 Y116.532 E0.02991
G1 X146.954 Y93.468 E1.13627
G1 X146.347 Y93.468 E0.02991
G1 X146.347 Y116.532 E1.13627
G1 X145.74 Y116.532 E0.02991
G1 X145.74 Y93.468 E1.13627
M73 P46 R3
M73 Q46 S3
G1 X145.133 Y93.468 E0.02991
G1 X145.133 Y116.532 E1.13627
G1 X144.526 Y116.532 E0.02991
G1 X144.526 Y93.468 E1.13627
G1 X143.919 Y93.468 E0.02991
G1 X143.919 Y120.532 E1.13627



G91
G1 Z0.005
G90
M73 Q47 S3
G1 X143.312 Y116.532 E0.02991
G1 X143.312 Y93.468 E1.13627
M73 P47 R3
G1 X142.705 Y93.468 E0.02991
G1 X142.705 Y116.532 E1.13627
G1 X142.098 Y116.532 E0.02991
G1 X142.098 Y93.468 E1.13627
G1 X141.491 Y93.468 E0.02991
G1 X141.491 Y116.532 E1.13627
M73 P48 R3
M73 Q48 S3
G1 X140.883 Y116.532 E0.02991
G1 X140.883 Y93.468 E1.13627
G1 X140.276 Y93.468 E0.02991
G1 X140.276 Y116.532 E1.13627
G1 X139.669 Y116.532 E0.02991
G1 X139.669 Y93.468 E1.13627
M73 P49 R3
M73 Q49 S3
G1 X139.062 Y93.468 E0.02991
G1 X139.062 Y116.532 E1.13627
G1 X138.455 Y116.532 E0.02991
G1 X138.455 Y93.468 E1.13627
G1 X137.848 Y93.468 E0.02991
G1 X137.848 Y116.532 E1.13627
M73 Q50 S3
G1 X137.241 Y116.532 E0.02991
G1 X137.241 Y93.468 E1.13627
M73 P50 R3
G1 X136.634 Y93.468 E0.02991
G1 X136.634 Y116.532 E1.13627
G1 X136.027 Y116.532 E0.02991
G1 X136.027 Y93.468 E1.13627
G1 X135.42 Y93.468 E0.02991
G1 X135.42 Y116.532 E1.13627
M73 P51 R3
M73 Q51 S3
G1 X134.813 Y116.532 E0.02991
G1 X134.813 Y93.468 E1.13627
G1 X134.206 Y93.468 E0.02991
G1 X134.206 Y120.532 E1.13627
G1 X133.598 Y116.532 E0.02991
G1 X133.599 Y93.468 E1.13627

G91
G1 Z0.005
G90
M73 P52 R3
M73 Q52 S3
G1 X132.991 Y93.468 E0.02991
G1 X132.991 Y116.532 E1.13627
G1 X132.384 Y116.532 E0.02991
G1 X132.384 Y93.468 E1.13627
G1 X131.777 Y93.468 E0.02991
G1 X131.777 Y116.532 E1.13627
M73 Q53 S3
G1 X131.17 Y116.532 E0.02991
G1 X131.17 Y93.468 E1.13627
M73 P53 R3
G1 X130.563 Y93.468 E0.02991
G1 X130.563 Y116.532 E1.13627
G1 X129.956 Y116.532 E0.02991
G1 X129.956 Y93.468 E1.13627
G1 X129.349 Y93.468 E0.02991
M73 Q54 S3
G1 X129.349 Y116.532 E1.13627
M73 P54 R3
G1 X128.742 Y116.532 E0.02991
G1 X128.742 Y93.468 E1.13627
G1 X128.135 Y93.468 E0.02991
G1 X128.135 Y116.532 E1.13627
M73 P54 R2
M73 Q54 S2
G1 X127.528 Y116.532 E0.02991
G1 X127.528 Y93.468 E1.13627
M73 P55 R2
M73 Q55 S2
G1 X126.921 Y93.468 E0.02991
G1 X126.921 Y116.532 E1.13627
G1 X126.314 Y116.532 E0.02991
G1 X126.314 Y93.468 E1.13627
G1 X125.706 Y93.468 E0.02991
G1 X125.706 Y116.532 E1.13627
M73 P56 R2
M73 Q56 S2
G1 X125.099 Y116.532 E0.02991
G1 X125.099 Y93.468 E1.13627
G1 X124.492 Y93.468 E0.02991
G1 X124.492 Y120.532 E1.13627
G1 X123.885 Y116.532 E0.02991
G1 X123.885 Y93.468 E1.13627



G91
G1 Z0.005
G90
M73 Q57 S2
G1 X123.278 Y93.468 E0.02991
G1 X123.278 Y116.532 E1.13627
M73 P57 R2
G1 X122.671 Y116.532 E0.02991
G1 X122.671 Y93.468 E1.13627
G1 X122.064 Y93.468 E0.02991
G1 X122.064 Y116.532 E1.13627
G1 X121.457 Y116.532 E0.02991
G1 X121.457 Y93.468 E1.13627
M73 P58 R2
M73 Q58 S2
G1 X120.85 Y93.468 E0.02991
G1 X120.85 Y116.532 E1.13627
G1 X120.243 Y116.532 E0.02991
G1 X120.243 Y93.468 E1.13627
G1 X119.636 Y93.468 E0.02991
G1 X119.636 Y116.532 E1.13627
M73 P59 R2
M73 Q59 S2
G1 X119.029 Y116.532 E0.02991
G1 X119.029 Y93.468 E1.13627
G1 X118.422 Y93.468 E0.02991
G1 X118.422 Y116.532 E1.13627
G1 X117.814 Y116.532 E0.02991
G1 X117.814 Y93.468 E1.13627
M73 Q60 S2
G1 X117.207 Y93.468 E0.02991
G1 X117.207 Y116.532 E1.13627
M73 P60 R2
G1 X116.6 Y116.532 E0.02991
G1 X116.6 Y93.468 E1.13627
G1 X115.993 Y93.468 E0.02991
G1 X115.993 Y116.532 E1.13627
G1 X115.386 Y116.532 E0.02991
G1 X115.386 Y93.468 E1.13627
M73 P61 R2
M73 Q61 S2
G1 X114.779 Y93.468 E0.02991
G1 X114.779 Y116.532 E1.13627
G1 X114.172 Y116.532 E0.02991
G1 X114.172 Y93.468 E1.13627
G1 X113.565 Y93.468 E0.02991
G1 X113.565 Y120.532 E1.13627

G91
G1 Z0.005
G90
M73 P62 R2
M73 Q62 S2
G1 X112.958 Y116.532 E0.02991
G1 X112.958 Y93.468 E1.13627
G1 X112.351 Y93.468 E0.02991
G1 X112.351 Y116.532 E1.13627
G1 X111.744 Y116.532 E0.02991
G1 X111.744 Y93.468 E1.13627
M73 Q63 S2
G1 X111.137 Y93.468 E0.02991
G1 X111.137 Y116.532 E1.13627
M73 P63 R2
G1 X110.529 Y116.532 E0.02991
G1 X110.529 Y93.468 E1.13627
G1 X109.922 Y93.468 E0.02991
G1 X109.922 Y116.532 E1.13627
G1 X109.315 Y116.532 E0.02991
G1 X109.315 Y93.468 E1.13627
M73 P64 R2
M73 Q64 S2
G1 X108.708 Y93.468 E0.02991
G1 X108.708 Y116.532 E1.13627
G1 X108.101 Y116.532 E0.02991
G1 X108.101 Y93.468 E1.13627
G1 X107.494 Y93.468 E0.02991
G1 X107.494 Y116.532 E1.13627
M73 P65 R2
M73 Q65 S2
G1 X106.887 Y116.532 E0.02991
G1 X106.887 Y93.468 E1.13627
G1 X106.28 Y93.468 E0.02991
G1 X106.28 Y116.532 E1.13627
G1 X105.673 Y116.532 E0.02991
G1 X105.673 Y93.468 E1.13627
M73 P66 R2
M73 Q66 S2
G1 X105.066 Y93.468 E0.02991
G1 X105.066 Y116.532 E1.13627
G1 X104.459 Y116.532 E0.02991
G1 X104.459 Y93.468 E1.13627
G1 X103.852 Y93.468 E0.02991
G1 X103.852 Y120.532 E1.13627
G1 X103.245 Y116.532 E0.02991



G91
G1 Z0.005
G90
M73 Q67 S2
G1 X103.245 Y93.468 E1.13627
M73 P67 R2
G1 X102.637 Y93.468 E0.02991
G1 X102.637 Y116.532 E1.13627
G1 X102.03 Y116.532 E0.02991
G1 X102.03 Y93.468 E1.13627
G1 X101.423 Y93.468 E0.02991
G1 X101.423 Y116.532 E1.13627
M73 P68 R2
M73 Q68 S2
G1 X100.816 Y116.532 E0.02991
G1 X100.816 Y93.468 E1.13627
G1 X100.209 Y93.468 E0.02991
G1 X100.209 Y116.532 E1.13627
G1 X99.602 Y116.532 E0.02991
G1 X99.602 Y93.468 E1.13627
M73 P69 R2
M73 Q69 S2
G1 X98.995 Y93.468 E0.02991
G1 X98.995 Y116.532 E1.13627
G1 X98.388 Y116.532 E0.02991
G1 X98.388 Y93.468 E1.13627
G1 X97.781 Y93.468 E0.02991
G1 X97.781 Y116.532 E1.13627
M73 P69 R1
M73 Q70 S1
G1 X97.174 Y116.532 E0.02991
G1 X97.174 Y93.468 E1.13627
M73 P70 R1
G1 X96.567 Y93.468 E0.02991
G1 X96.567 Y116.532 E1.13627
G1 X95.96 Y116.532 E0.02991
G1 X95.96 Y93.468 E1.13627
G1 X95.353 Y93.468 E0.02991
G1 X95.353 Y116.532 E1.13627
M73 P71 R1
M73 Q71 S1
G1 X94.745 Y116.532 E0.02991
G1 X94.745 Y93.468 E1.13627
G1 X94.138 Y93.468 E0.02991
G1 X94.138 Y120.532 E1.13627
G1 X93.531 Y116.532 E0.02991
G1 X93.531 Y93.468 E1.13627

G91
G1 Z0.005
G90
M73 P72 R1
M73 Q72 S1
G1 X92.924 Y93.468 E0.02991
G1 X92.924 Y116.532 E1.13627
G1 X92.317 Y116.532 E0.02991
G1 X92.317 Y93.468 E1.13627
G1 X91.71 Y93.468 E0.02991
G1 X91.71 Y116.532 E1.13627
M73 Q73 S1
G1 X91.103 Y116.532 E0.02991
G1 X91.103 Y93.468 E1.13627
M73 P73 R1
G1 X90.496 Y93.468 E0.02991
G1 X90.496 Y116.532 E1.13627
G1 X89.889 Y116.532 E0.02991
G1 X89.889 Y93.468 E1.13627
G1 X89.282 Y93.468 E0.02991
G1 X89.282 Y116.532 E1.13627
M73 P74 R1
M73 Q74 S1
G1 X88.675 Y116.532 E0.02991
G1 X88.675 Y93.468 E1.13627
G1 X88.068 Y93.468 E0.02991
G1 X88.068 Y116.532 E1.13627
G1 X87.46 Y116.532 E0.02991
G1 X87.46 Y93.468 E1.13627
M73 P75 R1
M73 Q75 S1
