; generated by SuperSlicer 2.5.59 on 2023-10-29 at 05:11:43 UTC
; external perimeters extrusion width = 0.65mm
; perimeters extrusion width = 0.65mm
; infill extrusion width = 0.65mm
; solid infill extrusion width = 0.65mm
; top infill extrusion width = 0.60mm
; first layer extrusion width = 0.70mm

; object:{"name":"patch_bed_leveling","id":"patch_bed_leveling id:0 copy 0","object_center":[119.991113,114.968765,0.000000],"boundingbox_center":[119.991113,114.968765,0.100000],"boundingbox_size":[100.000000,19.916806,0.200000]}
; Total objects to print: 1
M486 T1
; plater:{"center":[119.991113,114.968765,0.000000],"boundingbox_center":[119.991113,114.968765,0.100000],"boundingbox_size":[100.000000,19.916806,0.200000]}

M73 P0 R3
M73 Q0 S3
M201 X1000 Y1000 Z200 E5000 ; sets maximum accelerations, mm/sec^2
M203 X200 Y200 Z12 E120 ; sets maximum feedrates, mm / sec
M204 P1250 R1250 T1250 ; sets acceleration (P, T) and retract acceleration (R), mm/sec^2
M205 X8.00 Y8.00 Z0.40 E4.50 ; sets the jerk limits, mm/sec
M205 S0 T0 ; sets the minimum extruding and travel feed rate, mm/sec
;TYPE:Custom
M862.3 P "MK3S" ; printer model check
M862.1 P0.5 ; nozzle diameter check
M115 U3.11.0 ; tell printer latest fw version

; Init
G90 ; use absolute coordinates
M83 ; extruder relative mode
M104 S220 ; set extruder temp
M140 S60 ; set bed temp
M190 S60 ; wait for bed temp

M117 Homing
G28 W ; home all without mesh bed level
M300 S40 P10 ; chirp
G80 ; mesh bed leveling
M117 Saving results
G81 ; save mesh leveling results
M109 S220 ; wait for extruder temp


; Purge line
M300 S40 P10 ; chirp
M117 Printing prime line
; Small version
G0 Z0.15 ; Restore nozzle position - (thanks tim.m30)
M900 K0; Disable Linear Advance for prime line
G92 E0.0 ; reset extrusion distance
G1 Y-3.0 F1000.0 ; go outside print area
G1 E2 F1000 ; de-retract and push ooze
M73 P9 R3
M73 Q9 S3
G1 X20.0 E6  F1000.0 ; fat 20mm intro line @ 0.30
G1 X60.0 E3.2  F1000.0 ; thin +40mm intro line @ 0.08
G1 X100.0 E6  F1000.0 ; fat +40mm intro line @ 0.15
M73 P10 R3
M73 Q10 S3
G1 E-0.8 F3000; retract to avoid stringing
M73 P11 R3
M73 Q11 S3
G1 X99.5 E0 F1000.0 ; -0.5mm wipe action to avoid string
M73 P12 R3
M73 Q12 S3
G1 X110.0 E0 F1000.0 ; +10mm intro line @ 0.00
G1 E0.6 F1500; de-retract
G92 E0.0 ; reset extrusion distance

; Long version
;G1 X55.0 F2000.0
;G1 Z0.3 F1000.0
;G92 E0.0
;G1 X240.0 E25.0 F2200.0
;G1 Y-2.0 F1000.0
;G1 X65.0 E25 F1400.0 ; off set this section to the right by 10mm
;G1 Z0.20 F1000.0
;G1 X15.0 E4.0 F1000.0 ; offset to the right 10mm to avoid blob;

; Final print adjustments
; Prusa's default flow to 95% to prevent overextrusion
M221 S95
; Set default linear advances for nozzles 0.4, 0.6 and 0.8
M900 K0.08
; Set extruder motor currents according to print profile name

M907 E430

M300 S40 P10 ; chirp
M117 Print in progress
M107
G21 ; set units to millimeters
G90 ; use absolute coordinates
M83 ; use relative distances for extrusion
M900 K0.06;
;_TOOLCHANGE 0
M107
;LAYER_CHANGE
;Z:0.2
;HEIGHT:0.2
;BEFORE_LAYER_CHANGE
G92 E0.0
;0.2


G1 Z0.2 F720
;AFTER_LAYER_CHANGE
;0.2
G1 E-2 F2100
M204 S800

;TYPE:Solid infill
G91
G1 Z0.005
G90

G1 F1200
G1 X71.043 Y106.04 E0.98807
G1 X71.7 Y106.04 E0.0359
G1 X71.7 Y123.842 E0.97263
G1 X72.357 Y123.842 E0.0359
G1 X72.357 Y106.04 E0.97263
M73 P26 R2
M73 Q26 S2
G1 X73.015 Y106.04 E0.0359
G1 X73.015 Y123.842 E0.97263
G1 X73.672 Y123.842 E0.0359
G1 X73.672 Y106.04 E0.97263
M73 Q27 S2
G1 X74.329 Y106.04 E0.0359
G1 X74.329 Y123.842 E0.97263
M73 P27 R2
G1 X74.986 Y123.842 E0.0359
G1 X74.986 Y106.04 E0.97263
G1 X75.643 Y106.04 E0.0359
M73 Q28 S2
G1 X75.643 Y123.842 E0.97263
M73 P28 R2

G91
G1 Z0.005
G90
G1 X76.3 Y123.842 E0.0359
G1 X76.3 Y106.04 E0.97263
G1 X76.957 Y106.04 E0.0359
G1 X76.957 Y123.842 E0.97263
M73 P29 R2
M73 Q29 S2
G1 X77.614 Y123.842 E0.0359
G1 X77.614 Y106.04 E0.97263
G1 X78.271 Y106.04 E0.0359
G1 X78.271 Y123.842 E0.97263
M73 P30 R2
M73 Q30 S2
G1 X78.928 Y123.842 E0.0359
G1 X78.928 Y106.04 E0.97263
G1 X79.585 Y106.04 E0.0359
G1 X79.585 Y123.842 E0.97263
M73 Q31 S2
G1 X80.242 Y123.842 E0.0359
G1 X80.242 Y106.04 E0.97263
M73 P31 R2


G91
G1 Z0.005
G90
G1 X80.899 Y106.04 E0.0359
G1 X80.899 Y123.842 E0.97263
G1 X81.557 Y123.842 E0.0359
M73 Q32 S2
G1 X81.557 Y106.04 E0.97263
M73 P32 R2
G1 X82.214 Y106.04 E0.0359
G1 X82.214 Y123.842 E0.97263
G1 X82.871 Y123.842 E0.0359
G1 X82.871 Y106.04 E0.97263
M73 P33 R2
M73 Q33 S2
G1 X83.528 Y106.04 E0.0359
G1 X83.528 Y123.842 E0.97263
G1 X84.185 Y123.842 E0.0359
G1 X84.185 Y106.04 E0.97263
M73 P34 R2
M73 Q34 S2
G1 X84.842 Y106.04 E0.0359
G1 X84.842 Y123.842 E0.97263
G1 X85.499 Y123.842 E0.0359
G1 X85.499 Y106.04 E0.97263
M73 Q35 S2
G1 X86.156 Y106.04 E0.0359
G1 X86.156 Y123.842 E0.97263
M73 P35 R2


G91
G1 Z0.005
G90
G1 X86.813 Y123.842 E0.0359
G1 X86.813 Y106.04 E0.97263
G1 X87.47 Y106.04 E0.0359
M73 Q36 S2
G1 X87.47 Y123.842 E0.97263
M73 P36 R2
G1 X88.127 Y123.842 E0.0359
G1 X88.127 Y106.04 E0.97263
G1 X88.784 Y106.04 E0.0359
G1 X88.784 Y123.842 E0.97263
M73 P37 R2
M73 Q37 S2
G1 X89.441 Y123.842 E0.0359
G1 X89.441 Y106.04 E0.97263
G1 X90.099 Y106.04 E0.0359
G1 X90.099 Y123.842 E0.97263
M73 P38 R2
M73 Q38 S2
G1 X90.756 Y123.842 E0.0359
G1 X90.756 Y106.04 E0.97263
G1 X91.413 Y106.04 E0.0359
G1 X91.413 Y123.842 E0.97263
M73 Q39 S2
G1 X92.07 Y123.842 E0.0359
M73 P39 R2


G91
G1 Z0.005
G90
G1 X92.07 Y106.04 E0.97263
G1 X92.727 Y106.04 E0.0359
G1 X92.727 Y123.842 E0.97263
G1 X93.384 Y123.842 E0.0359
M73 Q40 S2
G1 X93.384 Y106.04 E0.97263
M73 P40 R2
G1 X94.041 Y106.04 E0.0359
G1 X94.041 Y123.842 E0.97263
G1 X94.698 Y123.842 E0.0359
G1 X94.698 Y106.04 E0.97263
M73 P41 R2
M73 Q41 S2
G1 X95.355 Y106.04 E0.0359
G1 X95.355 Y123.842 E0.97263
G1 X96.012 Y123.842 E0.0359
G1 X96.012 Y106.04 E0.97263
M73 P42 R2
M73 Q42 S2
G1 X96.669 Y106.04 E0.0359
G1 X96.669 Y123.842 E0.97263
G1 X97.326 Y123.842 E0.0359
G1 X97.326 Y106.04 E0.97263
M73 Q43 S2
G1 X97.984 Y106.04 E0.0359
M73 P43 R2


G91
G1 Z0.005
G90
G1 X97.984 Y123.842 E0.97263
G1 X98.641 Y123.842 E0.0359
M73 P43 R1
M73 Q43 S1
G1 X98.641 Y106.04 E0.97263
G1 X99.298 Y106.04 E0.0359
M73 Q44 S1
G1 X99.298 Y123.842 E0.97263
M73 P44 R1
G1 X99.955 Y123.842 E0.0359
G1 X99.955 Y106.04 E0.97263
G1 X100.612 Y106.04 E0.0359
G1 X100.612 Y123.842 E0.97263
M73 P45 R1
M73 Q45 S1
G1 X101.269 Y123.842 E0.0359
G1 X101.269 Y106.04 E0.97263
G1 X101.926 Y106.04 E0.0359
G1 X101.926 Y123.842 E0.97263
M73 P46 R1
M73 Q46 S1
G1 X102.583 Y123.842 E0.0359
G1 X102.583 Y106.04 E0.97263
G1 X103.24 Y106.04 E0.0359
G1 X103.24 Y123.842 E0.97263
M73 Q47 S1
G1 X103.897 Y123.842 E0.0359
M73 P47 R1


G91
G1 Z0.005
G90
G1 X103.897 Y106.04 E0.97263
G1 X104.554 Y106.04 E0.0359
G1 X104.554 Y123.842 E0.97263
G1 X105.211 Y123.842 E0.0359
M73 Q48 S1
G1 X105.211 Y106.04 E0.97263
M73 P48 R1
G1 X105.868 Y106.04 E0.0359
G1 X105.868 Y123.842 E0.97263
G1 X106.526 Y123.842 E0.0359
G1 X106.526 Y106.04 E0.97263
M73 P49 R1
M73 Q49 S1
G1 X107.183 Y106.04 E0.0359
G1 X107.183 Y123.842 E0.97263
G1 X107.84 Y123.842 E0.0359
G1 X107.84 Y106.04 E0.97263
M73 P50 R1
M73 Q50 S1
G1 X108.497 Y106.04 E0.0359
G1 X108.497 Y123.842 E0.97263
G1 X109.154 Y123.842 E0.0359
G1 X109.154 Y106.04 E0.97263
M73 P51 R1
M73 Q51 S1
G1 X109.811 Y106.04 E0.0359
G1 X109.811 Y123.842 E0.97263
G1 X110.468 Y123.842 E0.0359
G1 X110.468 Y106.04 E0.97263
G1 X111.125 Y106.04 E0.0359
M73 Q52 S1
G1 X111.125 Y123.842 E0.97263
M73 P52 R1


G91
G1 Z0.005
G90
G1 X111.782 Y123.842 E0.0359
G1 X111.782 Y106.04 E0.97263
G1 X112.439 Y106.04 E0.0359
G1 X112.439 Y123.842 E0.97263
M73 P53 R1
M73 Q53 S1
G1 X113.096 Y123.842 E0.0359
G1 X113.096 Y106.04 E0.97263
G1 X113.753 Y106.04 E0.0359
G1 X113.753 Y123.842 E0.97263
M73 P54 R1
M73 Q54 S1
G1 X114.41 Y123.842 E0.0359
G1 X114.41 Y106.04 E0.97263
G1 X115.068 Y106.04 E0.0359
G1 X115.068 Y123.842 E0.97263
M73 P55 R1
M73 Q55 S1
G1 X115.725 Y123.842 E0.0359
G1 X115.725 Y106.04 E0.97263
G1 X116.382 Y106.04 E0.0359
G1 X116.382 Y123.842 E0.97263
G1 X117.039 Y123.842 E0.0359
M73 Q56 S1
G1 X117.039 Y106.04 E0.97263
M73 P56 R1


G91
G1 Z0.005
G90
G1 X117.696 Y106.04 E0.0359
G1 X117.696 Y123.842 E0.97263
G1 X118.353 Y123.842 E0.0359
G1 X118.353 Y106.04 E0.97263
M73 P57 R1
M73 Q57 S1
G1 X119.01 Y106.04 E0.0359
G1 X119.01 Y123.842 E0.97263
G1 X119.667 Y123.842 E0.0359
G1 X119.667 Y106.04 E0.97263
M73 P58 R1
M73 Q58 S1
G1 X120.324 Y106.04 E0.0359
G1 X120.324 Y123.842 E0.97263
G1 X120.981 Y123.842 E0.0359
G1 X120.981 Y106.04 E0.97263
M73 P59 R1
M73 Q59 S1
G1 X121.638 Y106.04 E0.0359
G1 X121.638 Y123.842 E0.97263
G1 X122.295 Y123.842 E0.0359
G1 X122.295 Y106.04 E0.97263
G1 X122.953 Y106.04 E0.0359
M73 Q60 S1
G1 X122.953 Y123.842 E0.97263
M73 P60 R1


G91
G1 Z0.005
G90
G1 X123.61 Y123.842 E0.0359
G1 X123.61 Y106.04 E0.97263
G1 X124.267 Y106.04 E0.0359
G1 X124.267 Y123.842 E0.97263
M73 P61 R1
M73 Q61 S1
G1 X124.924 Y123.842 E0.0359
G1 X124.924 Y106.04 E0.97263
G1 X125.581 Y106.04 E0.0359
G1 X125.581 Y123.842 E0.97263
M73 P62 R1
M73 Q62 S1
G1 X126.238 Y123.842 E0.0359
G1 X126.238 Y106.04 E0.97263
G1 X126.895 Y106.04 E0.0359
G1 X126.895 Y123.842 E0.97263
M73 P63 R1
M73 Q63 S1
G1 X127.552 Y123.842 E0.0359
G1 X127.552 Y106.04 E0.97263
G1 X128.209 Y106.04 E0.0359
G1 X128.209 Y123.842 E0.97263
G1 X128.866 Y123.842 E0.0359
M73 Q64 S1
G1 X128.866 Y106.04 E0.97263
M73 P64 R1


G91
G1 Z0.005
G90
G1 X129.523 Y106.04 E0.0359
G1 X129.523 Y123.842 E0.97263
G1 X130.18 Y123.842 E0.0359
G1 X130.18 Y106.04 E0.97263
M73 P65 R1
M73 Q65 S1
G1 X130.837 Y106.04 E0.0359
G1 X130.837 Y123.842 E0.97263
G1 X131.495 Y123.842 E0.0359
G1 X131.495 Y106.04 E0.97263
M73 P66 R1
M73 Q66 S1
G1 X132.152 Y106.04 E0.0359
G1 X132.152 Y123.842 E0.97263
G1 X132.809 Y123.842 E0.0359
G1 X132.809 Y106.04 E0.97263
M73 P67 R1
M73 Q67 S1
G1 X133.466 Y106.04 E0.0359
G1 X133.466 Y123.842 E0.97263
G1 X134.123 Y123.842 E0.0359
G1 X134.123 Y106.04 E0.97263
G1 X134.78 Y106.04 E0.0359
M73 Q68 S1
G1 X134.78 Y123.842 E0.97263
M73 P68 R1


G91
G1 Z0.005
G90
G1 X135.437 Y123.842 E0.0359
G1 X135.437 Y106.04 E0.97263
G1 X136.094 Y106.04 E0.0359
G1 X136.094 Y123.842 E0.97263
M73 P69 R1
M73 Q69 S1
G1 X136.751 Y123.842 E0.0359
G1 X136.751 Y106.04 E0.97263
G1 X137.408 Y106.04 E0.0359
G1 X137.408 Y123.842 E0.97263
M73 P70 R1
M73 Q70 S1
G1 X138.065 Y123.842 E0.0359
G1 X138.065 Y106.04 E0.97263
G1 X138.722 Y106.04 E0.0359
G1 X138.722 Y123.842 E0.97263
M73 P71 R1
M73 Q71 S1
G1 X139.379 Y123.842 E0.0359
G1 X139.379 Y106.04 E0.97263
G1 X140.037 Y106.04 E0.0359
G1 X140.037 Y123.842 E0.97263
M73 P71 R0
M73 Q71 S0
G1 X140.694 Y123.842 E0.0359
M73 Q72 S0
G1 X140.694 Y106.04 E0.97263
M73 P72 R0


G91
G1 Z0.005
G90
G1 X141.351 Y106.04 E0.0359
G1 X141.351 Y123.842 E0.97263
G1 X142.008 Y123.842 E0.0359
G1 X142.008 Y106.04 E0.97263
M73 P73 R0
M73 Q73 S0
G1 X142.665 Y106.04 E0.0359
G1 X142.665 Y123.842 E0.97263
G1 X143.322 Y123.842 E0.0359
G1 X143.322 Y106.04 E0.97263
M73 P74 R0
M73 Q74 S0
G1 X143.979 Y106.04 E0.0359
G1 X143.979 Y123.842 E0.97263
G1 X144.636 Y123.842 E0.0359
G1 X144.636 Y106.04 E0.97263
M73 P75 R0
M73 Q75 S0
G1 X145.293 Y106.04 E0.0359
G1 X145.293 Y123.842 E0.97263
G1 X145.95 Y123.842 E0.0359
G1 X145.95 Y106.04 E0.97263
G1 X146.607 Y106.04 E0.0359
M73 Q76 S0
G1 X146.607 Y123.842 E0.97263
M73 P76 R0


G91
G1 Z0.005
G90
G1 X147.264 Y123.842 E0.0359
G1 X147.264 Y106.04 E0.97263
G1 X147.922 Y106.04 E0.0359
G1 X147.922 Y123.842 E0.97263
M73 P77 R0
M73 Q77 S0
G1 X148.579 Y123.842 E0.0359
G1 X148.579 Y106.04 E0.97263
G1 X149.236 Y106.04 E0.0359
G1 X149.236 Y123.842 E0.97263
M73 P78 R0
M73 Q78 S0
G1 X149.893 Y123.842 E0.0359
G1 X149.893 Y106.04 E0.97263
G1 X150.55 Y106.04 E0.0359
G1 X150.55 Y123.842 E0.97263
M73 P79 R0
M73 Q79 S0
G1 X151.207 Y123.842 E0.0359
G1 X151.207 Y106.04 E0.97263
G1 X151.864 Y106.04 E0.0359
G1 X151.864 Y123.842 E0.97263
G1 X152.521 Y123.842 E0.0359
M73 Q80 S0
G1 X152.521 Y106.04 E0.97263
M73 P80 R0


G91
G1 Z0.005
G90
G1 X153.178 Y106.04 E0.0359
G1 X153.178 Y123.842 E0.97263
G1 X153.835 Y123.842 E0.0359
G1 X153.835 Y106.04 E0.97263
M73 P81 R0
M73 Q81 S0
G1 X154.492 Y106.04 E0.0359
G1 X154.492 Y123.842 E0.97263
G1 X155.149 Y123.842 E0.0359
G1 X155.149 Y106.04 E0.97263
M73 P82 R0
M73 Q82 S0
G1 X155.806 Y106.04 E0.0359
G1 X155.806 Y123.842 E0.97263
G1 X156.464 Y123.842 E0.0359
G1 X156.464 Y106.04 E0.97263
M73 P83 R0
M73 Q83 S0
G1 X157.121 Y106.04 E0.0359
G1 X157.121 Y123.842 E0.97263
G1 X157.778 Y123.842 E0.0359
G1 X157.778 Y106.04 E0.97263
G1 X158.435 Y106.04 E0.0359
M73 Q84 S0
G1 X158.435 Y123.842 E0.97263
M73 P84 R0


G91
G1 Z0.005
G90
G1 X159.092 Y123.842 E0.0359
G1 X159.092 Y106.04 E0.97263
G1 X159.749 Y106.04 E0.0359
G1 X159.749 Y123.842 E0.97263
M73 P85 R0
M73 Q85 S0
G1 X160.406 Y123.842 E0.0359
G1 X160.406 Y106.04 E0.97263
G1 X161.063 Y106.04 E0.0359
G1 X161.063 Y123.842 E0.97263
M73 P86 R0
M73 Q86 S0
G1 X161.72 Y123.842 E0.0359
G1 X161.72 Y106.04 E0.97263
G1 X162.377 Y106.04 E0.0359
G1 X162.377 Y123.842 E0.97263
M73 P87 R0
M73 Q87 S0
G1 X163.034 Y123.842 E0.0359
G1 X163.034 Y106.04 E0.97263
G1 X163.691 Y106.04 E0.0359
G1 X163.691 Y123.842 E0.97263
G1 X164.348 Y123.842 E0.0359
M73 Q88 S0
G1 X164.348 Y106.04 E0.97263
M73 P88 R0


G91
G1 Z0.005
G90
G1 X165.006 Y106.04 E0.0359
G1 X165.006 Y123.842 E0.97263
G1 X165.663 Y123.842 E0.0359
G1 X165.663 Y106.04 E0.97263
M73 P89 R0
M73 Q89 S0
G1 X166.32 Y106.04 E0.0359
G1 X166.32 Y123.842 E0.97263
G1 X166.977 Y123.842 E0.0359
G1 X166.977 Y106.04 E0.97263
M73 P90 R0
M73 Q90 S0
G1 X167.634 Y106.04 E0.0359
G1 X167.634 Y123.842 E0.97263
G1 X168.291 Y123.842 E0.0359
G1 X168.291 Y106.04 E0.97263
M73 P91 R0
M73 Q91 S0
G1 X168.948 Y106.04 E0.0359
G1 X168.948 Y124.124 E0.98807
G1 E-2 F2100
; stop printing object patch_bed_leveling id:0 copy 0
M486 S-1
M107
;TYPE:Custom
; Filament-specific end gcode
; Avoid leaks
G1 E-8.0000 F5800

; Move print head up
G1 Z1.2 F720
; Park
M73 P92 R0
M73 Q92 S0
G1 X0 Y200 F3600
; Move further up

    G1 Z150 F720


G1 E2 F5000
M73 P93 R0
M73 Q93 S0
G1 E2 F5500
M73 P99 R0
M73 Q99 S0
G1 E2 F6000

G1 E10.0000 F3000
G1 E-10.0000 F3100
G1 E10.0000 F3150
G1 E-10.0000 F3250

G4 ; wait
M221 S100 ; reset flow
M900 K0 ; reset LA
M907 E538 ; reset extruder motor current

M107 ; turn off fan
M84 ; disable motors
M73 Q100 S0
; filament used [mm] = 176.87
; filament used [cm3] = 0.43
; filament used [g] = 0.53
; filament cost = 0.01
; total filament used [g] = 0.53
; total filament cost = 0.01
; total layers count = 1
; estimated printing time (normal mode) = 3m 31s
; estimated printing time (silent mode) = 3m 31s

; SuperSlicer_config = begin
; allow_empty_layers = 0
; arc_fitting = 0
; arc_fitting_tolerance = 5%
; avoid_crossing_not_first_layer = 1
; avoid_crossing_perimeters = 0
; avoid_crossing_perimeters_max_detour = 0
; bed_custom_model =
; bed_custom_texture =
; bed_shape = 0x0,250x0,250x210,0x210
; bed_temperature = 60
; before_layer_gcode = ;BEFORE_LAYER_CHANGE\nG92 E0.0\n;[layer_z]\n\n
; between_objects_gcode =
; bottom_fill_pattern = monotonic
; bottom_solid_layers = 4
; bottom_solid_min_thickness = 0.6
; bridge_acceleration = 1000
; bridge_angle = 0
; bridge_fan_speed = 100
; bridge_fill_pattern = rectilinear
; bridge_flow_ratio = 100%
; bridge_internal_acceleration = 0
; bridge_internal_fan_speed = -1
; bridge_overlap = 75%
; bridge_overlap_min = 60%
; bridge_speed = 25
; bridge_speed_internal = 150%
; bridge_type = flow
; bridged_infill_margin = 200%
; brim_acceleration = 0
; brim_ears = 0
; brim_ears_detection_length = 1
; brim_ears_max_angle = 125
; brim_ears_pattern = concentric
; brim_inside_holes = 0
; brim_per_object = 0
; brim_separation = 0.1
; brim_speed = 50%
; brim_width = 0
; brim_width_interior = 0
; chamber_temperature = 0
; clip_multipart_objects = 1
; color_change_gcode = M600
; compatible_printers_condition_cummulative = "printer_notes=~/.*PRINTER_VENDOR_PRUSA3D.*/ and printer_notes=~/.*PRINTER_MODEL_MK3.*/ and nozzle_diameter[0]==0.6";"nozzle_diameter[0]!=0.8 and ! (printer_notes=~/.*PRINTER_VENDOR_PRUSA3D.*/ and printer_notes=~/.*PRINTER_MODEL_MK(2.5|3).*/ and single_extruder_multi_material)"
; complete_objects = 0
; complete_objects_one_skirt = 0
